( file start tmp/split/toy.Styrofoam.02.Engrave.svg)
( speed:700, strength:300 codestyle='laserGRBL', passes:1 support:no )
M3 S0;

S0;
S0;


( start pass 1 of 1 )
G0 X20.01 Y323.86;
S300;
G1 X19.98 Y323.31 F700;
G1 X19.89 Y322.77;
G1 X19.73 Y322.3;
G1 X19.64 Y322.08;
G1 X19.38 Y321.61;
G1 X19.05 Y321.18;
G1 X18.68 Y320.8;
G1 X18.61 Y320.74;
G1 X18.18 Y320.43;
G1 X17.69 Y320.17;
G1 X17.16 Y319.95;
G1 X17.07 Y319.93;
G1 X16.44 Y319.77;
G1 X15.77 Y319.68;
G1 X15.16 Y319.64;
G1 X14.52 Y319.68;
G1 X13.92 Y319.75;
G1 X13.83 Y319.77;
G1 X13.24 Y319.91;
G1 X12.73 Y320.07;
G1 X12.29 Y320.25;
G1 X11.93 Y320.43;
G1 X11.69 Y320.58;
G1 X11.52 Y320.7;
G1 X11.48 Y320.75;
G1 X11.34 Y320.95;
G1 X11.29 Y321.08;
G1 X11.25 Y321.33;
G1 X11.23 Y321.64;
G1 X11.24 Y321.89;
G1 X11.26 Y322.02;
G1 X11.3 Y322.24;
G1 X11.32 Y322.3;
G1 X11.4 Y322.41;
G1 X11.43 Y322.43;
G1 X11.57 Y322.47;
G1 X11.59 Y322.47;
G1 X11.74 Y322.44;
G1 X11.93 Y322.33;
G1 X12.02 Y322.29;
G1 X12.31 Y322.11;
G1 X12.68 Y321.91;
G1 X12.74 Y321.88;
G1 X13.19 Y321.68;
G1 X13.71 Y321.49;
G1 X13.8 Y321.45;
G1 X14.31 Y321.33;
G1 X14.87 Y321.27;
G1 X15.25 Y321.27;
G1 X15.75 Y321.3;
G1 X16.21 Y321.39;
G1 X16.37 Y321.44;
G1 X16.78 Y321.6;
G1 X17.13 Y321.81;
G1 X17.25 Y321.89;
G1 X17.54 Y322.18;
G1 X17.76 Y322.51;
G1 X17.82 Y322.64;
G1 X17.95 Y323.0;
G1 X18.01 Y323.39;
G1 X18.03 Y323.64;
G1 X17.98 Y324.05;
G1 X17.89 Y324.41;
G1 X17.75 Y324.69;
G1 X17.48 Y325.02;
G1 X17.16 Y325.33;
G1 X17.02 Y325.44;
G1 X16.53 Y325.76;
G1 X15.99 Y326.02;
G1 X14.81 Y326.58;
G1 X13.92 Y327.04;
G1 X13.63 Y327.2;
G1 X13.12 Y327.56;
G1 X12.67 Y327.95;
G1 X12.6 Y328.02;
G1 X12.25 Y328.43;
G1 X11.96 Y328.9;
G1 X11.86 Y329.1;
G1 X11.72 Y329.52;
G1 X11.62 Y329.99;
G1 X11.59 Y330.5;
G1 X11.59 Y330.6;
G1 X11.62 Y331.14;
G1 X11.71 Y331.65;
G1 X11.87 Y332.11;
G1 X11.91 Y332.19;
G1 X12.14 Y332.61;
G1 X12.42 Y332.98;
G1 X12.75 Y333.31;
G1 X12.81 Y333.37;
G1 X13.24 Y333.67;
G1 X13.72 Y333.91;
G1 X14.19 Y334.08;
G1 X14.76 Y334.23;
G1 X15.36 Y334.31;
G1 X15.92 Y334.34;
G1 X16.5 Y334.3;
G1 X16.87 Y334.25;
G1 X17.44 Y334.13;
G1 X17.77 Y334.03;
G1 X18.22 Y333.87;
G1 X18.53 Y333.72;
G1 X18.75 Y333.6;
G1 X18.89 Y333.5;
G1 X18.96 Y333.44;
G1 X19.07 Y333.32;
G1 X19.11 Y333.28;
G1 X19.16 Y333.14;
G1 X19.16 Y333.12;
G1 X19.19 Y332.93;
G1 X19.19 Y332.9;
G1 X19.2 Y332.69;
G1 X19.2 Y332.56;
G1 X19.19 Y332.24;
G1 X19.18 Y332.21;
G1 X19.14 Y331.97;
G1 X19.14 Y331.94;
G1 X19.05 Y331.81;
G1 X19.04 Y331.79;
G1 X18.92 Y331.75;
G1 X18.91 Y331.74;
G1 X18.78 Y331.77;
G1 X18.6 Y331.85;
G1 X18.52 Y331.9;
G1 X18.2 Y332.08;
G1 X17.89 Y332.24;
G1 X17.48 Y332.43;
G1 X17.0 Y332.59;
G1 X16.55 Y332.7;
G1 X16.05 Y332.75;
G1 X15.85 Y332.76;
G1 X15.38 Y332.73;
G1 X14.96 Y332.64;
G1 X14.82 Y332.59;
G1 X14.47 Y332.44;
G1 X14.19 Y332.26;
G1 X14.09 Y332.17;
G1 X13.86 Y331.91;
G1 X13.68 Y331.6;
G1 X13.66 Y331.55;
G1 X13.55 Y331.17;
G1 X13.52 Y330.77;
G1 X13.55 Y330.38;
G1 X13.65 Y330.03;
G1 X13.79 Y329.75;
G1 X14.05 Y329.41;
G1 X14.38 Y329.1;
G1 X14.52 Y328.99;
G1 X15.02 Y328.67;
G1 X15.57 Y328.38;
G1 X16.76 Y327.82;
G1 X17.64 Y327.37;
G1 X17.95 Y327.2;
G1 X18.46 Y326.87;
G1 X18.91 Y326.48;
G1 X18.98 Y326.41;
G1 X19.3 Y326.04;
G1 X19.57 Y325.62;
G1 X19.72 Y325.33;
G1 X19.88 Y324.92;
G1 X19.97 Y324.45;
G1 X20.01 Y323.95;
G1 X20.01 Y323.86;
G1 X20.01 Y323.86;
S0;( end pass 1 of 1 )


( start pass 1 of 1 )
G0 X27.67 Y320.86;
S300;
G1 X27.66 Y320.57 F700;
G1 X27.63 Y320.36;
G1 X27.56 Y320.18;
G1 X27.5 Y320.08;
G1 X27.35 Y319.98;
G1 X27.23 Y319.92;
G1 X26.94 Y319.82;
G1 X26.82 Y319.79;
G1 X26.35 Y319.7;
G1 X25.84 Y319.67;
G1 X25.33 Y319.7;
G1 X24.88 Y319.77;
G1 X24.52 Y319.87;
G1 X24.16 Y320.04;
G1 X23.85 Y320.26;
G1 X23.61 Y320.49;
G1 X23.39 Y320.8;
G1 X23.22 Y321.17;
G1 X23.1 Y321.54;
G1 X23.0 Y322.06;
G1 X22.95 Y322.64;
G1 X22.94 Y323.04;
G1 X22.94 Y328.83;
G1 X21.55 Y328.83;
G1 X21.43 Y328.87;
G1 X21.32 Y328.96;
G1 X21.29 Y329.01;
G1 X21.23 Y329.18;
G1 X21.2 Y329.41;
G1 X21.19 Y329.58;
G1 X21.2 Y329.86;
G1 X21.21 Y329.94;
G1 X21.27 Y330.13;
G1 X21.29 Y330.17;
G1 X21.37 Y330.28;
G1 X21.4 Y330.3;
G1 X21.55 Y330.34;
G1 X21.56 Y330.34;
G1 X22.94 Y330.34;
G1 X22.94 Y332.7;
G1 X22.98 Y332.85;
G1 X23.08 Y332.94;
G1 X23.12 Y332.96;
G1 X23.3 Y333.02;
G1 X23.41 Y333.03;
G1 X23.66 Y333.05;
G1 X23.85 Y333.06;
G1 X24.15 Y333.05;
G1 X24.3 Y333.03;
G1 X24.5 Y332.99;
G1 X24.57 Y332.96;
G1 X24.7 Y332.87;
G1 X24.72 Y332.85;
G1 X24.76 Y332.72;
G1 X24.76 Y332.7;
G1 X24.76 Y330.34;
G1 X27.31 Y330.34;
G1 X27.45 Y330.31;
G1 X27.46 Y330.3;
G1 X27.55 Y330.21;
G1 X27.57 Y330.17;
G1 X27.64 Y330.01;
G1 X27.65 Y329.94;
G1 X27.67 Y329.69;
G1 X27.67 Y329.58;
G1 X27.66 Y329.31;
G1 X27.61 Y329.11;
G1 X27.57 Y329.01;
G1 X27.48 Y328.89;
G1 X27.36 Y328.84;
G1 X27.31 Y328.83;
G1 X24.76 Y328.83;
G1 X24.76 Y323.3;
G1 X24.78 Y322.8;
G1 X24.84 Y322.37;
G1 X24.94 Y322.0;
G1 X25.06 Y321.75;
G1 X25.23 Y321.52;
G1 X25.46 Y321.37;
G1 X25.74 Y321.27;
G1 X26.07 Y321.23;
G1 X26.15 Y321.23;
G1 X26.5 Y321.25;
G1 X26.6 Y321.27;
G1 X26.92 Y321.37;
G1 X26.96 Y321.38;
G1 X27.2 Y321.47;
G1 X27.22 Y321.48;
G1 X27.39 Y321.52;
G1 X27.42 Y321.54;
G1 X27.52 Y321.5;
G1 X27.58 Y321.44;
G1 X27.59 Y321.39;
G1 X27.64 Y321.24;
G1 X27.65 Y321.19;
G1 X27.67 Y320.95;
G1 X27.67 Y320.86;
G1 X27.67 Y320.86;
S0;( end pass 1 of 1 )


( start pass 1 of 1 )
G0 X34.6 Y319.86;
S300;
G1 X33.27 Y316.2 F700;
G1 X33.19 Y316.08;
G1 X33.04 Y315.99;
G1 X32.93 Y315.95;
G1 X32.71 Y315.89;
G1 X32.43 Y315.86;
G1 X32.11 Y315.85;
G1 X31.83 Y315.86;
G1 X31.65 Y315.88;
G1 X31.46 Y315.92;
G1 X31.38 Y315.97;
G1 X31.3 Y316.07;
G1 X31.28 Y316.14;
G1 X31.29 Y316.3;
G1 X31.33 Y316.41;
G1 X32.7 Y319.86;
G1 X32.54 Y319.97;
G1 X32.51 Y320.0;
G1 X32.4 Y320.17;
G1 X32.39 Y320.2;
G1 X28.85 Y329.69;
G1 X28.78 Y329.9;
G1 X28.76 Y330.06;
G1 X28.8 Y330.2;
G1 X28.85 Y330.27;
G1 X28.98 Y330.34;
G1 X29.14 Y330.37;
G1 X29.37 Y330.39;
G1 X29.67 Y330.4;
G1 X29.97 Y330.39;
G1 X30.19 Y330.38;
G1 X30.4 Y330.35;
G1 X30.48 Y330.32;
G1 X30.6 Y330.24;
G1 X30.64 Y330.19;
G1 X30.72 Y330.04;
G1 X30.75 Y329.97;
G1 X33.58 Y322.01;
G1 X33.61 Y322.01;
G1 X36.35 Y330.01;
G1 X36.4 Y330.17;
G1 X36.49 Y330.27;
G1 X36.5 Y330.28;
G1 X36.65 Y330.34;
G1 X36.79 Y330.37;
G1 X37.0 Y330.39;
G1 X37.28 Y330.4;
G1 X37.33 Y330.4;
G1 X37.64 Y330.39;
G1 X37.84 Y330.37;
G1 X38.02 Y330.33;
G1 X38.11 Y330.27;
G1 X38.2 Y330.16;
G1 X38.22 Y330.06;
G1 X38.2 Y329.87;
G1 X38.15 Y329.73;
G1 X34.6 Y319.86;
S0;( end pass 1 of 1 )


( start pass 1 of 1 )
G0 X46.09 Y329.41;
S300;
G1 X46.09 Y329.12 F700;
G1 X46.08 Y329.0;
G1 X46.05 Y328.79;
G1 X46.04 Y328.74;
G1 X45.95 Y328.59;
G1 X45.86 Y328.55;
G1 X45.82 Y328.55;
G1 X45.66 Y328.57;
G1 X45.6 Y328.59;
G1 X45.34 Y328.68;
G1 X45.31 Y328.69;
G1 X45.0 Y328.78;
G1 X44.96 Y328.79;
G1 X44.61 Y328.83;
G1 X44.53 Y328.83;
G1 X44.22 Y328.8;
G1 X43.99 Y328.72;
G1 X43.71 Y328.58;
G1 X43.43 Y328.36;
G1 X43.15 Y328.09;
G1 X42.87 Y327.75;
G1 X42.82 Y327.69;
G1 X42.54 Y327.3;
G1 X42.24 Y326.85;
G1 X42.11 Y326.66;
G1 X42.11 Y320.14;
G1 X42.08 Y320.0;
G1 X42.07 Y319.98;
G1 X41.96 Y319.89;
G1 X41.93 Y319.88;
G1 X41.76 Y319.83;
G1 X41.65 Y319.82;
G1 X41.4 Y319.8;
G1 X41.2 Y319.79;
G1 X40.9 Y319.8;
G1 X40.76 Y319.82;
G1 X40.53 Y319.86;
G1 X40.47 Y319.88;
G1 X40.35 Y319.95;
G1 X40.33 Y319.98;
G1 X40.29 Y320.14;
G1 X40.29 Y330.06;
G1 X40.32 Y330.19;
G1 X40.33 Y330.2;
G1 X40.4 Y330.29;
G1 X40.46 Y330.31;
G1 X40.64 Y330.37;
G1 X40.71 Y330.38;
G1 X40.94 Y330.4;
G1 X41.12 Y330.4;
G1 X41.39 Y330.39;
G1 X41.52 Y330.38;
G1 X41.69 Y330.35;
G1 X41.77 Y330.31;
G1 X41.88 Y330.22;
G1 X41.89 Y330.2;
G1 X41.94 Y330.09;
G1 X41.94 Y330.06;
G1 X41.94 Y328.61;
G1 X42.24 Y329.04;
G1 X42.53 Y329.39;
G1 X42.7 Y329.58;
G1 X43.02 Y329.89;
G1 X43.33 Y330.14;
G1 X43.38 Y330.17;
G1 X43.7 Y330.36;
G1 X44.01 Y330.47;
G1 X44.4 Y330.54;
G1 X44.65 Y330.55;
G1 X44.97 Y330.53;
G1 X45.36 Y330.48;
G1 X45.68 Y330.39;
G1 X45.71 Y330.38;
G1 X45.87 Y330.31;
G1 X45.94 Y330.27;
G1 X46.02 Y330.17;
G1 X46.03 Y330.16;
G1 X46.06 Y330.04;
G1 X46.08 Y329.9;
G1 X46.08 Y329.8;
G1 X46.09 Y329.61;
G1 X46.09 Y329.41;
G1 X46.09 Y329.41;
S0;( end pass 1 of 1 )


( start pass 1 of 1 )
G0 X57.03 Y325.2;
S300;
G1 X57.0 Y324.45 F700;
G1 X56.9 Y323.75;
G1 X56.74 Y323.08;
G1 X56.71 Y322.97;
G1 X56.5 Y322.41;
G1 X56.24 Y321.89;
G1 X55.92 Y321.43;
G1 X55.75 Y321.22;
G1 X55.36 Y320.82;
G1 X54.92 Y320.48;
G1 X54.43 Y320.18;
G1 X54.16 Y320.06;
G1 X53.65 Y319.87;
G1 X53.09 Y319.74;
G1 X52.49 Y319.67;
G1 X51.96 Y319.64;
G1 X51.28 Y319.68;
G1 X50.66 Y319.77;
G1 X50.08 Y319.92;
G1 X49.82 Y320.01;
G1 X49.33 Y320.25;
G1 X48.88 Y320.54;
G1 X48.49 Y320.88;
G1 X48.31 Y321.07;
G1 X47.99 Y321.5;
G1 X47.72 Y321.97;
G1 X47.49 Y322.49;
G1 X47.41 Y322.76;
G1 X47.25 Y323.41;
G1 X47.15 Y324.12;
G1 X47.11 Y324.87;
G1 X47.11 Y325.01;
G1 X47.14 Y325.75;
G1 X47.23 Y326.45;
G1 X47.38 Y327.12;
G1 X47.42 Y327.24;
G1 X47.62 Y327.8;
G1 X47.88 Y328.32;
G1 X48.19 Y328.79;
G1 X48.36 Y329.0;
G1 X48.76 Y329.4;
G1 X49.2 Y329.74;
G1 X49.69 Y330.03;
G1 X49.95 Y330.15;
G1 X50.47 Y330.33;
G1 X51.03 Y330.46;
G1 X51.63 Y330.53;
G1 X52.17 Y330.55;
G1 X52.84 Y330.52;
G1 X53.47 Y330.43;
G1 X54.04 Y330.29;
G1 X54.3 Y330.19;
G1 X54.79 Y329.95;
G1 X55.24 Y329.66;
G1 X55.64 Y329.32;
G1 X55.82 Y329.13;
G1 X56.14 Y328.71;
G1 X56.41 Y328.24;
G1 X56.63 Y327.72;
G1 X56.72 Y327.45;
G1 X56.88 Y326.79;
G1 X56.99 Y326.08;
G1 X57.03 Y325.33;
G1 X57.03 Y325.2;
G1 X57.03 Y325.2;
S0;( end pass 1 of 1 )


( start pass 1 of 1 )
G0 X55.11 Y325.08;
S300;
G1 X55.08 Y325.81 F700;
G1 X54.98 Y326.5;
G1 X54.96 Y326.61;
G1 X54.82 Y327.13;
G1 X54.62 Y327.6;
G1 X54.47 Y327.86;
G1 X54.23 Y328.18;
G1 X53.94 Y328.45;
G1 X53.61 Y328.68;
G1 X53.55 Y328.71;
G1 X53.19 Y328.87;
G1 X52.78 Y328.97;
G1 X52.33 Y329.03;
G1 X52.09 Y329.03;
G1 X51.61 Y329.0;
G1 X51.16 Y328.92;
G1 X50.77 Y328.78;
G1 X50.7 Y328.75;
G1 X50.33 Y328.52;
G1 X50.0 Y328.23;
G1 X49.75 Y327.93;
G1 X49.49 Y327.51;
G1 X49.29 Y327.02;
G1 X49.19 Y326.7;
G1 X49.07 Y326.07;
G1 X49.02 Y325.39;
G1 X49.01 Y325.13;
G1 X49.05 Y324.39;
G1 X49.14 Y323.7;
G1 X49.16 Y323.6;
G1 X49.3 Y323.08;
G1 X49.5 Y322.61;
G1 X49.65 Y322.33;
G1 X49.93 Y322.0;
G1 X50.25 Y321.7;
G1 X50.59 Y321.49;
G1 X50.95 Y321.33;
G1 X51.36 Y321.24;
G1 X51.81 Y321.19;
G1 X52.05 Y321.18;
G1 X52.53 Y321.2;
G1 X52.96 Y321.3;
G1 X53.36 Y321.44;
G1 X53.42 Y321.47;
G1 X53.8 Y321.7;
G1 X54.13 Y321.98;
G1 X54.38 Y322.27;
G1 X54.62 Y322.66;
G1 X54.81 Y323.08;
G1 X54.93 Y323.51;
G1 X55.04 Y324.08;
G1 X55.1 Y324.69;
G1 X55.11 Y325.08;
G1 X55.11 Y325.08;
S0;( end pass 1 of 1 )


( start pass 1 of 1 )
G0 X65.14 Y334.14;
S300;
G1 X65.13 Y333.89 F700;
G1 X65.12 Y333.8;
G1 X65.06 Y333.61;
G1 X65.06 Y333.6;
G1 X65.01 Y333.49;
G1 X65.0 Y333.49;
G1 X64.89 Y333.46;
G1 X64.75 Y333.49;
G1 X64.69 Y333.51;
G1 X64.47 Y333.6;
G1 X64.42 Y333.62;
G1 X64.13 Y333.71;
G1 X64.02 Y333.73;
G1 X63.72 Y333.78;
G1 X63.5 Y333.78;
G1 X63.15 Y333.76;
G1 X62.85 Y333.67;
G1 X62.81 Y333.65;
G1 X62.59 Y333.51;
G1 X62.4 Y333.32;
G1 X62.34 Y333.23;
G1 X62.21 Y332.97;
G1 X62.12 Y332.65;
G1 X62.09 Y332.51;
G1 X62.04 Y332.1;
G1 X62.01 Y331.63;
G1 X62.01 Y331.43;
G1 X62.01 Y330.34;
G1 X64.23 Y330.34;
G1 X64.34 Y330.32;
G1 X64.37 Y330.3;
G1 X64.45 Y330.21;
G1 X64.48 Y330.17;
G1 X64.55 Y330.01;
G1 X64.56 Y329.94;
G1 X64.59 Y329.71;
G1 X64.59 Y329.58;
G1 X64.58 Y329.31;
G1 X64.53 Y329.11;
G1 X64.48 Y329.01;
G1 X64.4 Y328.89;
G1 X64.28 Y328.84;
G1 X64.23 Y328.83;
G1 X62.01 Y328.83;
G1 X62.01 Y320.14;
G1 X61.98 Y320.0;
G1 X61.97 Y319.98;
G1 X61.87 Y319.91;
G1 X61.81 Y319.88;
G1 X61.65 Y319.83;
G1 X61.54 Y319.82;
G1 X61.29 Y319.8;
G1 X61.1 Y319.79;
G1 X60.81 Y319.8;
G1 X60.66 Y319.82;
G1 X60.43 Y319.86;
G1 X60.37 Y319.88;
G1 X60.25 Y319.95;
G1 X60.23 Y319.98;
G1 X60.18 Y320.12;
G1 X60.18 Y320.14;
G1 X60.18 Y328.83;
G1 X58.78 Y328.83;
G1 X58.65 Y328.87;
G1 X58.55 Y328.96;
G1 X58.52 Y329.01;
G1 X58.46 Y329.18;
G1 X58.44 Y329.41;
G1 X58.43 Y329.58;
G1 X58.44 Y329.86;
G1 X58.45 Y329.94;
G1 X58.5 Y330.13;
G1 X58.52 Y330.17;
G1 X58.6 Y330.28;
G1 X58.63 Y330.3;
G1 X58.77 Y330.34;
G1 X58.78 Y330.34;
G1 X60.18 Y330.34;
G1 X60.18 Y331.37;
G1 X60.2 Y331.99;
G1 X60.26 Y332.56;
G1 X60.35 Y333.06;
G1 X60.37 Y333.14;
G1 X60.52 Y333.59;
G1 X60.7 Y333.98;
G1 X60.92 Y334.32;
G1 X60.97 Y334.37;
G1 X61.26 Y334.67;
G1 X61.61 Y334.9;
G1 X61.96 Y335.06;
G1 X62.4 Y335.2;
G1 X62.9 Y335.27;
G1 X63.38 Y335.29;
G1 X63.89 Y335.26;
G1 X64.13 Y335.22;
G1 X64.43 Y335.15;
G1 X64.66 Y335.08;
G1 X64.69 Y335.06;
G1 X64.86 Y334.99;
G1 X64.95 Y334.92;
G1 X65.06 Y334.77;
G1 X65.06 Y334.74;
G1 X65.11 Y334.57;
G1 X65.12 Y334.49;
G1 X65.14 Y334.24;
G1 X65.14 Y334.14;
G1 X65.14 Y334.14;
S0;( end pass 1 of 1 )


( start pass 1 of 1 )
G0 X75.34 Y325.2;
S300;
G1 X75.31 Y324.45 F700;
G1 X75.22 Y323.75;
G1 X75.06 Y323.08;
G1 X75.03 Y322.97;
G1 X74.81 Y322.41;
G1 X74.56 Y321.89;
G1 X74.25 Y321.43;
G1 X74.06 Y321.22;
G1 X73.69 Y320.82;
G1 X73.23 Y320.48;
G1 X72.75 Y320.18;
G1 X72.48 Y320.06;
G1 X71.97 Y319.87;
G1 X71.41 Y319.74;
G1 X70.81 Y319.67;
G1 X70.28 Y319.64;
G1 X69.59 Y319.68;
G1 X68.98 Y319.77;
G1 X68.4 Y319.92;
G1 X68.14 Y320.01;
G1 X67.65 Y320.25;
G1 X67.2 Y320.54;
G1 X66.81 Y320.88;
G1 X66.63 Y321.07;
G1 X66.31 Y321.5;
G1 X66.04 Y321.97;
G1 X65.81 Y322.49;
G1 X65.73 Y322.76;
G1 X65.56 Y323.41;
G1 X65.47 Y324.12;
G1 X65.43 Y324.87;
G1 X65.43 Y325.01;
G1 X65.45 Y325.75;
G1 X65.55 Y326.45;
G1 X65.7 Y327.12;
G1 X65.73 Y327.24;
G1 X65.95 Y327.8;
G1 X66.2 Y328.32;
G1 X66.52 Y328.79;
G1 X66.69 Y329.0;
G1 X67.08 Y329.4;
G1 X67.52 Y329.74;
G1 X68.01 Y330.03;
G1 X68.27 Y330.15;
G1 X68.79 Y330.33;
G1 X69.34 Y330.46;
G1 X69.95 Y330.53;
G1 X70.48 Y330.55;
G1 X71.17 Y330.52;
G1 X71.79 Y330.43;
G1 X72.36 Y330.29;
G1 X72.62 Y330.19;
G1 X73.12 Y329.95;
G1 X73.56 Y329.66;
G1 X73.95 Y329.32;
G1 X74.14 Y329.13;
G1 X74.45 Y328.71;
G1 X74.73 Y328.24;
G1 X74.95 Y327.72;
G1 X75.04 Y327.45;
G1 X75.2 Y326.79;
G1 X75.31 Y326.08;
G1 X75.34 Y325.33;
G1 X75.34 Y325.2;
G1 X75.34 Y325.2;
S0;( end pass 1 of 1 )


( start pass 1 of 1 )
G0 X73.43 Y325.08;
S300;
G1 X73.4 Y325.81 F700;
G1 X73.3 Y326.5;
G1 X73.28 Y326.61;
G1 X73.14 Y327.13;
G1 X72.95 Y327.6;
G1 X72.79 Y327.86;
G1 X72.55 Y328.18;
G1 X72.27 Y328.45;
G1 X71.93 Y328.68;
G1 X71.87 Y328.71;
G1 X71.51 Y328.87;
G1 X71.09 Y328.97;
G1 X70.65 Y329.03;
G1 X70.41 Y329.03;
G1 X69.93 Y329.0;
G1 X69.48 Y328.92;
G1 X69.09 Y328.78;
G1 X69.02 Y328.75;
G1 X68.65 Y328.52;
G1 X68.31 Y328.23;
G1 X68.08 Y327.93;
G1 X67.81 Y327.51;
G1 X67.61 Y327.02;
G1 X67.51 Y326.7;
G1 X67.4 Y326.07;
G1 X67.34 Y325.39;
G1 X67.34 Y325.13;
G1 X67.37 Y324.39;
G1 X67.45 Y323.7;
G1 X67.48 Y323.6;
G1 X67.63 Y323.08;
G1 X67.83 Y322.61;
G1 X67.98 Y322.33;
G1 X68.25 Y322.0;
G1 X68.58 Y321.7;
G1 X68.91 Y321.49;
G1 X69.27 Y321.33;
G1 X69.68 Y321.24;
G1 X70.13 Y321.19;
G1 X70.37 Y321.18;
G1 X70.84 Y321.2;
G1 X71.29 Y321.3;
G1 X71.68 Y321.44;
G1 X71.75 Y321.47;
G1 X72.13 Y321.7;
G1 X72.45 Y321.98;
G1 X72.7 Y322.27;
G1 X72.94 Y322.66;
G1 X73.13 Y323.08;
G1 X73.26 Y323.51;
G1 X73.37 Y324.08;
G1 X73.42 Y324.69;
G1 X73.43 Y325.08;
G1 X73.43 Y325.08;
S0;( end pass 1 of 1 )


( start pass 1 of 1 )
G0 X85.51 Y320.13;
S300;
G1 X85.48 Y320.0 F700;
G1 X85.42 Y319.93;
G1 X85.27 Y319.85;
G1 X85.17 Y319.83;
G1 X84.98 Y319.8;
G1 X84.72 Y319.79;
G1 X84.44 Y319.8;
G1 X84.26 Y319.83;
G1 X84.09 Y319.88;
G1 X84.02 Y319.93;
G1 X83.95 Y320.02;
G1 X83.94 Y320.13;
G1 X83.94 Y321.12;
G1 X83.51 Y320.7;
G1 X83.06 Y320.36;
G1 X82.57 Y320.08;
G1 X82.48 Y320.04;
G1 X81.97 Y319.83;
G1 X81.44 Y319.7;
G1 X80.9 Y319.64;
G1 X80.8 Y319.64;
G1 X80.22 Y319.68;
G1 X79.69 Y319.77;
G1 X79.38 Y319.86;
G1 X78.92 Y320.04;
G1 X78.52 Y320.27;
G1 X78.3 Y320.44;
G1 X77.98 Y320.76;
G1 X77.73 Y321.14;
G1 X77.59 Y321.39;
G1 X77.45 Y321.8;
G1 X77.38 Y322.25;
G1 X77.36 Y322.67;
G1 X77.39 Y323.13;
G1 X77.47 Y323.56;
G1 X77.61 Y323.95;
G1 X77.7 Y324.13;
G1 X77.95 Y324.5;
G1 X78.25 Y324.82;
G1 X78.61 Y325.11;
G1 X78.68 Y325.14;
G1 X79.11 Y325.39;
G1 X79.59 Y325.58;
G1 X80.15 Y325.74;
G1 X80.25 Y325.76;
G1 X80.92 Y325.88;
G1 X81.64 Y325.95;
G1 X82.33 Y325.97;
G1 X83.7 Y325.97;
G1 X83.7 Y326.74;
G1 X83.67 Y327.24;
G1 X83.59 Y327.69;
G1 X83.58 Y327.75;
G1 X83.45 Y328.1;
G1 X83.26 Y328.39;
G1 X83.18 Y328.48;
G1 X82.93 Y328.7;
G1 X82.62 Y328.87;
G1 X82.48 Y328.92;
G1 X82.13 Y329.02;
G1 X81.7 Y329.07;
G1 X81.43 Y329.08;
G1 X80.89 Y329.05;
G1 X80.39 Y328.96;
G1 X80.2 Y328.91;
G1 X79.7 Y328.74;
G1 X79.28 Y328.56;
G1 X78.87 Y328.36;
G1 X78.59 Y328.21;
G1 X78.41 Y328.1;
G1 X78.25 Y328.06;
G1 X78.2 Y328.05;
G1 X78.06 Y328.09;
G1 X78.05 Y328.1;
G1 X77.94 Y328.21;
G1 X77.93 Y328.23;
G1 X77.87 Y328.42;
G1 X77.87 Y328.45;
G1 X77.84 Y328.76;
G1 X77.84 Y329.03;
G1 X77.88 Y329.19;
G1 X77.97 Y329.38;
G1 X78.06 Y329.5;
G1 X78.23 Y329.62;
G1 X78.47 Y329.77;
G1 X78.58 Y329.83;
G1 X79.02 Y330.03;
G1 X79.42 Y330.18;
G1 X79.98 Y330.34;
G1 X80.45 Y330.44;
G1 X81.09 Y330.53;
G1 X81.59 Y330.55;
G1 X82.23 Y330.53;
G1 X82.81 Y330.46;
G1 X83.33 Y330.34;
G1 X83.41 Y330.31;
G1 X83.86 Y330.14;
G1 X84.24 Y329.91;
G1 X84.57 Y329.65;
G1 X84.62 Y329.6;
G1 X84.89 Y329.28;
G1 X85.11 Y328.92;
G1 X85.27 Y328.51;
G1 X85.3 Y328.44;
G1 X85.42 Y327.93;
G1 X85.49 Y327.36;
G1 X85.51 Y326.82;
G1 X85.51 Y320.13;
S0;( end pass 1 of 1 )


( start pass 1 of 1 )
G0 X83.7 Y324.66;
S300;
G1 X82.14 Y324.66 F700;
G1 X81.59 Y324.64;
G1 X81.11 Y324.58;
G1 X80.84 Y324.52;
G1 X80.45 Y324.41;
G1 X80.11 Y324.26;
G1 X79.93 Y324.14;
G1 X79.65 Y323.93;
G1 X79.45 Y323.66;
G1 X79.39 Y323.55;
G1 X79.28 Y323.25;
G1 X79.23 Y322.89;
G1 X79.22 Y322.76;
G1 X79.25 Y322.38;
G1 X79.34 Y322.04;
G1 X79.52 Y321.74;
G1 X79.7 Y321.52;
G1 X79.95 Y321.33;
G1 X80.26 Y321.2;
G1 X80.61 Y321.11;
G1 X80.98 Y321.07;
G1 X81.08 Y321.07;
G1 X81.53 Y321.11;
G1 X81.94 Y321.22;
G1 X82.34 Y321.39;
G1 X82.41 Y321.44;
G1 X82.8 Y321.7;
G1 X83.21 Y322.05;
G1 X83.62 Y322.47;
G1 X83.7 Y322.55;
G1 X83.7 Y324.66;
S0;( end pass 1 of 1 )


( start pass 1 of 1 )
G0 X103.56 Y320.14;
S300;
G1 X103.53 Y320.0 F700;
G1 X103.52 Y319.98;
G1 X103.41 Y319.89;
G1 X103.38 Y319.88;
G1 X103.21 Y319.83;
G1 X103.1 Y319.82;
G1 X102.85 Y319.8;
G1 X102.66 Y319.79;
G1 X102.36 Y319.8;
G1 X102.21 Y319.82;
G1 X101.98 Y319.86;
G1 X101.92 Y319.88;
G1 X101.8 Y319.95;
G1 X101.78 Y319.98;
G1 X101.73 Y320.12;
G1 X101.73 Y320.14;
G1 X101.73 Y326.17;
G1 X101.71 Y326.72;
G1 X101.64 Y327.23;
G1 X101.62 Y327.31;
G1 X101.51 Y327.72;
G1 X101.34 Y328.08;
G1 X101.27 Y328.21;
G1 X101.04 Y328.49;
G1 X100.77 Y328.71;
G1 X100.65 Y328.78;
G1 X100.35 Y328.9;
G1 X100.0 Y328.97;
G1 X99.77 Y328.98;
G1 X99.41 Y328.94;
G1 X99.05 Y328.82;
G1 X98.68 Y328.62;
G1 X98.5 Y328.49;
G1 X98.13 Y328.18;
G1 X97.74 Y327.79;
G1 X97.33 Y327.32;
G1 X97.11 Y327.07;
G1 X97.11 Y320.14;
G1 X97.08 Y320.0;
G1 X97.07 Y319.98;
G1 X96.97 Y319.91;
G1 X96.92 Y319.88;
G1 X96.75 Y319.83;
G1 X96.64 Y319.82;
G1 X96.39 Y319.8;
G1 X96.2 Y319.79;
G1 X95.86 Y319.81;
G1 X95.76 Y319.82;
G1 X95.53 Y319.86;
G1 X95.47 Y319.88;
G1 X95.35 Y319.95;
G1 X95.33 Y319.98;
G1 X95.3 Y320.14;
G1 X95.3 Y326.17;
G1 X95.27 Y326.72;
G1 X95.19 Y327.23;
G1 X95.17 Y327.31;
G1 X95.04 Y327.76;
G1 X94.85 Y328.15;
G1 X94.81 Y328.21;
G1 X94.58 Y328.49;
G1 X94.31 Y328.71;
G1 X94.19 Y328.78;
G1 X93.89 Y328.9;
G1 X93.55 Y328.97;
G1 X93.32 Y328.98;
G1 X92.96 Y328.94;
G1 X92.6 Y328.82;
G1 X92.23 Y328.62;
G1 X92.05 Y328.49;
G1 X91.68 Y328.18;
G1 X91.29 Y327.79;
G1 X90.87 Y327.32;
G1 X90.67 Y327.07;
G1 X90.67 Y320.14;
G1 X90.63 Y320.0;
G1 X90.62 Y319.98;
G1 X90.51 Y319.89;
G1 X90.48 Y319.88;
G1 X90.31 Y319.83;
G1 X90.2 Y319.82;
G1 X89.95 Y319.8;
G1 X89.75 Y319.79;
G1 X89.46 Y319.8;
G1 X89.31 Y319.82;
G1 X89.08 Y319.86;
G1 X89.02 Y319.88;
G1 X88.9 Y319.95;
G1 X88.88 Y319.98;
G1 X88.85 Y320.14;
G1 X88.85 Y330.06;
G1 X88.87 Y330.19;
G1 X88.88 Y330.2;
G1 X88.96 Y330.29;
G1 X89.01 Y330.31;
G1 X89.19 Y330.37;
G1 X89.27 Y330.38;
G1 X89.49 Y330.4;
G1 X89.67 Y330.4;
G1 X89.94 Y330.39;
G1 X90.07 Y330.38;
G1 X90.24 Y330.35;
G1 X90.32 Y330.31;
G1 X90.43 Y330.22;
G1 X90.44 Y330.2;
G1 X90.49 Y330.09;
G1 X90.49 Y330.06;
G1 X90.49 Y328.75;
G1 X90.92 Y329.2;
G1 X91.35 Y329.58;
G1 X91.76 Y329.9;
G1 X92.11 Y330.11;
G1 X92.57 Y330.33;
G1 X93.02 Y330.47;
G1 X93.48 Y330.55;
G1 X93.71 Y330.55;
G1 X94.2 Y330.53;
G1 X94.65 Y330.45;
G1 X94.81 Y330.41;
G1 X95.24 Y330.25;
G1 X95.62 Y330.04;
G1 X95.68 Y330.0;
G1 X96.0 Y329.75;
G1 X96.28 Y329.44;
G1 X96.32 Y329.39;
G1 X96.59 Y328.96;
G1 X96.76 Y328.59;
G1 X97.21 Y329.06;
G1 X97.63 Y329.45;
G1 X97.7 Y329.51;
G1 X98.15 Y329.85;
G1 X98.56 Y330.11;
G1 X98.98 Y330.31;
G1 X99.36 Y330.44;
G1 X99.81 Y330.53;
G1 X100.16 Y330.55;
G1 X100.68 Y330.53;
G1 X101.16 Y330.44;
G1 X101.58 Y330.3;
G1 X101.77 Y330.21;
G1 X102.15 Y329.98;
G1 X102.49 Y329.7;
G1 X102.77 Y329.38;
G1 X102.81 Y329.32;
G1 X103.07 Y328.91;
G1 X103.26 Y328.44;
G1 X103.39 Y328.0;
G1 X103.5 Y327.35;
G1 X103.56 Y326.68;
G1 X103.56 Y326.41;
G1 X103.56 Y320.14;
S0;( end pass 1 of 1 )


( start pass 1 of 1 )
G0 X109.23 Y321.06;
S300;
G1 X109.21 Y320.69 F700;
G1 X109.16 Y320.39;
G1 X109.07 Y320.16;
G1 X108.97 Y320.01;
G1 X108.8 Y319.89;
G1 X108.58 Y319.82;
G1 X108.31 Y319.77;
G1 X108.03 Y319.76;
G1 X107.68 Y319.77;
G1 X107.4 Y319.83;
G1 X107.19 Y319.95;
G1 X107.11 Y320.01;
G1 X107.0 Y320.18;
G1 X106.92 Y320.42;
G1 X106.87 Y320.72;
G1 X106.86 Y321.02;
G1 X106.88 Y321.39;
G1 X106.93 Y321.7;
G1 X107.01 Y321.93;
G1 X107.11 Y322.07;
G1 X107.28 Y322.19;
G1 X107.5 Y322.27;
G1 X107.78 Y322.32;
G1 X108.06 Y322.33;
G1 X108.41 Y322.31;
G1 X108.69 Y322.25;
G1 X108.9 Y322.14;
G1 X108.98 Y322.08;
G1 X109.09 Y321.91;
G1 X109.17 Y321.67;
G1 X109.22 Y321.37;
G1 X109.23 Y321.06;
G1 X109.23 Y321.06;
S0;( end pass 1 of 1 )


( start pass 1 of 1 )
G0 X126.66 Y329.95;
S300;
G1 X126.63 Y329.35 F700;
G1 X126.54 Y328.79;
G1 X126.4 Y328.26;
G1 X126.31 Y328.02;
G1 X126.05 Y327.5;
G1 X125.74 Y327.04;
G1 X125.36 Y326.62;
G1 X125.29 Y326.55;
G1 X124.89 Y326.23;
G1 X124.45 Y325.95;
G1 X123.95 Y325.7;
G1 X123.68 Y325.62;
G1 X123.16 Y325.47;
G1 X122.59 Y325.36;
G1 X121.97 Y325.3;
G1 X121.41 Y325.27;
G1 X119.79 Y325.27;
G1 X119.79 Y320.14;
G1 X119.75 Y320.02;
G1 X119.74 Y319.99;
G1 X119.63 Y319.91;
G1 X119.58 Y319.88;
G1 X119.43 Y319.85;
G1 X119.3 Y319.83;
G1 X119.04 Y319.8;
G1 X118.84 Y319.79;
G1 X118.54 Y319.81;
G1 X118.38 Y319.83;
G1 X118.15 Y319.87;
G1 X118.09 Y319.88;
G1 X117.97 Y319.95;
G1 X117.94 Y319.99;
G1 X117.9 Y320.13;
G1 X117.9 Y320.14;
G1 X117.9 Y333.31;
G1 X117.92 Y333.56;
G1 X117.99 Y333.77;
G1 X118.1 Y333.92;
G1 X118.13 Y333.94;
G1 X118.33 Y334.06;
G1 X118.55 Y334.12;
G1 X118.64 Y334.13;
G1 X121.7 Y334.13;
G1 X122.36 Y334.1;
G1 X122.58 Y334.08;
G1 X123.01 Y334.03;
G1 X123.5 Y333.94;
G1 X123.58 Y333.92;
G1 X124.03 Y333.79;
G1 X124.48 Y333.6;
G1 X124.76 Y333.44;
G1 X125.2 Y333.16;
G1 X125.58 Y332.82;
G1 X125.79 Y332.59;
G1 X126.08 Y332.18;
G1 X126.31 Y331.72;
G1 X126.43 Y331.41;
G1 X126.57 Y330.89;
G1 X126.65 Y330.32;
G1 X126.66 Y329.95;
G1 X126.66 Y329.95;
S0;( end pass 1 of 1 )


( start pass 1 of 1 )
G0 X124.66 Y329.79;
S300;
G1 X124.64 Y330.27 F700;
G1 X124.56 Y330.7;
G1 X124.42 Y331.08;
G1 X124.33 Y331.25;
G1 X124.12 Y331.59;
G1 X123.86 Y331.87;
G1 X123.58 Y332.09;
G1 X123.53 Y332.12;
G1 X123.12 Y332.32;
G1 X122.7 Y332.45;
G1 X122.54 Y332.48;
G1 X121.86 Y332.55;
G1 X121.54 Y332.56;
G1 X119.79 Y332.56;
G1 X119.79 Y326.83;
G1 X121.5 Y326.83;
G1 X122.01 Y326.86;
G1 X122.47 Y326.93;
G1 X122.86 Y327.04;
G1 X122.92 Y327.06;
G1 X123.33 Y327.25;
G1 X123.69 Y327.49;
G1 X123.88 Y327.67;
G1 X124.15 Y327.99;
G1 X124.36 Y328.35;
G1 X124.47 Y328.6;
G1 X124.6 Y329.08;
G1 X124.66 Y329.59;
G1 X124.66 Y329.79;
G1 X124.66 Y329.79;
S0;( end pass 1 of 1 )


( start pass 1 of 1 )
G0 X136.34 Y320.13;
S300;
G1 X136.31 Y320.0 F700;
G1 X136.25 Y319.93;
G1 X136.1 Y319.85;
G1 X136.01 Y319.83;
G1 X135.81 Y319.8;
G1 X135.56 Y319.79;
G1 X135.27 Y319.8;
G1 X135.09 Y319.83;
G1 X134.91 Y319.88;
G1 X134.85 Y319.93;
G1 X134.78 Y320.02;
G1 X134.77 Y320.13;
G1 X134.77 Y321.12;
G1 X134.35 Y320.7;
G1 X133.88 Y320.36;
G1 X133.41 Y320.08;
G1 X133.32 Y320.04;
G1 X132.81 Y319.83;
G1 X132.28 Y319.7;
G1 X131.72 Y319.64;
G1 X131.63 Y319.64;
G1 X131.06 Y319.68;
G1 X130.52 Y319.77;
G1 X130.21 Y319.86;
G1 X129.76 Y320.04;
G1 X129.35 Y320.27;
G1 X129.13 Y320.44;
G1 X128.82 Y320.76;
G1 X128.57 Y321.14;
G1 X128.43 Y321.39;
G1 X128.3 Y321.8;
G1 X128.21 Y322.25;
G1 X128.19 Y322.67;
G1 X128.22 Y323.13;
G1 X128.3 Y323.56;
G1 X128.44 Y323.95;
G1 X128.53 Y324.13;
G1 X128.78 Y324.5;
G1 X129.08 Y324.82;
G1 X129.44 Y325.11;
G1 X129.51 Y325.14;
G1 X129.94 Y325.39;
G1 X130.43 Y325.58;
G1 X130.97 Y325.74;
G1 X131.08 Y325.76;
G1 X131.75 Y325.88;
G1 X132.47 Y325.95;
G1 X133.16 Y325.97;
G1 X134.53 Y325.97;
G1 X134.53 Y326.74;
G1 X134.51 Y327.24;
G1 X134.43 Y327.69;
G1 X134.41 Y327.75;
G1 X134.28 Y328.1;
G1 X134.1 Y328.39;
G1 X134.01 Y328.48;
G1 X133.76 Y328.7;
G1 X133.44 Y328.87;
G1 X133.32 Y328.92;
G1 X132.96 Y329.02;
G1 X132.55 Y329.07;
G1 X132.26 Y329.08;
G1 X131.72 Y329.05;
G1 X131.22 Y328.96;
G1 X131.05 Y328.91;
G1 X130.54 Y328.74;
G1 X130.11 Y328.56;
G1 X129.69 Y328.36;
G1 X129.44 Y328.21;
G1 X129.24 Y328.1;
G1 X129.09 Y328.06;
G1 X129.04 Y328.05;
G1 X128.9 Y328.09;
G1 X128.88 Y328.1;
G1 X128.78 Y328.21;
G1 X128.77 Y328.23;
G1 X128.69 Y328.42;
G1 X128.69 Y328.45;
G1 X128.68 Y328.76;
G1 X128.69 Y329.03;
G1 X128.71 Y329.19;
G1 X128.8 Y329.38;
G1 X128.9 Y329.5;
G1 X129.06 Y329.62;
G1 X129.3 Y329.77;
G1 X129.41 Y329.83;
G1 X129.86 Y330.03;
G1 X130.25 Y330.18;
G1 X130.81 Y330.34;
G1 X131.29 Y330.44;
G1 X131.91 Y330.53;
G1 X132.43 Y330.55;
G1 X133.07 Y330.53;
G1 X133.65 Y330.46;
G1 X134.16 Y330.34;
G1 X134.24 Y330.31;
G1 X134.69 Y330.14;
G1 X135.08 Y329.91;
G1 X135.41 Y329.65;
G1 X135.46 Y329.6;
G1 X135.72 Y329.28;
G1 X135.94 Y328.92;
G1 X136.11 Y328.51;
G1 X136.13 Y328.44;
G1 X136.25 Y327.93;
G1 X136.32 Y327.36;
G1 X136.34 Y326.82;
G1 X136.34 Y320.13;
S0;( end pass 1 of 1 )


( start pass 1 of 1 )
G0 X134.53 Y324.66;
S300;
G1 X132.97 Y324.66 F700;
G1 X132.43 Y324.64;
G1 X131.94 Y324.58;
G1 X131.68 Y324.52;
G1 X131.28 Y324.41;
G1 X130.94 Y324.26;
G1 X130.76 Y324.14;
G1 X130.49 Y323.93;
G1 X130.28 Y323.66;
G1 X130.22 Y323.55;
G1 X130.11 Y323.25;
G1 X130.06 Y322.89;
G1 X130.05 Y322.76;
G1 X130.09 Y322.38;
G1 X130.19 Y322.04;
G1 X130.35 Y321.74;
G1 X130.54 Y321.52;
G1 X130.8 Y321.33;
G1 X131.1 Y321.2;
G1 X131.44 Y321.11;
G1 X131.83 Y321.07;
G1 X131.91 Y321.07;
G1 X132.36 Y321.11;
G1 X132.78 Y321.22;
G1 X133.16 Y321.39;
G1 X133.24 Y321.44;
G1 X133.63 Y321.7;
G1 X134.04 Y322.05;
G1 X134.46 Y322.47;
G1 X134.53 Y322.55;
G1 X134.53 Y324.66;
S0;( end pass 1 of 1 )


( start pass 1 of 1 )
G0 X147.97 Y329.61;
S300;
G1 X147.94 Y329.34 F700;
G1 X147.9 Y329.14;
G1 X147.86 Y329.04;
G1 X147.75 Y328.93;
G1 X147.62 Y328.88;
G1 X147.59 Y328.88;
G1 X146.16 Y328.88;
G1 X146.43 Y328.56;
G1 X146.63 Y328.22;
G1 X146.71 Y328.0;
G1 X146.82 Y327.55;
G1 X146.87 Y327.08;
G1 X146.87 Y327.0;
G1 X146.84 Y326.48;
G1 X146.76 Y326.0;
G1 X146.62 Y325.56;
G1 X146.59 Y325.48;
G1 X146.37 Y325.05;
G1 X146.09 Y324.66;
G1 X145.8 Y324.36;
G1 X145.41 Y324.07;
G1 X145.0 Y323.83;
G1 X144.58 Y323.66;
G1 X144.08 Y323.52;
G1 X143.53 Y323.44;
G1 X143.02 Y323.42;
G1 X142.47 Y323.45;
G1 X141.94 Y323.55;
G1 X141.86 Y323.58;
G1 X141.47 Y323.7;
G1 X141.18 Y323.87;
G1 X141.02 Y323.98;
G1 X140.79 Y323.69;
G1 X140.69 Y323.52;
G1 X140.6 Y323.25;
G1 X140.57 Y322.95;
G1 X140.61 Y322.72;
G1 X140.71 Y322.51;
G1 X140.88 Y322.33;
G1 X140.91 Y322.31;
G1 X141.19 Y322.16;
G1 X141.54 Y322.07;
G1 X141.88 Y322.02;
G1 X144.47 Y321.92;
G1 X145.07 Y321.87;
G1 X145.63 Y321.77;
G1 X145.83 Y321.7;
G1 X146.28 Y321.55;
G1 X146.68 Y321.35;
G1 X146.9 Y321.19;
G1 X147.22 Y320.92;
G1 X147.47 Y320.58;
G1 X147.61 Y320.37;
G1 X147.75 Y320.01;
G1 X147.84 Y319.62;
G1 X147.86 Y319.23;
G1 X147.82 Y318.77;
G1 X147.72 Y318.32;
G1 X147.57 Y317.93;
G1 X147.36 Y317.56;
G1 X147.09 Y317.2;
G1 X146.75 Y316.89;
G1 X146.69 Y316.85;
G1 X146.29 Y316.57;
G1 X145.82 Y316.33;
G1 X145.29 Y316.14;
G1 X145.19 Y316.11;
G1 X144.63 Y315.98;
G1 X144.03 Y315.89;
G1 X143.37 Y315.83;
G1 X143.03 Y315.83;
G1 X142.37 Y315.85;
G1 X141.77 Y315.91;
G1 X141.22 Y315.99;
G1 X140.97 Y316.05;
G1 X140.47 Y316.19;
G1 X140.04 Y316.36;
G1 X139.66 Y316.56;
G1 X139.6 Y316.6;
G1 X139.26 Y316.86;
G1 X139.0 Y317.16;
G1 X138.82 Y317.45;
G1 X138.66 Y317.83;
G1 X138.59 Y318.24;
G1 X138.58 Y318.5;
G1 X138.61 Y318.94;
G1 X138.66 Y319.2;
G1 X138.81 Y319.62;
G1 X138.93 Y319.86;
G1 X139.22 Y320.26;
G1 X139.38 Y320.44;
G1 X139.79 Y320.83;
G1 X140.01 Y321.01;
G1 X139.66 Y321.22;
G1 X139.38 Y321.45;
G1 X139.19 Y321.7;
G1 X139.05 Y322.02;
G1 X138.97 Y322.38;
G1 X138.94 Y322.61;
G1 X138.97 Y323.05;
G1 X139.08 Y323.47;
G1 X139.22 Y323.81;
G1 X139.51 Y324.27;
G1 X139.85 Y324.69;
G1 X139.91 Y324.76;
G1 X139.63 Y325.14;
G1 X139.4 Y325.58;
G1 X139.37 Y325.67;
G1 X139.26 Y326.05;
G1 X139.19 Y326.49;
G1 X139.16 Y326.92;
G1 X139.19 Y327.43;
G1 X139.29 Y327.92;
G1 X139.43 Y328.36;
G1 X139.46 Y328.44;
G1 X139.68 Y328.88;
G1 X139.96 Y329.27;
G1 X140.25 Y329.57;
G1 X140.63 Y329.87;
G1 X141.05 Y330.11;
G1 X141.46 Y330.28;
G1 X141.97 Y330.42;
G1 X142.52 Y330.51;
G1 X143.02 Y330.53;
G1 X143.6 Y330.51;
G1 X143.86 Y330.48;
G1 X144.41 Y330.39;
G1 X144.6 Y330.34;
G1 X147.59 Y330.34;
G1 X147.72 Y330.31;
G1 X147.84 Y330.21;
G1 X147.87 Y330.16;
G1 X147.94 Y329.97;
G1 X147.97 Y329.72;
G1 X147.97 Y329.61;
G1 X147.97 Y329.61;
S0;( end pass 1 of 1 )


( start pass 1 of 1 )
G0 X145.12 Y326.99;
S300;
G1 X145.1 Y327.41 F700;
G1 X145.02 Y327.78;
G1 X144.88 Y328.11;
G1 X144.71 Y328.4;
G1 X144.56 Y328.57;
G1 X144.3 Y328.79;
G1 X144.0 Y328.96;
G1 X143.65 Y329.07;
G1 X143.26 Y329.13;
G1 X142.99 Y329.14;
G1 X142.57 Y329.11;
G1 X142.19 Y329.02;
G1 X142.06 Y328.97;
G1 X141.72 Y328.78;
G1 X141.44 Y328.53;
G1 X141.41 Y328.48;
G1 X141.19 Y328.18;
G1 X141.04 Y327.83;
G1 X141.02 Y327.77;
G1 X140.93 Y327.35;
G1 X140.9 Y326.93;
G1 X140.93 Y326.49;
G1 X141.03 Y326.08;
G1 X141.18 Y325.74;
G1 X141.4 Y325.44;
G1 X141.44 Y325.38;
G1 X141.72 Y325.17;
G1 X142.02 Y325.0;
G1 X142.36 Y324.89;
G1 X142.75 Y324.83;
G1 X143.02 Y324.82;
G1 X143.44 Y324.85;
G1 X143.82 Y324.94;
G1 X143.96 Y324.99;
G1 X144.29 Y325.18;
G1 X144.57 Y325.42;
G1 X144.61 Y325.45;
G1 X144.82 Y325.76;
G1 X144.97 Y326.11;
G1 X144.99 Y326.17;
G1 X145.09 Y326.58;
G1 X145.12 Y326.99;
G1 X145.12 Y326.99;
S0;( end pass 1 of 1 )


( start pass 1 of 1 )
G0 X146.04 Y319.13;
S300;
G1 X146.01 Y319.42 F700;
G1 X145.91 Y319.67;
G1 X145.77 Y319.89;
G1 X145.57 Y320.08;
G1 X145.51 Y320.11;
G1 X145.22 Y320.27;
G1 X144.87 Y320.39;
G1 X144.47 Y320.45;
G1 X144.1 Y320.49;
G1 X141.53 Y320.58;
G1 X141.16 Y320.27;
G1 X140.94 Y320.05;
G1 X140.71 Y319.76;
G1 X140.59 Y319.58;
G1 X140.44 Y319.27;
G1 X140.41 Y319.13;
G1 X140.36 Y318.73;
G1 X140.36 Y318.68;
G1 X140.4 Y318.39;
G1 X140.5 Y318.13;
G1 X140.66 Y317.89;
G1 X140.9 Y317.7;
G1 X141.09 Y317.6;
G1 X141.47 Y317.44;
G1 X141.91 Y317.33;
G1 X142.41 Y317.26;
G1 X142.97 Y317.23;
G1 X143.12 Y317.23;
G1 X143.66 Y317.25;
G1 X144.13 Y317.31;
G1 X144.5 Y317.39;
G1 X144.88 Y317.52;
G1 X145.22 Y317.69;
G1 X145.4 Y317.81;
G1 X145.65 Y318.05;
G1 X145.83 Y318.31;
G1 X145.88 Y318.42;
G1 X146.0 Y318.74;
G1 X146.04 Y319.08;
G1 X146.04 Y319.13;
G1 X146.04 Y319.13;
S0;( end pass 1 of 1 )


( start pass 1 of 1 )
G0 X158.59 Y325.52;
S300;
G1 X158.56 Y325.26 F700;
G1 X158.47 Y325.05;
G1 X158.37 Y324.91;
G1 X158.18 Y324.79;
G1 X157.97 Y324.74;
G1 X157.88 Y324.73;
G1 X151.38 Y324.73;
G1 X151.4 Y324.13;
G1 X151.47 Y323.57;
G1 X151.54 Y323.25;
G1 X151.68 Y322.81;
G1 X151.88 Y322.42;
G1 X152.09 Y322.11;
G1 X152.38 Y321.81;
G1 X152.74 Y321.56;
G1 X153.1 Y321.38;
G1 X153.51 Y321.25;
G1 X153.97 Y321.16;
G1 X154.51 Y321.13;
G1 X154.61 Y321.13;
G1 X155.16 Y321.14;
G1 X155.68 Y321.2;
G1 X155.86 Y321.24;
G1 X156.34 Y321.36;
G1 X156.75 Y321.48;
G1 X156.81 Y321.5;
G1 X157.15 Y321.63;
G1 X157.43 Y321.74;
G1 X157.47 Y321.76;
G1 X157.69 Y321.83;
G1 X157.85 Y321.88;
G1 X157.87 Y321.88;
G1 X157.99 Y321.83;
G1 X158.0 Y321.83;
G1 X158.09 Y321.75;
G1 X158.1 Y321.72;
G1 X158.13 Y321.57;
G1 X158.13 Y321.5;
G1 X158.16 Y321.27;
G1 X158.16 Y321.17;
G1 X158.16 Y320.92;
G1 X158.12 Y320.73;
G1 X158.07 Y320.58;
G1 X157.97 Y320.45;
G1 X157.88 Y320.39;
G1 X157.74 Y320.32;
G1 X157.62 Y320.26;
G1 X157.3 Y320.14;
G1 X156.91 Y320.01;
G1 X156.84 Y319.99;
G1 X156.37 Y319.88;
G1 X155.84 Y319.77;
G1 X155.74 Y319.76;
G1 X155.09 Y319.68;
G1 X154.41 Y319.64;
G1 X153.74 Y319.68;
G1 X153.11 Y319.76;
G1 X152.53 Y319.89;
G1 X152.27 Y319.99;
G1 X151.77 Y320.22;
G1 X151.31 Y320.49;
G1 X150.91 Y320.82;
G1 X150.72 Y321.01;
G1 X150.38 Y321.42;
G1 X150.11 Y321.89;
G1 X149.87 Y322.42;
G1 X149.78 Y322.69;
G1 X149.62 Y323.3;
G1 X149.52 Y323.95;
G1 X149.46 Y324.68;
G1 X149.46 Y325.05;
G1 X149.47 Y325.76;
G1 X149.57 Y326.43;
G1 X149.69 Y327.06;
G1 X149.79 Y327.35;
G1 X150.0 Y327.91;
G1 X150.26 Y328.42;
G1 X150.57 Y328.87;
G1 X150.74 Y329.08;
G1 X151.12 Y329.46;
G1 X151.54 Y329.79;
G1 X152.0 Y330.06;
G1 X152.25 Y330.17;
G1 X152.77 Y330.36;
G1 X153.33 Y330.48;
G1 X153.91 Y330.55;
G1 X154.22 Y330.55;
G1 X154.8 Y330.53;
G1 X155.34 Y330.45;
G1 X155.83 Y330.33;
G1 X156.19 Y330.18;
G1 X156.69 Y329.92;
G1 X157.13 Y329.6;
G1 X157.5 Y329.23;
G1 X157.56 Y329.17;
G1 X157.87 Y328.75;
G1 X158.11 Y328.28;
G1 X158.3 Y327.77;
G1 X158.33 Y327.68;
G1 X158.47 Y327.07;
G1 X158.56 Y326.44;
G1 X158.59 Y325.86;
G1 X158.59 Y325.52;
S0;( end pass 1 of 1 )


( start pass 1 of 1 )
G0 X156.76 Y326.07;
S300;
G1 X156.74 Y326.6 F700;
G1 X156.66 Y327.08;
G1 X156.55 Y327.54;
G1 X156.37 Y327.93;
G1 X156.13 Y328.28;
G1 X156.12 Y328.32;
G1 X155.83 Y328.6;
G1 X155.5 Y328.83;
G1 X155.12 Y328.99;
G1 X154.68 Y329.09;
G1 X154.19 Y329.13;
G1 X154.13 Y329.13;
G1 X153.69 Y329.1;
G1 X153.29 Y329.01;
G1 X152.96 Y328.88;
G1 X152.6 Y328.66;
G1 X152.29 Y328.4;
G1 X152.11 Y328.21;
G1 X151.85 Y327.83;
G1 X151.65 Y327.39;
G1 X151.59 Y327.22;
G1 X151.44 Y326.7;
G1 X151.38 Y326.16;
G1 X151.38 Y326.07;
G1 X156.76 Y326.07;
S0;( end pass 1 of 1 )


( start pass 1 of 1 )
G0 X175.43 Y327.02;
S300;
G1 X175.4 Y326.02 F700;
G1 X175.33 Y325.07;
G1 X175.19 Y324.18;
G1 X175.17 Y324.02;
G1 X175.01 Y323.35;
G1 X174.81 Y322.72;
G1 X174.55 Y322.14;
G1 X174.31 Y321.69;
G1 X173.97 Y321.2;
G1 X173.58 Y320.8;
G1 X173.15 Y320.44;
G1 X172.74 Y320.18;
G1 X172.26 Y319.95;
G1 X171.72 Y319.8;
G1 X171.13 Y319.7;
G1 X170.5 Y319.64;
G1 X170.35 Y319.64;
G1 X169.73 Y319.68;
G1 X169.17 Y319.76;
G1 X168.65 Y319.89;
G1 X168.18 Y320.08;
G1 X168.08 Y320.13;
G1 X167.62 Y320.41;
G1 X167.22 Y320.75;
G1 X166.86 Y321.14;
G1 X166.6 Y321.54;
G1 X166.33 Y322.05;
G1 X166.1 Y322.63;
G1 X165.92 Y323.26;
G1 X165.8 Y323.83;
G1 X165.68 Y324.64;
G1 X165.61 Y325.52;
G1 X165.57 Y326.47;
G1 X165.56 Y326.95;
G1 X165.59 Y327.96;
G1 X165.67 Y328.91;
G1 X165.8 Y329.8;
G1 X165.83 Y329.95;
G1 X165.99 Y330.63;
G1 X166.19 Y331.26;
G1 X166.44 Y331.84;
G1 X166.69 Y332.29;
G1 X167.02 Y332.77;
G1 X167.41 Y333.18;
G1 X167.85 Y333.54;
G1 X168.25 Y333.8;
G1 X168.74 Y334.02;
G1 X169.27 Y334.19;
G1 X169.85 Y334.29;
G1 X170.49 Y334.33;
G1 X170.64 Y334.34;
G1 X171.25 Y334.31;
G1 X171.82 Y334.23;
G1 X172.34 Y334.09;
G1 X172.81 Y333.9;
G1 X172.91 Y333.85;
G1 X173.36 Y333.57;
G1 X173.77 Y333.23;
G1 X174.13 Y332.83;
G1 X174.39 Y332.44;
G1 X174.66 Y331.93;
G1 X174.89 Y331.35;
G1 X175.07 Y330.72;
G1 X175.19 Y330.15;
G1 X175.31 Y329.34;
G1 X175.39 Y328.46;
G1 X175.43 Y327.51;
G1 X175.43 Y327.02;
G1 X175.43 Y327.02;
S0;( end pass 1 of 1 )


( start pass 1 of 1 )
G0 X173.49 Y326.89;
S300;
G1 X173.48 Y327.68 F700;
G1 X173.45 Y328.4;
G1 X173.41 Y328.81;
G1 X173.34 Y329.49;
G1 X173.23 Y330.1;
G1 X173.18 Y330.31;
G1 X173.04 Y330.82;
G1 X172.87 Y331.27;
G1 X172.8 Y331.43;
G1 X172.58 Y331.79;
G1 X172.34 Y332.1;
G1 X172.23 Y332.2;
G1 X171.94 Y332.42;
G1 X171.61 Y332.59;
G1 X171.47 Y332.64;
G1 X171.06 Y332.74;
G1 X170.61 Y332.78;
G1 X170.52 Y332.78;
G1 X170.06 Y332.75;
G1 X169.64 Y332.66;
G1 X169.28 Y332.51;
G1 X169.0 Y332.34;
G1 X168.69 Y332.06;
G1 X168.41 Y331.73;
G1 X168.18 Y331.34;
G1 X168.08 Y331.13;
G1 X167.89 Y330.61;
G1 X167.74 Y330.05;
G1 X167.64 Y329.43;
G1 X167.63 Y329.32;
G1 X167.55 Y328.42;
G1 X167.51 Y327.47;
G1 X167.5 Y327.08;
G1 X167.52 Y326.29;
G1 X167.55 Y325.56;
G1 X167.61 Y324.88;
G1 X167.67 Y324.37;
G1 X167.78 Y323.76;
G1 X167.92 Y323.23;
G1 X168.09 Y322.76;
G1 X168.19 Y322.55;
G1 X168.41 Y322.18;
G1 X168.67 Y321.87;
G1 X168.95 Y321.62;
G1 X169.1 Y321.52;
G1 X169.48 Y321.36;
G1 X169.9 Y321.25;
G1 X170.37 Y321.2;
G1 X170.46 Y321.2;
G1 X170.91 Y321.23;
G1 X171.31 Y321.32;
G1 X171.54 Y321.39;
G1 X171.91 Y321.6;
G1 X172.23 Y321.85;
G1 X172.34 Y321.97;
G1 X172.63 Y322.33;
G1 X172.87 Y322.77;
G1 X172.91 Y322.86;
G1 X173.11 Y323.41;
G1 X173.26 Y324.01;
G1 X173.37 Y324.67;
G1 X173.44 Y325.36;
G1 X173.48 Y326.39;
G1 X173.49 Y326.89;
G1 X173.49 Y326.89;
S0;( end pass 1 of 1 )


( start pass 1 of 1 )
G0 X186.4 Y320.68;
S300;
G1 X186.38 Y320.38 F700;
G1 X186.37 Y320.32;
G1 X186.31 Y320.1;
G1 X186.29 Y320.06;
G1 X186.2 Y319.94;
G1 X186.16 Y319.89;
G1 X186.02 Y319.86;
G1 X185.98 Y319.86;
G1 X178.1 Y319.86;
G1 X177.85 Y319.89;
G1 X177.82 Y319.89;
G1 X177.64 Y320.01;
G1 X177.62 Y320.02;
G1 X177.54 Y320.18;
G1 X177.5 Y320.27;
G1 X177.47 Y320.54;
G1 X177.47 Y320.69;
G1 X177.48 Y321.01;
G1 X177.48 Y321.07;
G1 X177.54 Y321.31;
G1 X177.56 Y321.36;
G1 X177.69 Y321.61;
G1 X177.89 Y321.86;
G1 X177.91 Y321.89;
G1 X180.68 Y324.82;
G1 X181.2 Y325.39;
G1 X181.65 Y325.92;
G1 X182.04 Y326.41;
G1 X182.21 Y326.64;
G1 X182.58 Y327.18;
G1 X182.89 Y327.69;
G1 X183.1 Y328.11;
G1 X183.32 Y328.59;
G1 X183.46 Y329.05;
G1 X183.52 Y329.31;
G1 X183.6 Y329.89;
G1 X183.62 Y330.32;
G1 X183.59 Y330.75;
G1 X183.49 Y331.15;
G1 X183.47 Y331.22;
G1 X183.29 Y331.59;
G1 X183.06 Y331.92;
G1 X183.02 Y331.97;
G1 X182.75 Y332.21;
G1 X182.43 Y332.41;
G1 X182.29 Y332.47;
G1 X181.93 Y332.59;
G1 X181.54 Y332.65;
G1 X181.27 Y332.66;
G1 X180.78 Y332.63;
G1 X180.32 Y332.55;
G1 X180.06 Y332.47;
G1 X179.51 Y332.25;
G1 X179.12 Y332.06;
G1 X178.72 Y331.83;
G1 X178.45 Y331.66;
G1 X178.27 Y331.54;
G1 X178.12 Y331.48;
G1 X178.05 Y331.47;
G1 X177.92 Y331.5;
G1 X177.91 Y331.51;
G1 X177.83 Y331.62;
G1 X177.81 Y331.66;
G1 X177.77 Y331.84;
G1 X177.76 Y331.92;
G1 X177.74 Y332.2;
G1 X177.74 Y332.32;
G1 X177.74 Y332.58;
G1 X177.75 Y332.6;
G1 X177.78 Y332.81;
G1 X177.86 Y332.98;
G1 X177.94 Y333.09;
G1 X178.03 Y333.17;
G1 X178.18 Y333.28;
G1 X178.39 Y333.42;
G1 X178.48 Y333.49;
G1 X178.86 Y333.69;
G1 X179.3 Y333.87;
G1 X179.88 Y334.07;
G1 X180.38 Y334.2;
G1 X181.0 Y334.3;
G1 X181.63 Y334.34;
G1 X182.25 Y334.31;
G1 X182.83 Y334.22;
G1 X183.35 Y334.07;
G1 X183.43 Y334.04;
G1 X183.9 Y333.84;
G1 X184.31 Y333.59;
G1 X184.67 Y333.3;
G1 X184.72 Y333.24;
G1 X185.05 Y332.87;
G1 X185.32 Y332.46;
G1 X185.5 Y332.06;
G1 X185.65 Y331.54;
G1 X185.74 Y330.99;
G1 X185.75 Y330.63;
G1 X185.71 Y329.87;
G1 X185.63 Y329.26;
G1 X185.51 Y328.78;
G1 X185.33 Y328.27;
G1 X185.11 Y327.8;
G1 X184.83 Y327.29;
G1 X184.48 Y326.74;
G1 X184.06 Y326.14;
G1 X183.99 Y326.05;
G1 X183.57 Y325.52;
G1 X183.08 Y324.97;
G1 X182.53 Y324.36;
G1 X182.02 Y323.83;
G1 X179.76 Y321.47;
G1 X185.97 Y321.47;
G1 X186.11 Y321.43;
G1 X186.14 Y321.42;
G1 X186.25 Y321.32;
G1 X186.28 Y321.27;
G1 X186.35 Y321.08;
G1 X186.37 Y321.02;
G1 X186.4 Y320.77;
G1 X186.4 Y320.68;
G1 X186.4 Y320.68;
S0;( end pass 1 of 1 )


( start pass 1 of 1 )
G0 X6.79 Y52.36;
S300;
G1 X196.22 Y52.36 F700;
S0;( end pass 1 of 1 )


( start pass 1 of 1 )
G0 X6.79 Y253.62;
S300;
G1 X196.22 Y253.62 F700;
S0;( end pass 1 of 1 )


( start pass 1 of 1 )
G0 X144.49 Y286.17;
S300;
G1 X144.49 Y17.75 F700;
S0;( end pass 1 of 1 )


( start pass 1 of 1 )
G0 X129.51 Y17.75;
S300;
G1 X129.51 Y286.17 F700;
S0;( end pass 1 of 1 )


( start pass 1 of 1 )
G0 X79.44 Y286.17;
S300;
G1 X79.44 Y17.75 F700;
S0;( end pass 1 of 1 )


( start pass 1 of 1 )
G0 X64.45 Y17.75;
S300;
G1 X64.45 Y286.17 F700;
S0;( end pass 1 of 1 )


( start pass 1 of 1 )
G0 X184.67 Y286.17;
S300;
G1 X184.67 Y17.75 F700;
S0;( end pass 1 of 1 )


( start pass 1 of 1 )
G0 X169.69 Y17.75;
S300;
G1 X169.69 Y286.17 F700;
S0;( end pass 1 of 1 )


( start pass 1 of 1 )
G0 X40.42 Y286.17;
S300;
G1 X40.42 Y17.75 F700;
S0;( end pass 1 of 1 )


( start pass 1 of 1 )
G0 X25.45 Y17.75;
S300;
G1 X25.45 Y286.17 F700;
S0;( end pass 1 of 1 )


( start pass 1 of 1 )
G0 X37.14 Y264.29;
S300;
G1 X37.13 Y264.1 F700;
G1 X37.13 Y264.08;
G1 X37.08 Y263.95;
G1 X37.0 Y263.88;
G1 X36.92 Y263.86;
G1 X32.72 Y263.86;
G1 X32.65 Y263.88;
G1 X32.57 Y263.95;
G1 X32.52 Y264.08;
G1 X32.5 Y264.26;
G1 X32.5 Y264.29;
G1 X32.52 Y264.48;
G1 X32.57 Y264.61;
G1 X32.63 Y264.69;
G1 X32.72 Y264.72;
G1 X34.4 Y264.72;
G1 X34.4 Y270.82;
G1 X32.85 Y269.89;
G1 X32.7 Y269.83;
G1 X32.65 Y269.82;
G1 X32.56 Y269.83;
G1 X32.54 Y269.85;
G1 X32.49 Y269.95;
G1 X32.49 Y269.98;
G1 X32.47 Y270.17;
G1 X32.47 Y270.22;
G1 X32.47 Y270.39;
G1 X32.51 Y270.52;
G1 X32.56 Y270.61;
G1 X32.65 Y270.69;
G1 X34.51 Y271.87;
G1 X34.57 Y271.89;
G1 X34.65 Y271.93;
G1 X34.79 Y271.94;
G1 X34.97 Y271.94;
G1 X35.19 Y271.94;
G1 X35.22 Y271.93;
G1 X35.36 Y271.89;
G1 X35.38 Y271.89;
G1 X35.45 Y271.85;
G1 X35.45 Y271.83;
G1 X35.47 Y271.77;
G1 X35.47 Y264.72;
G1 X36.92 Y264.72;
G1 X37.02 Y264.69;
G1 X37.08 Y264.61;
G1 X37.13 Y264.48;
G1 X37.15 Y264.29;
G1 X37.14 Y264.29;
S0;( end pass 1 of 1 )


( start pass 1 of 1 )
G0 X76.28 Y264.32;
S300;
G1 X76.26 Y264.12 F700;
G1 X76.22 Y263.98;
G1 X76.15 Y263.89;
G1 X76.05 Y263.86;
G1 X71.61 Y263.86;
G1 X71.45 Y263.88;
G1 X71.34 Y263.95;
G1 X71.28 Y264.08;
G1 X71.28 Y264.1;
G1 X71.26 Y264.3;
G1 X71.26 Y264.33;
G1 X71.27 Y264.55;
G1 X71.31 Y264.7;
G1 X71.39 Y264.85;
G1 X71.51 Y265.0;
G1 X73.06 Y266.64;
G1 X73.45 Y267.07;
G1 X73.76 Y267.45;
G1 X73.93 Y267.68;
G1 X74.2 Y268.08;
G1 X74.4 Y268.44;
G1 X74.43 Y268.5;
G1 X74.58 Y268.86;
G1 X74.67 Y269.18;
G1 X74.72 Y269.61;
G1 X74.72 Y269.75;
G1 X74.69 Y270.06;
G1 X74.64 Y270.25;
G1 X74.5 Y270.52;
G1 X74.38 Y270.67;
G1 X74.17 Y270.85;
G1 X73.97 Y270.95;
G1 X73.7 Y271.04;
G1 X73.4 Y271.06;
G1 X73.04 Y271.04;
G1 X72.72 Y270.95;
G1 X72.31 Y270.79;
G1 X72.19 Y270.73;
G1 X71.9 Y270.55;
G1 X71.81 Y270.5;
G1 X71.68 Y270.42;
G1 X71.59 Y270.39;
G1 X71.51 Y270.42;
G1 X71.45 Y270.5;
G1 X71.42 Y270.64;
G1 X71.41 Y270.87;
G1 X71.42 Y271.02;
G1 X71.44 Y271.14;
G1 X71.48 Y271.24;
G1 X71.56 Y271.33;
G1 X71.58 Y271.35;
G1 X71.7 Y271.44;
G1 X71.84 Y271.52;
G1 X72.13 Y271.68;
G1 X72.3 Y271.75;
G1 X72.73 Y271.89;
G1 X72.9 Y271.93;
G1 X73.37 Y272.0;
G1 X73.59 Y272.01;
G1 X74.06 Y271.98;
G1 X74.48 Y271.89;
G1 X74.62 Y271.83;
G1 X74.95 Y271.68;
G1 X75.25 Y271.48;
G1 X75.34 Y271.39;
G1 X75.58 Y271.11;
G1 X75.76 Y270.79;
G1 X75.78 Y270.73;
G1 X75.89 Y270.33;
G1 X75.92 Y269.92;
G1 X75.89 Y269.35;
G1 X75.86 Y269.14;
G1 X75.76 Y268.79;
G1 X75.59 Y268.39;
G1 X75.56 Y268.33;
G1 X75.34 Y267.94;
G1 X75.06 Y267.52;
G1 X74.93 Y267.33;
G1 X74.61 Y266.95;
G1 X74.22 Y266.51;
G1 X73.83 Y266.1;
G1 X72.56 Y264.77;
G1 X76.05 Y264.77;
G1 X76.14 Y264.74;
G1 X76.22 Y264.66;
G1 X76.27 Y264.52;
G1 X76.29 Y264.32;
G1 X76.28 Y264.32;
S0;( end pass 1 of 1 )


( start pass 1 of 1 )
G0 X140.55 Y266.27;
S300;
G1 X140.51 Y265.83 F700;
G1 X140.41 Y265.42;
G1 X140.35 Y265.27;
G1 X140.16 Y264.93;
G1 X139.91 Y264.63;
G1 X139.8 Y264.52;
G1 X139.47 Y264.27;
G1 X139.08 Y264.08;
G1 X138.91 Y264.02;
G1 X138.44 Y263.92;
G1 X137.94 Y263.87;
G1 X137.72 Y263.86;
G1 X137.19 Y263.89;
G1 X136.97 Y263.93;
G1 X136.53 Y264.02;
G1 X136.35 Y264.08;
G1 X136.05 Y264.2;
G1 X135.9 Y264.27;
G1 X135.75 Y264.35;
G1 X135.66 Y264.41;
G1 X135.6 Y264.5;
G1 X135.56 Y264.6;
G1 X135.52 Y264.75;
G1 X135.51 Y264.97;
G1 X135.53 Y265.17;
G1 X135.56 Y265.27;
G1 X135.62 Y265.36;
G1 X135.68 Y265.37;
G1 X135.77 Y265.35;
G1 X135.9 Y265.27;
G1 X136.13 Y265.14;
G1 X136.32 Y265.05;
G1 X136.71 Y264.91;
G1 X136.91 Y264.83;
G1 X137.33 Y264.76;
G1 X137.69 Y264.74;
G1 X138.08 Y264.77;
G1 X138.41 Y264.85;
G1 X138.69 Y264.98;
G1 X138.93 Y265.14;
G1 X139.13 Y265.38;
G1 X139.25 Y265.6;
G1 X139.33 Y265.91;
G1 X139.35 Y266.18;
G1 X139.32 Y266.51;
G1 X139.22 Y266.79;
G1 X139.05 Y267.05;
G1 X138.83 Y267.26;
G1 X138.54 Y267.44;
G1 X138.19 Y267.57;
G1 X137.79 Y267.64;
G1 X137.34 Y267.67;
G1 X136.58 Y267.67;
G1 X136.47 Y267.69;
G1 X136.4 Y267.76;
G1 X136.34 Y267.89;
G1 X136.33 Y268.06;
G1 X136.33 Y268.11;
G1 X136.34 Y268.27;
G1 X136.34 Y268.3;
G1 X136.38 Y268.42;
G1 X136.47 Y268.49;
G1 X136.57 Y268.51;
G1 X137.28 Y268.51;
G1 X137.66 Y268.54;
G1 X138.01 Y268.62;
G1 X138.31 Y268.75;
G1 X138.56 Y268.92;
G1 X138.76 Y269.14;
G1 X138.91 Y269.39;
G1 X139.0 Y269.69;
G1 X139.03 Y270.02;
G1 X138.99 Y270.33;
G1 X138.94 Y270.49;
G1 X138.82 Y270.75;
G1 X138.71 Y270.88;
G1 X138.5 Y271.05;
G1 X138.29 Y271.14;
G1 X137.99 Y271.22;
G1 X137.72 Y271.24;
G1 X137.33 Y271.2;
G1 X137.05 Y271.13;
G1 X136.63 Y270.95;
G1 X136.52 Y270.89;
G1 X136.24 Y270.74;
G1 X136.13 Y270.67;
G1 X135.99 Y270.58;
G1 X135.91 Y270.56;
G1 X135.83 Y270.57;
G1 X135.77 Y270.64;
G1 X135.74 Y270.77;
G1 X135.72 Y270.94;
G1 X135.72 Y270.99;
G1 X135.74 Y271.14;
G1 X135.77 Y271.27;
G1 X135.81 Y271.37;
G1 X135.88 Y271.47;
G1 X136.0 Y271.56;
G1 X136.13 Y271.64;
G1 X136.41 Y271.79;
G1 X136.57 Y271.86;
G1 X136.97 Y272.0;
G1 X137.18 Y272.05;
G1 X137.63 Y272.11;
G1 X137.93 Y272.12;
G1 X138.37 Y272.1;
G1 X138.77 Y272.02;
G1 X138.91 Y271.98;
G1 X139.26 Y271.82;
G1 X139.56 Y271.62;
G1 X139.61 Y271.58;
G1 X139.84 Y271.32;
G1 X140.01 Y271.01;
G1 X140.03 Y270.95;
G1 X140.13 Y270.6;
G1 X140.16 Y270.22;
G1 X140.16 Y270.14;
G1 X140.13 Y269.74;
G1 X140.07 Y269.44;
G1 X139.93 Y269.11;
G1 X139.78 Y268.87;
G1 X139.54 Y268.61;
G1 X139.31 Y268.44;
G1 X139.0 Y268.29;
G1 X138.66 Y268.2;
G1 X138.66 Y268.19;
G1 X139.07 Y268.11;
G1 X139.41 Y267.98;
G1 X139.75 Y267.79;
G1 X140.02 Y267.57;
G1 X140.24 Y267.29;
G1 X140.4 Y266.98;
G1 X140.51 Y266.64;
G1 X140.54 Y266.27;
G1 X140.55 Y266.27;
S0;( end pass 1 of 1 )


( start pass 1 of 1 )
G0 X182.44 Y266.18;
S300;
G1 X182.42 Y265.98 F700;
G1 X182.37 Y265.86;
G1 X182.29 Y265.77;
G1 X182.2 Y265.74;
G1 X181.29 Y265.74;
G1 X181.29 Y264.06;
G1 X181.27 Y263.97;
G1 X181.18 Y263.91;
G1 X181.02 Y263.88;
G1 X180.82 Y263.86;
G1 X180.77 Y263.86;
G1 X180.56 Y263.87;
G1 X180.52 Y263.88;
G1 X180.36 Y263.91;
G1 X180.28 Y263.97;
G1 X180.26 Y264.06;
G1 X180.26 Y265.74;
G1 X176.95 Y265.74;
G1 X176.82 Y265.76;
G1 X176.73 Y265.83;
G1 X176.68 Y265.95;
G1 X176.67 Y265.97;
G1 X176.66 Y266.16;
G1 X176.66 Y266.2;
G1 X176.67 Y266.42;
G1 X176.7 Y266.58;
G1 X176.75 Y266.74;
G1 X176.82 Y266.89;
G1 X179.71 Y271.77;
G1 X179.8 Y271.86;
G1 X179.95 Y271.92;
G1 X180.15 Y271.95;
G1 X180.18 Y271.95;
G1 X180.44 Y271.95;
G1 X180.5 Y271.95;
G1 X180.8 Y271.95;
G1 X180.86 Y271.94;
G1 X181.05 Y271.92;
G1 X181.1 Y271.91;
G1 X181.24 Y271.85;
G1 X181.25 Y271.83;
G1 X181.3 Y271.77;
G1 X181.3 Y271.75;
G1 X181.3 Y266.62;
G1 X182.2 Y266.62;
G1 X182.31 Y266.58;
G1 X182.37 Y266.51;
G1 X182.42 Y266.37;
G1 X182.44 Y266.18;
G1 X182.44 Y266.18;
S0;( end pass 1 of 1 )


( start pass 1 of 1 )
G0 X180.26 Y271.02;
S300;
G1 X180.25 Y271.02 F700;
G1 X177.64 Y266.62;
G1 X180.26 Y266.62;
G1 X180.26 Y271.02;
S0;( end pass 1 of 1 )


( start pass 1 of 1 )
G0 X31.2 Y18.05;
S300;
G1 X31.18 Y17.87 F700;
G1 X31.18 Y17.85;
G1 X31.13 Y17.72;
G1 X31.06 Y17.64;
G1 X30.97 Y17.63;
G1 X26.78 Y17.63;
G1 X26.7 Y17.64;
G1 X26.63 Y17.72;
G1 X26.58 Y17.85;
G1 X26.56 Y18.03;
G1 X26.56 Y18.05;
G1 X26.58 Y18.23;
G1 X26.62 Y18.37;
G1 X26.69 Y18.45;
G1 X26.78 Y18.48;
G1 X28.46 Y18.48;
G1 X28.46 Y24.59;
G1 X26.91 Y23.66;
G1 X26.75 Y23.6;
G1 X26.71 Y23.59;
G1 X26.62 Y23.6;
G1 X26.6 Y23.61;
G1 X26.55 Y23.72;
G1 X26.54 Y23.75;
G1 X26.53 Y23.93;
G1 X26.53 Y23.99;
G1 X26.54 Y24.17;
G1 X26.57 Y24.29;
G1 X26.62 Y24.38;
G1 X26.71 Y24.45;
G1 X28.56 Y25.63;
G1 X28.62 Y25.67;
G1 X28.71 Y25.69;
G1 X28.84 Y25.7;
G1 X29.03 Y25.71;
G1 X29.24 Y25.7;
G1 X29.28 Y25.7;
G1 X29.42 Y25.66;
G1 X29.43 Y25.66;
G1 X29.5 Y25.61;
G1 X29.51 Y25.6;
G1 X29.53 Y25.54;
G1 X29.53 Y18.48;
G1 X30.98 Y18.48;
G1 X31.07 Y18.45;
G1 X31.14 Y18.37;
G1 X31.18 Y18.23;
G1 X31.2 Y18.05;
G1 X31.2 Y18.05;
S0;( end pass 1 of 1 )


( start pass 1 of 1 )
G0 X37.63 Y18.05;
S300;
G1 X37.61 Y17.87 F700;
G1 X37.61 Y17.85;
G1 X37.57 Y17.72;
G1 X37.49 Y17.64;
G1 X37.4 Y17.63;
G1 X33.22 Y17.63;
G1 X33.14 Y17.64;
G1 X33.06 Y17.72;
G1 X33.01 Y17.85;
G1 X32.99 Y18.03;
G1 X32.99 Y18.05;
G1 X33.01 Y18.23;
G1 X33.06 Y18.37;
G1 X33.11 Y18.45;
G1 X33.22 Y18.48;
G1 X34.89 Y18.48;
G1 X34.89 Y24.59;
G1 X33.34 Y23.66;
G1 X33.19 Y23.6;
G1 X33.15 Y23.59;
G1 X33.04 Y23.6;
G1 X33.04 Y23.61;
G1 X32.97 Y23.72;
G1 X32.97 Y23.75;
G1 X32.96 Y23.93;
G1 X32.96 Y23.99;
G1 X32.97 Y24.17;
G1 X33.0 Y24.29;
G1 X33.06 Y24.38;
G1 X33.15 Y24.45;
G1 X35.0 Y25.63;
G1 X35.06 Y25.67;
G1 X35.15 Y25.69;
G1 X35.28 Y25.7;
G1 X35.47 Y25.71;
G1 X35.68 Y25.7;
G1 X35.72 Y25.7;
G1 X35.86 Y25.66;
G1 X35.86 Y25.66;
G1 X35.94 Y25.61;
G1 X35.94 Y25.6;
G1 X35.96 Y25.54;
G1 X35.96 Y18.48;
G1 X37.4 Y18.48;
G1 X37.51 Y18.45;
G1 X37.58 Y18.37;
G1 X37.61 Y18.23;
G1 X37.64 Y18.05;
G1 X37.63 Y18.05;
S0;( end pass 1 of 1 )


( start pass 1 of 1 )
G0 X85.19 Y18.05;
S300;
G1 X85.17 Y17.87 F700;
G1 X85.17 Y17.85;
G1 X85.12 Y17.72;
G1 X85.04 Y17.64;
G1 X84.96 Y17.63;
G1 X80.77 Y17.63;
G1 X80.69 Y17.64;
G1 X80.61 Y17.72;
G1 X80.56 Y17.85;
G1 X80.55 Y18.03;
G1 X80.55 Y18.05;
G1 X80.56 Y18.23;
G1 X80.61 Y18.37;
G1 X80.68 Y18.45;
G1 X80.77 Y18.48;
G1 X82.44 Y18.48;
G1 X82.44 Y24.59;
G1 X80.89 Y23.66;
G1 X80.73 Y23.6;
G1 X80.7 Y23.59;
G1 X80.61 Y23.6;
G1 X80.59 Y23.61;
G1 X80.53 Y23.72;
G1 X80.53 Y23.75;
G1 X80.52 Y23.93;
G1 X80.51 Y23.99;
G1 X80.52 Y24.17;
G1 X80.56 Y24.29;
G1 X80.61 Y24.38;
G1 X80.7 Y24.45;
G1 X82.55 Y25.63;
G1 X82.61 Y25.67;
G1 X82.7 Y25.69;
G1 X82.83 Y25.7;
G1 X83.02 Y25.71;
G1 X83.23 Y25.7;
G1 X83.27 Y25.7;
G1 X83.41 Y25.66;
G1 X83.42 Y25.66;
G1 X83.49 Y25.61;
G1 X83.5 Y25.6;
G1 X83.51 Y25.54;
G1 X83.51 Y18.48;
G1 X84.97 Y18.48;
G1 X85.06 Y18.45;
G1 X85.13 Y18.37;
G1 X85.17 Y18.23;
G1 X85.19 Y18.05;
G1 X85.19 Y18.05;
S0;( end pass 1 of 1 )


( start pass 1 of 1 )
G0 X91.6 Y18.09;
S300;
G1 X91.58 Y17.89 F700;
G1 X91.54 Y17.73;
G1 X91.47 Y17.64;
G1 X91.37 Y17.63;
G1 X86.94 Y17.63;
G1 X86.78 Y17.64;
G1 X86.67 Y17.72;
G1 X86.61 Y17.85;
G1 X86.6 Y17.86;
G1 X86.58 Y18.07;
G1 X86.58 Y18.09;
G1 X86.59 Y18.3;
G1 X86.63 Y18.47;
G1 X86.71 Y18.62;
G1 X86.83 Y18.77;
G1 X88.39 Y20.42;
G1 X88.77 Y20.84;
G1 X89.09 Y21.22;
G1 X89.25 Y21.44;
G1 X89.52 Y21.84;
G1 X89.73 Y22.21;
G1 X89.75 Y22.27;
G1 X89.9 Y22.63;
G1 X89.99 Y22.94;
G1 X90.04 Y23.37;
G1 X90.04 Y23.51;
G1 X90.01 Y23.83;
G1 X89.96 Y24.02;
G1 X89.82 Y24.29;
G1 X89.7 Y24.44;
G1 X89.5 Y24.62;
G1 X89.29 Y24.72;
G1 X89.02 Y24.8;
G1 X88.72 Y24.83;
G1 X88.36 Y24.8;
G1 X88.04 Y24.72;
G1 X87.64 Y24.56;
G1 X87.51 Y24.49;
G1 X87.22 Y24.32;
G1 X87.14 Y24.26;
G1 X87.0 Y24.18;
G1 X86.91 Y24.16;
G1 X86.83 Y24.18;
G1 X86.78 Y24.26;
G1 X86.74 Y24.41;
G1 X86.73 Y24.64;
G1 X86.74 Y24.8;
G1 X86.76 Y24.92;
G1 X86.8 Y25.01;
G1 X86.88 Y25.09;
G1 X86.9 Y25.11;
G1 X87.02 Y25.2;
G1 X87.16 Y25.29;
G1 X87.45 Y25.44;
G1 X87.62 Y25.51;
G1 X88.06 Y25.66;
G1 X88.22 Y25.7;
G1 X88.69 Y25.76;
G1 X88.93 Y25.77;
G1 X89.39 Y25.74;
G1 X89.8 Y25.65;
G1 X89.94 Y25.6;
G1 X90.28 Y25.45;
G1 X90.57 Y25.25;
G1 X90.67 Y25.16;
G1 X90.91 Y24.87;
G1 X91.08 Y24.55;
G1 X91.1 Y24.49;
G1 X91.21 Y24.1;
G1 X91.24 Y23.69;
G1 X91.21 Y23.12;
G1 X91.18 Y22.92;
G1 X91.08 Y22.55;
G1 X90.92 Y22.16;
G1 X90.89 Y22.09;
G1 X90.67 Y21.71;
G1 X90.38 Y21.28;
G1 X90.25 Y21.11;
G1 X89.93 Y20.71;
G1 X89.55 Y20.28;
G1 X89.15 Y19.86;
G1 X87.88 Y18.53;
G1 X91.37 Y18.53;
G1 X91.46 Y18.5;
G1 X91.54 Y18.42;
G1 X91.59 Y18.28;
G1 X91.61 Y18.09;
G1 X91.6 Y18.09;
S0;( end pass 1 of 1 )


( start pass 1 of 1 )
G0 X135.26 Y18.17;
S300;
G1 X135.24 Y17.98 F700;
G1 X135.24 Y17.97;
G1 X135.19 Y17.84;
G1 X135.12 Y17.77;
G1 X135.04 Y17.75;
G1 X130.84 Y17.75;
G1 X130.76 Y17.77;
G1 X130.69 Y17.84;
G1 X130.63 Y17.97;
G1 X130.62 Y18.14;
G1 X130.62 Y18.17;
G1 X130.63 Y18.36;
G1 X130.68 Y18.48;
G1 X130.75 Y18.57;
G1 X130.84 Y18.6;
G1 X132.52 Y18.6;
G1 X132.52 Y24.7;
G1 X130.97 Y23.78;
G1 X130.82 Y23.72;
G1 X130.77 Y23.71;
G1 X130.68 Y23.72;
G1 X130.66 Y23.73;
G1 X130.61 Y23.84;
G1 X130.6 Y23.87;
G1 X130.59 Y24.05;
G1 X130.59 Y24.1;
G1 X130.6 Y24.28;
G1 X130.63 Y24.41;
G1 X130.68 Y24.49;
G1 X130.77 Y24.57;
G1 X132.62 Y25.75;
G1 X132.68 Y25.78;
G1 X132.78 Y25.81;
G1 X132.91 Y25.82;
G1 X133.09 Y25.83;
G1 X133.3 Y25.82;
G1 X133.34 Y25.81;
G1 X133.47 Y25.78;
G1 X133.5 Y25.78;
G1 X133.57 Y25.73;
G1 X133.57 Y25.72;
G1 X133.59 Y25.65;
G1 X133.59 Y18.6;
G1 X135.04 Y18.6;
G1 X135.13 Y18.57;
G1 X135.19 Y18.48;
G1 X135.24 Y18.36;
G1 X135.26 Y18.17;
G1 X135.26 Y18.17;
S0;( end pass 1 of 1 )


( start pass 1 of 1 )
G0 X141.62 Y20.04;
S300;
G1 X141.58 Y19.6 F700;
G1 X141.47 Y19.19;
G1 X141.41 Y19.04;
G1 X141.22 Y18.7;
G1 X140.97 Y18.39;
G1 X140.87 Y18.29;
G1 X140.54 Y18.05;
G1 X140.15 Y17.86;
G1 X139.99 Y17.8;
G1 X139.52 Y17.69;
G1 X139.0 Y17.63;
G1 X138.79 Y17.63;
G1 X138.27 Y17.66;
G1 X138.04 Y17.7;
G1 X137.6 Y17.79;
G1 X137.41 Y17.85;
G1 X137.12 Y17.96;
G1 X136.97 Y18.03;
G1 X136.82 Y18.12;
G1 X136.74 Y18.17;
G1 X136.66 Y18.26;
G1 X136.62 Y18.37;
G1 X136.59 Y18.52;
G1 X136.58 Y18.73;
G1 X136.59 Y18.93;
G1 X136.63 Y19.05;
G1 X136.69 Y19.12;
G1 X136.75 Y19.14;
G1 X136.83 Y19.11;
G1 X136.97 Y19.04;
G1 X137.21 Y18.91;
G1 X137.38 Y18.82;
G1 X137.78 Y18.67;
G1 X137.99 Y18.61;
G1 X138.4 Y18.53;
G1 X138.76 Y18.51;
G1 X139.15 Y18.54;
G1 X139.47 Y18.61;
G1 X139.77 Y18.73;
G1 X140.0 Y18.91;
G1 X140.19 Y19.14;
G1 X140.32 Y19.37;
G1 X140.4 Y19.68;
G1 X140.41 Y19.94;
G1 X140.38 Y20.27;
G1 X140.29 Y20.56;
G1 X140.12 Y20.81;
G1 X139.88 Y21.03;
G1 X139.6 Y21.2;
G1 X139.26 Y21.33;
G1 X138.86 Y21.41;
G1 X138.41 Y21.44;
G1 X137.65 Y21.44;
G1 X137.55 Y21.46;
G1 X137.47 Y21.53;
G1 X137.41 Y21.66;
G1 X137.4 Y21.82;
G1 X137.38 Y21.87;
G1 X137.41 Y22.05;
G1 X137.41 Y22.06;
G1 X137.46 Y22.19;
G1 X137.54 Y22.26;
G1 X137.63 Y22.28;
G1 X138.34 Y22.28;
G1 X138.74 Y22.31;
G1 X139.08 Y22.39;
G1 X139.38 Y22.52;
G1 X139.63 Y22.69;
G1 X139.83 Y22.91;
G1 X139.97 Y23.16;
G1 X140.07 Y23.46;
G1 X140.1 Y23.78;
G1 X140.06 Y24.1;
G1 X140.02 Y24.25;
G1 X139.88 Y24.51;
G1 X139.78 Y24.65;
G1 X139.57 Y24.81;
G1 X139.36 Y24.91;
G1 X139.06 Y24.99;
G1 X138.78 Y25.01;
G1 X138.4 Y24.97;
G1 X138.12 Y24.9;
G1 X137.71 Y24.73;
G1 X137.59 Y24.67;
G1 X137.31 Y24.51;
G1 X137.19 Y24.43;
G1 X137.06 Y24.35;
G1 X136.97 Y24.33;
G1 X136.9 Y24.34;
G1 X136.84 Y24.4;
G1 X136.81 Y24.53;
G1 X136.8 Y24.71;
G1 X136.8 Y24.75;
G1 X136.81 Y24.92;
G1 X136.84 Y25.04;
G1 X136.88 Y25.14;
G1 X136.96 Y25.24;
G1 X137.07 Y25.32;
G1 X137.19 Y25.41;
G1 X137.47 Y25.56;
G1 X137.63 Y25.63;
G1 X138.04 Y25.76;
G1 X138.25 Y25.81;
G1 X138.69 Y25.88;
G1 X138.99 Y25.89;
G1 X139.44 Y25.86;
G1 X139.84 Y25.79;
G1 X139.97 Y25.75;
G1 X140.33 Y25.59;
G1 X140.63 Y25.38;
G1 X140.68 Y25.34;
G1 X140.91 Y25.08;
G1 X141.08 Y24.77;
G1 X141.1 Y24.72;
G1 X141.19 Y24.37;
G1 X141.24 Y23.98;
G1 X141.24 Y23.92;
G1 X141.21 Y23.51;
G1 X141.13 Y23.21;
G1 X141.0 Y22.87;
G1 X140.85 Y22.63;
G1 X140.61 Y22.38;
G1 X140.38 Y22.21;
G1 X140.07 Y22.06;
G1 X139.72 Y21.96;
G1 X139.72 Y21.95;
G1 X140.13 Y21.88;
G1 X140.49 Y21.74;
G1 X140.82 Y21.55;
G1 X141.08 Y21.33;
G1 X141.31 Y21.06;
G1 X141.47 Y20.75;
G1 X141.58 Y20.39;
G1 X141.61 Y20.04;
G1 X141.62 Y20.04;
S0;( end pass 1 of 1 )


( start pass 1 of 1 )
G0 X175.44 Y18.09;
S300;
G1 X175.43 Y17.91 F700;
G1 X175.42 Y17.89;
G1 X175.37 Y17.76;
G1 X175.3 Y17.68;
G1 X175.22 Y17.67;
G1 X171.03 Y17.67;
G1 X170.94 Y17.68;
G1 X170.87 Y17.76;
G1 X170.82 Y17.89;
G1 X170.8 Y18.05;
G1 X170.8 Y18.09;
G1 X170.82 Y18.28;
G1 X170.86 Y18.41;
G1 X170.93 Y18.48;
G1 X171.02 Y18.52;
G1 X172.7 Y18.52;
G1 X172.7 Y24.62;
G1 X171.15 Y23.7;
G1 X171.0 Y23.64;
G1 X170.96 Y23.63;
G1 X170.86 Y23.64;
G1 X170.85 Y23.65;
G1 X170.79 Y23.75;
G1 X170.78 Y23.79;
G1 X170.77 Y23.97;
G1 X170.77 Y24.02;
G1 X170.78 Y24.2;
G1 X170.81 Y24.33;
G1 X170.86 Y24.41;
G1 X170.96 Y24.49;
G1 X172.8 Y25.67;
G1 X172.87 Y25.7;
G1 X172.96 Y25.73;
G1 X173.09 Y25.74;
G1 X173.27 Y25.75;
G1 X173.48 Y25.74;
G1 X173.52 Y25.73;
G1 X173.67 Y25.7;
G1 X173.68 Y25.7;
G1 X173.75 Y25.65;
G1 X173.75 Y25.64;
G1 X173.77 Y25.57;
G1 X173.77 Y18.52;
G1 X175.22 Y18.52;
G1 X175.31 Y18.48;
G1 X175.38 Y18.41;
G1 X175.43 Y18.28;
G1 X175.44 Y18.09;
G1 X175.44 Y18.09;
S0;( end pass 1 of 1 )


( start pass 1 of 1 )
G0 X182.2 Y19.95;
S300;
G1 X182.18 Y19.75 F700;
G1 X182.14 Y19.63;
G1 X182.05 Y19.53;
G1 X181.97 Y19.51;
G1 X181.06 Y19.51;
G1 X181.06 Y17.82;
G1 X181.04 Y17.73;
G1 X180.95 Y17.68;
G1 X180.79 Y17.64;
G1 X180.59 Y17.63;
G1 X180.53 Y17.63;
G1 X180.32 Y17.64;
G1 X180.28 Y17.64;
G1 X180.12 Y17.68;
G1 X180.04 Y17.73;
G1 X180.02 Y17.82;
G1 X180.02 Y19.51;
G1 X176.71 Y19.51;
G1 X176.59 Y19.53;
G1 X176.49 Y19.59;
G1 X176.44 Y19.72;
G1 X176.44 Y19.73;
G1 X176.43 Y19.93;
G1 X176.43 Y19.98;
G1 X176.44 Y20.19;
G1 X176.46 Y20.36;
G1 X176.51 Y20.51;
G1 X176.58 Y20.66;
G1 X179.47 Y25.54;
G1 X179.56 Y25.62;
G1 X179.72 Y25.68;
G1 X179.92 Y25.71;
G1 X179.95 Y25.72;
G1 X180.2 Y25.73;
G1 X180.27 Y25.73;
G1 X180.57 Y25.72;
G1 X180.62 Y25.71;
G1 X180.82 Y25.68;
G1 X180.87 Y25.67;
G1 X181.0 Y25.61;
G1 X181.01 Y25.6;
G1 X181.06 Y25.53;
G1 X181.06 Y25.51;
G1 X181.06 Y20.39;
G1 X181.97 Y20.39;
G1 X182.07 Y20.35;
G1 X182.14 Y20.28;
G1 X182.19 Y20.14;
G1 X182.2 Y19.95;
G1 X182.2 Y19.95;
S0;( end pass 1 of 1 )


( start pass 1 of 1 )
G0 X180.02 Y24.79;
S300;
G1 X180.01 Y24.79 F700;
G1 X177.4 Y20.39;
G1 X180.02 Y20.39;
G1 X180.02 Y24.79;
S0;( end pass 1 of 1 )

M5 S0;
( file end tmp/split/toy.Styrofoam.02.Engrave.svg)
( file start tmp/split/toy.Styrofoam.02.Cut.svg)
( speed:20, strength:950 codestyle='laserGRBL', passes:2 support:yes, {'support_gap': 1.0, 'support_strength': 0}' )
M3 S0;

S0;
S0;


( start pass 1 of 2 )
G0 X5.25 Y306.73;
S950;
G1 X203.36 Y306.73 F20;
(addedblock start)
X203.36 Y156.49
S0
X203.36 Y155.49
S950
(added block end)
G1 X203.36 Y5.25;
G1 X5.25 Y5.25;
G1 X5.25 Y306.73;
S0;
( end pass 1 of 2 )
( start pass 2 of 2 )
G0 X5.25 Y306.73;
S950;
G1 X203.36 Y306.73 F20;
(addedblock start)
X203.36 Y156.49
S0
X203.36 Y155.49
S950
(added block end)
G1 X203.36 Y5.25;
G1 X5.25 Y5.25;
G1 X5.25 Y306.73;
S0;
( end pass 2 of 2 )

M5 S0;
( file end tmp/split/toy.Styrofoam.02.Cut.svg)
