( file start tmp/split/toy.Styrofoam.01.Engrave.svg)
( speed:700, strength:300 codestyle='laserGRBL', passes:1 support:no )
M3 S0;

S0;
S0;


( start pass 1 of 1 )
G0 X14.03 Y344.62;
S300;
G1 X13.99 Y344.06 F700;
G1 X13.9 Y343.54;
G1 X13.75 Y343.06;
G1 X13.65 Y342.84;
G1 X13.39 Y342.37;
G1 X13.07 Y341.94;
G1 X12.7 Y341.56;
G1 X12.63 Y341.5;
G1 X12.19 Y341.19;
G1 X11.71 Y340.93;
G1 X11.18 Y340.72;
G1 X11.08 Y340.69;
G1 X10.45 Y340.53;
G1 X9.78 Y340.44;
G1 X9.17 Y340.41;
G1 X8.52 Y340.44;
G1 X7.94 Y340.51;
G1 X7.84 Y340.53;
G1 X7.26 Y340.67;
G1 X6.75 Y340.83;
G1 X6.3 Y341.01;
G1 X5.94 Y341.19;
G1 X5.71 Y341.34;
G1 X5.54 Y341.47;
G1 X5.49 Y341.51;
G1 X5.35 Y341.72;
G1 X5.3 Y341.84;
G1 X5.26 Y342.09;
G1 X5.25 Y342.39;
G1 X5.26 Y342.66;
G1 X5.27 Y342.79;
G1 X5.32 Y343.0;
G1 X5.34 Y343.06;
G1 X5.42 Y343.17;
G1 X5.45 Y343.19;
G1 X5.57 Y343.23;
G1 X5.6 Y343.23;
G1 X5.75 Y343.2;
G1 X5.95 Y343.1;
G1 X6.03 Y343.05;
G1 X6.33 Y342.87;
G1 X6.69 Y342.67;
G1 X6.76 Y342.64;
G1 X7.2 Y342.44;
G1 X7.72 Y342.25;
G1 X7.82 Y342.22;
G1 X8.33 Y342.1;
G1 X8.89 Y342.04;
G1 X9.26 Y342.03;
G1 X9.76 Y342.06;
G1 X10.22 Y342.15;
G1 X10.39 Y342.2;
G1 X10.79 Y342.36;
G1 X11.15 Y342.57;
G1 X11.27 Y342.66;
G1 X11.55 Y342.94;
G1 X11.77 Y343.27;
G1 X11.84 Y343.41;
G1 X11.96 Y343.76;
G1 X12.03 Y344.15;
G1 X12.04 Y344.41;
G1 X12.01 Y344.81;
G1 X11.91 Y345.17;
G1 X11.77 Y345.45;
G1 X11.5 Y345.79;
G1 X11.18 Y346.09;
G1 X11.04 Y346.2;
G1 X10.54 Y346.52;
G1 X10.0 Y346.79;
G1 X8.82 Y347.34;
G1 X7.94 Y347.8;
G1 X7.64 Y347.97;
G1 X7.14 Y348.31;
G1 X6.69 Y348.71;
G1 X6.62 Y348.78;
G1 X6.27 Y349.19;
G1 X5.97 Y349.66;
G1 X5.88 Y349.86;
G1 X5.73 Y350.28;
G1 X5.64 Y350.75;
G1 X5.6 Y351.26;
G1 X5.6 Y351.36;
G1 X5.63 Y351.9;
G1 X5.73 Y352.4;
G1 X5.89 Y352.87;
G1 X5.92 Y352.95;
G1 X6.15 Y353.37;
G1 X6.44 Y353.74;
G1 X6.76 Y354.07;
G1 X6.83 Y354.12;
G1 X7.26 Y354.43;
G1 X7.74 Y354.67;
G1 X8.19 Y354.84;
G1 X8.77 Y354.99;
G1 X9.38 Y355.07;
G1 X9.94 Y355.09;
G1 X10.52 Y355.06;
G1 X10.88 Y355.01;
G1 X11.45 Y354.89;
G1 X11.79 Y354.79;
G1 X12.24 Y354.62;
G1 X12.55 Y354.48;
G1 X12.77 Y354.36;
G1 X12.92 Y354.26;
G1 X12.98 Y354.2;
G1 X13.09 Y354.08;
G1 X13.12 Y354.04;
G1 X13.17 Y353.9;
G1 X13.18 Y353.88;
G1 X13.21 Y353.69;
G1 X13.21 Y353.66;
G1 X13.22 Y353.45;
G1 X13.22 Y353.32;
G1 X13.2 Y353.0;
G1 X13.2 Y352.97;
G1 X13.16 Y352.73;
G1 X13.15 Y352.7;
G1 X13.08 Y352.57;
G1 X13.06 Y352.55;
G1 X12.94 Y352.5;
G1 X12.92 Y352.5;
G1 X12.8 Y352.53;
G1 X12.62 Y352.61;
G1 X12.54 Y352.66;
G1 X12.22 Y352.84;
G1 X11.91 Y353.0;
G1 X11.49 Y353.19;
G1 X11.02 Y353.35;
G1 X10.57 Y353.46;
G1 X10.07 Y353.51;
G1 X9.86 Y353.52;
G1 X9.4 Y353.49;
G1 X8.98 Y353.4;
G1 X8.83 Y353.35;
G1 X8.49 Y353.2;
G1 X8.19 Y353.02;
G1 X8.11 Y352.93;
G1 X7.87 Y352.67;
G1 X7.7 Y352.36;
G1 X7.68 Y352.31;
G1 X7.57 Y351.92;
G1 X7.53 Y351.53;
G1 X7.57 Y351.14;
G1 X7.66 Y350.79;
G1 X7.81 Y350.51;
G1 X8.07 Y350.17;
G1 X8.39 Y349.86;
G1 X8.53 Y349.75;
G1 X9.03 Y349.43;
G1 X9.58 Y349.14;
G1 X10.77 Y348.58;
G1 X11.66 Y348.13;
G1 X11.96 Y347.96;
G1 X12.47 Y347.63;
G1 X12.93 Y347.24;
G1 X13.0 Y347.17;
G1 X13.33 Y346.8;
G1 X13.6 Y346.38;
G1 X13.74 Y346.09;
G1 X13.89 Y345.68;
G1 X13.99 Y345.22;
G1 X14.02 Y344.71;
G1 X14.03 Y344.62;
G1 X14.03 Y344.62;
S0;( end pass 1 of 1 )


( start pass 1 of 1 )
G0 X21.69 Y341.62;
S300;
G1 X21.68 Y341.33 F700;
G1 X21.64 Y341.12;
G1 X21.58 Y340.94;
G1 X21.51 Y340.84;
G1 X21.37 Y340.74;
G1 X21.25 Y340.67;
G1 X20.95 Y340.58;
G1 X20.84 Y340.55;
G1 X20.36 Y340.47;
G1 X19.86 Y340.43;
G1 X19.35 Y340.46;
G1 X18.89 Y340.53;
G1 X18.53 Y340.63;
G1 X18.18 Y340.8;
G1 X17.87 Y341.02;
G1 X17.63 Y341.25;
G1 X17.41 Y341.56;
G1 X17.23 Y341.93;
G1 X17.11 Y342.3;
G1 X17.02 Y342.82;
G1 X16.97 Y343.4;
G1 X16.96 Y343.79;
G1 X16.96 Y349.59;
G1 X15.57 Y349.59;
G1 X15.44 Y349.62;
G1 X15.34 Y349.72;
G1 X15.3 Y349.77;
G1 X15.24 Y349.94;
G1 X15.21 Y350.17;
G1 X15.21 Y350.34;
G1 X15.22 Y350.62;
G1 X15.23 Y350.7;
G1 X15.29 Y350.89;
G1 X15.3 Y350.93;
G1 X15.38 Y351.04;
G1 X15.41 Y351.06;
G1 X15.56 Y351.1;
G1 X15.58 Y351.1;
G1 X16.96 Y351.1;
G1 X16.96 Y353.46;
G1 X16.98 Y353.61;
G1 X17.1 Y353.7;
G1 X17.13 Y353.72;
G1 X17.3 Y353.78;
G1 X17.42 Y353.79;
G1 X17.67 Y353.81;
G1 X17.86 Y353.82;
G1 X18.16 Y353.81;
G1 X18.3 Y353.79;
G1 X18.52 Y353.75;
G1 X18.59 Y353.72;
G1 X18.71 Y353.63;
G1 X18.73 Y353.61;
G1 X18.78 Y353.48;
G1 X18.78 Y353.46;
G1 X18.78 Y351.1;
G1 X21.32 Y351.1;
G1 X21.46 Y351.07;
G1 X21.48 Y351.06;
G1 X21.56 Y350.97;
G1 X21.59 Y350.93;
G1 X21.65 Y350.77;
G1 X21.66 Y350.7;
G1 X21.69 Y350.45;
G1 X21.69 Y350.34;
G1 X21.67 Y350.07;
G1 X21.63 Y349.87;
G1 X21.59 Y349.77;
G1 X21.49 Y349.65;
G1 X21.37 Y349.6;
G1 X21.32 Y349.59;
G1 X18.78 Y349.59;
G1 X18.78 Y344.06;
G1 X18.8 Y343.56;
G1 X18.86 Y343.13;
G1 X18.96 Y342.76;
G1 X19.07 Y342.5;
G1 X19.25 Y342.29;
G1 X19.47 Y342.13;
G1 X19.75 Y342.03;
G1 X20.07 Y341.99;
G1 X20.17 Y341.99;
G1 X20.51 Y342.01;
G1 X20.62 Y342.03;
G1 X20.94 Y342.13;
G1 X20.97 Y342.14;
G1 X21.21 Y342.23;
G1 X21.24 Y342.24;
G1 X21.4 Y342.29;
G1 X21.43 Y342.3;
G1 X21.53 Y342.26;
G1 X21.6 Y342.2;
G1 X21.61 Y342.16;
G1 X21.66 Y342.0;
G1 X21.66 Y341.95;
G1 X21.69 Y341.72;
G1 X21.69 Y341.62;
G1 X21.69 Y341.62;
S0;( end pass 1 of 1 )


( start pass 1 of 1 )
G0 X28.61 Y340.62;
S300;
G1 X27.29 Y336.97 F700;
G1 X27.21 Y336.85;
G1 X27.06 Y336.75;
G1 X26.95 Y336.71;
G1 X26.73 Y336.65;
G1 X26.44 Y336.62;
G1 X26.13 Y336.61;
G1 X25.84 Y336.62;
G1 X25.67 Y336.64;
G1 X25.48 Y336.68;
G1 X25.39 Y336.73;
G1 X25.31 Y336.83;
G1 X25.29 Y336.9;
G1 X25.31 Y337.06;
G1 X25.35 Y337.17;
G1 X26.71 Y340.62;
G1 X26.56 Y340.73;
G1 X26.53 Y340.76;
G1 X26.42 Y340.93;
G1 X26.41 Y340.97;
G1 X22.87 Y350.45;
G1 X22.8 Y350.66;
G1 X22.78 Y350.82;
G1 X22.81 Y350.96;
G1 X22.87 Y351.03;
G1 X23.0 Y351.1;
G1 X23.15 Y351.13;
G1 X23.39 Y351.15;
G1 X23.68 Y351.16;
G1 X23.98 Y351.15;
G1 X24.2 Y351.14;
G1 X24.42 Y351.11;
G1 X24.5 Y351.08;
G1 X24.62 Y351.0;
G1 X24.65 Y350.95;
G1 X24.73 Y350.8;
G1 X24.76 Y350.73;
G1 X27.6 Y342.77;
G1 X27.63 Y342.77;
G1 X30.36 Y350.77;
G1 X30.43 Y350.93;
G1 X30.5 Y351.03;
G1 X30.52 Y351.04;
G1 X30.67 Y351.1;
G1 X30.8 Y351.13;
G1 X31.01 Y351.15;
G1 X31.29 Y351.16;
G1 X31.34 Y351.16;
G1 X31.65 Y351.15;
G1 X31.85 Y351.13;
G1 X32.04 Y351.08;
G1 X32.14 Y351.03;
G1 X32.22 Y350.92;
G1 X32.24 Y350.82;
G1 X32.21 Y350.63;
G1 X32.17 Y350.49;
G1 X28.61 Y340.62;
S0;( end pass 1 of 1 )


( start pass 1 of 1 )
G0 X40.11 Y350.17;
S300;
G1 X40.1 Y349.87 F700;
G1 X40.1 Y349.76;
G1 X40.07 Y349.55;
G1 X40.04 Y349.49;
G1 X39.97 Y349.35;
G1 X39.88 Y349.31;
G1 X39.83 Y349.31;
G1 X39.68 Y349.33;
G1 X39.61 Y349.35;
G1 X39.36 Y349.44;
G1 X39.33 Y349.45;
G1 X39.01 Y349.54;
G1 X38.97 Y349.55;
G1 X38.63 Y349.59;
G1 X38.54 Y349.59;
G1 X38.24 Y349.56;
G1 X38.0 Y349.48;
G1 X37.72 Y349.33;
G1 X37.44 Y349.12;
G1 X37.17 Y348.85;
G1 X36.88 Y348.51;
G1 X36.83 Y348.45;
G1 X36.54 Y348.06;
G1 X36.25 Y347.61;
G1 X36.13 Y347.42;
G1 X36.13 Y340.9;
G1 X36.09 Y340.75;
G1 X36.09 Y340.74;
G1 X35.97 Y340.66;
G1 X35.94 Y340.64;
G1 X35.77 Y340.59;
G1 X35.67 Y340.58;
G1 X35.4 Y340.56;
G1 X35.21 Y340.55;
G1 X34.92 Y340.56;
G1 X34.77 Y340.58;
G1 X34.54 Y340.62;
G1 X34.49 Y340.64;
G1 X34.36 Y340.72;
G1 X34.34 Y340.74;
G1 X34.31 Y340.9;
G1 X34.31 Y350.82;
G1 X34.34 Y350.95;
G1 X34.34 Y350.96;
G1 X34.43 Y351.05;
G1 X34.47 Y351.07;
G1 X34.65 Y351.13;
G1 X34.72 Y351.14;
G1 X34.96 Y351.16;
G1 X35.14 Y351.16;
G1 X35.4 Y351.15;
G1 X35.53 Y351.14;
G1 X35.71 Y351.11;
G1 X35.79 Y351.07;
G1 X35.89 Y350.98;
G1 X35.9 Y350.96;
G1 X35.95 Y350.85;
G1 X35.95 Y350.82;
G1 X35.95 Y349.37;
G1 X36.29 Y349.83;
G1 X36.6 Y350.22;
G1 X36.71 Y350.34;
G1 X37.04 Y350.65;
G1 X37.35 Y350.89;
G1 X37.4 Y350.93;
G1 X37.72 Y351.11;
G1 X38.03 Y351.23;
G1 X38.42 Y351.3;
G1 X38.65 Y351.31;
G1 X38.97 Y351.29;
G1 X39.36 Y351.24;
G1 X39.69 Y351.15;
G1 X39.72 Y351.14;
G1 X39.89 Y351.07;
G1 X39.95 Y351.03;
G1 X40.04 Y350.93;
G1 X40.04 Y350.92;
G1 X40.08 Y350.8;
G1 X40.1 Y350.66;
G1 X40.1 Y350.56;
G1 X40.11 Y350.37;
G1 X40.11 Y350.17;
G1 X40.11 Y350.17;
S0;( end pass 1 of 1 )


( start pass 1 of 1 )
G0 X51.04 Y345.97;
S300;
G1 X51.01 Y345.22 F700;
G1 X50.92 Y344.51;
G1 X50.76 Y343.84;
G1 X50.73 Y343.73;
G1 X50.52 Y343.17;
G1 X50.25 Y342.66;
G1 X49.94 Y342.19;
G1 X49.77 Y341.98;
G1 X49.38 Y341.58;
G1 X48.94 Y341.23;
G1 X48.44 Y340.94;
G1 X48.18 Y340.82;
G1 X47.66 Y340.63;
G1 X47.11 Y340.5;
G1 X46.51 Y340.43;
G1 X45.97 Y340.41;
G1 X45.3 Y340.44;
G1 X44.67 Y340.53;
G1 X44.1 Y340.68;
G1 X43.83 Y340.77;
G1 X43.34 Y341.01;
G1 X42.9 Y341.3;
G1 X42.5 Y341.64;
G1 X42.32 Y341.83;
G1 X42.0 Y342.25;
G1 X41.73 Y342.73;
G1 X41.51 Y343.25;
G1 X41.42 Y343.52;
G1 X41.26 Y344.17;
G1 X41.16 Y344.88;
G1 X41.12 Y345.63;
G1 X41.12 Y345.77;
G1 X41.15 Y346.51;
G1 X41.25 Y347.22;
G1 X41.4 Y347.88;
G1 X41.43 Y348.0;
G1 X41.64 Y348.56;
G1 X41.9 Y349.08;
G1 X42.21 Y349.55;
G1 X42.38 Y349.76;
G1 X42.77 Y350.16;
G1 X43.21 Y350.5;
G1 X43.71 Y350.78;
G1 X43.97 Y350.91;
G1 X44.48 Y351.09;
G1 X45.04 Y351.22;
G1 X45.64 Y351.29;
G1 X46.18 Y351.31;
G1 X46.86 Y351.28;
G1 X47.48 Y351.19;
G1 X48.05 Y351.04;
G1 X48.31 Y350.95;
G1 X48.81 Y350.71;
G1 X49.26 Y350.42;
G1 X49.66 Y350.08;
G1 X49.83 Y349.89;
G1 X50.15 Y349.47;
G1 X50.43 Y349.0;
G1 X50.65 Y348.48;
G1 X50.74 Y348.2;
G1 X50.9 Y347.55;
G1 X51.0 Y346.85;
G1 X51.04 Y346.1;
G1 X51.04 Y345.97;
G1 X51.04 Y345.97;
S0;( end pass 1 of 1 )


( start pass 1 of 1 )
G0 X49.13 Y345.85;
S300;
G1 X49.09 Y346.57 F700;
G1 X49.0 Y347.26;
G1 X48.97 Y347.37;
G1 X48.83 Y347.89;
G1 X48.64 Y348.36;
G1 X48.49 Y348.62;
G1 X48.25 Y348.94;
G1 X47.96 Y349.21;
G1 X47.62 Y349.44;
G1 X47.56 Y349.47;
G1 X47.2 Y349.63;
G1 X46.8 Y349.73;
G1 X46.34 Y349.79;
G1 X46.11 Y349.79;
G1 X45.62 Y349.76;
G1 X45.18 Y349.68;
G1 X44.78 Y349.54;
G1 X44.72 Y349.51;
G1 X44.34 Y349.28;
G1 X44.02 Y348.99;
G1 X43.77 Y348.69;
G1 X43.51 Y348.27;
G1 X43.31 Y347.78;
G1 X43.21 Y347.45;
G1 X43.09 Y346.83;
G1 X43.03 Y346.16;
G1 X43.03 Y345.89;
G1 X43.06 Y345.16;
G1 X43.15 Y344.47;
G1 X43.17 Y344.36;
G1 X43.32 Y343.84;
G1 X43.52 Y343.37;
G1 X43.67 Y343.1;
G1 X43.94 Y342.76;
G1 X44.27 Y342.47;
G1 X44.61 Y342.25;
G1 X44.97 Y342.1;
G1 X45.37 Y342.0;
G1 X45.82 Y341.95;
G1 X46.06 Y341.94;
G1 X46.54 Y341.97;
G1 X46.98 Y342.06;
G1 X47.38 Y342.2;
G1 X47.44 Y342.23;
G1 X47.82 Y342.46;
G1 X48.15 Y342.74;
G1 X48.4 Y343.03;
G1 X48.64 Y343.42;
G1 X48.82 Y343.85;
G1 X48.95 Y344.27;
G1 X49.06 Y344.84;
G1 X49.12 Y345.45;
G1 X49.13 Y345.85;
G1 X49.13 Y345.85;
S0;( end pass 1 of 1 )


( start pass 1 of 1 )
G0 X59.16 Y354.9;
S300;
G1 X59.15 Y354.65 F700;
G1 X59.14 Y354.55;
G1 X59.09 Y354.37;
G1 X59.08 Y354.36;
G1 X59.02 Y354.25;
G1 X59.02 Y354.25;
G1 X58.91 Y354.22;
G1 X58.77 Y354.25;
G1 X58.71 Y354.27;
G1 X58.49 Y354.36;
G1 X58.43 Y354.38;
G1 X58.15 Y354.46;
G1 X58.03 Y354.49;
G1 X57.73 Y354.54;
G1 X57.52 Y354.54;
G1 X57.17 Y354.52;
G1 X56.87 Y354.43;
G1 X56.82 Y354.41;
G1 X56.6 Y354.27;
G1 X56.42 Y354.08;
G1 X56.36 Y353.99;
G1 X56.23 Y353.73;
G1 X56.13 Y353.41;
G1 X56.11 Y353.26;
G1 X56.05 Y352.86;
G1 X56.03 Y352.39;
G1 X56.03 Y352.18;
G1 X56.03 Y351.1;
G1 X58.24 Y351.1;
G1 X58.37 Y351.07;
G1 X58.39 Y351.06;
G1 X58.47 Y350.97;
G1 X58.5 Y350.93;
G1 X58.56 Y350.77;
G1 X58.57 Y350.7;
G1 X58.6 Y350.47;
G1 X58.61 Y350.34;
G1 X58.59 Y350.07;
G1 X58.55 Y349.87;
G1 X58.51 Y349.77;
G1 X58.41 Y349.65;
G1 X58.3 Y349.6;
G1 X58.24 Y349.59;
G1 X56.03 Y349.59;
G1 X56.03 Y340.9;
G1 X55.99 Y340.75;
G1 X55.98 Y340.74;
G1 X55.88 Y340.67;
G1 X55.83 Y340.64;
G1 X55.66 Y340.59;
G1 X55.55 Y340.58;
G1 X55.3 Y340.56;
G1 X55.11 Y340.55;
G1 X54.82 Y340.56;
G1 X54.67 Y340.58;
G1 X54.45 Y340.62;
G1 X54.39 Y340.64;
G1 X54.26 Y340.72;
G1 X54.24 Y340.74;
G1 X54.2 Y340.88;
G1 X54.2 Y340.9;
G1 X54.2 Y349.59;
G1 X52.8 Y349.59;
G1 X52.67 Y349.62;
G1 X52.56 Y349.72;
G1 X52.53 Y349.77;
G1 X52.48 Y349.94;
G1 X52.45 Y350.17;
G1 X52.45 Y350.34;
G1 X52.46 Y350.62;
G1 X52.47 Y350.7;
G1 X52.52 Y350.89;
G1 X52.53 Y350.93;
G1 X52.61 Y351.04;
G1 X52.64 Y351.06;
G1 X52.77 Y351.1;
G1 X52.8 Y351.1;
G1 X54.2 Y351.1;
G1 X54.2 Y352.13;
G1 X54.22 Y352.75;
G1 X54.27 Y353.32;
G1 X54.37 Y353.82;
G1 X54.39 Y353.9;
G1 X54.53 Y354.35;
G1 X54.71 Y354.74;
G1 X54.94 Y355.08;
G1 X54.98 Y355.13;
G1 X55.28 Y355.43;
G1 X55.63 Y355.66;
G1 X55.97 Y355.82;
G1 X56.42 Y355.96;
G1 X56.91 Y356.03;
G1 X57.4 Y356.05;
G1 X57.91 Y356.02;
G1 X58.15 Y355.98;
G1 X58.45 Y355.91;
G1 X58.68 Y355.84;
G1 X58.71 Y355.82;
G1 X58.87 Y355.75;
G1 X58.97 Y355.68;
G1 X59.07 Y355.52;
G1 X59.08 Y355.5;
G1 X59.13 Y355.32;
G1 X59.14 Y355.25;
G1 X59.16 Y355.0;
G1 X59.16 Y354.9;
G1 X59.16 Y354.9;
S0;( end pass 1 of 1 )


( start pass 1 of 1 )
G0 X69.37 Y345.97;
S300;
G1 X69.34 Y345.22 F700;
G1 X69.23 Y344.51;
G1 X69.08 Y343.84;
G1 X69.05 Y343.73;
G1 X68.84 Y343.17;
G1 X68.58 Y342.66;
G1 X68.26 Y342.19;
G1 X68.09 Y341.98;
G1 X67.7 Y341.58;
G1 X67.26 Y341.23;
G1 X66.76 Y340.94;
G1 X66.5 Y340.82;
G1 X65.98 Y340.63;
G1 X65.43 Y340.5;
G1 X64.83 Y340.43;
G1 X64.3 Y340.41;
G1 X63.62 Y340.44;
G1 X62.99 Y340.53;
G1 X62.42 Y340.68;
G1 X62.16 Y340.77;
G1 X61.66 Y341.01;
G1 X61.22 Y341.3;
G1 X60.82 Y341.64;
G1 X60.65 Y341.83;
G1 X60.32 Y342.25;
G1 X60.05 Y342.73;
G1 X59.83 Y343.25;
G1 X59.74 Y343.52;
G1 X59.58 Y344.17;
G1 X59.49 Y344.88;
G1 X59.45 Y345.63;
G1 X59.45 Y345.77;
G1 X59.48 Y346.51;
G1 X59.57 Y347.22;
G1 X59.72 Y347.88;
G1 X59.75 Y348.0;
G1 X59.96 Y348.56;
G1 X60.22 Y349.08;
G1 X60.53 Y349.55;
G1 X60.7 Y349.76;
G1 X61.09 Y350.16;
G1 X61.54 Y350.5;
G1 X62.03 Y350.78;
G1 X62.29 Y350.91;
G1 X62.81 Y351.09;
G1 X63.36 Y351.22;
G1 X63.97 Y351.29;
G1 X64.51 Y351.31;
G1 X65.18 Y351.28;
G1 X65.8 Y351.19;
G1 X66.37 Y351.04;
G1 X66.63 Y350.95;
G1 X67.13 Y350.71;
G1 X67.58 Y350.42;
G1 X67.98 Y350.08;
G1 X68.15 Y349.89;
G1 X68.48 Y349.47;
G1 X68.75 Y349.0;
G1 X68.97 Y348.48;
G1 X69.06 Y348.2;
G1 X69.22 Y347.55;
G1 X69.33 Y346.85;
G1 X69.37 Y346.1;
G1 X69.37 Y345.97;
G1 X69.37 Y345.97;
S0;( end pass 1 of 1 )


( start pass 1 of 1 )
G0 X67.45 Y345.85;
S300;
G1 X67.42 Y346.57 F700;
G1 X67.31 Y347.26;
G1 X67.29 Y347.37;
G1 X67.16 Y347.89;
G1 X66.95 Y348.36;
G1 X66.81 Y348.62;
G1 X66.56 Y348.94;
G1 X66.28 Y349.21;
G1 X65.95 Y349.44;
G1 X65.88 Y349.47;
G1 X65.53 Y349.63;
G1 X65.12 Y349.73;
G1 X64.67 Y349.79;
G1 X64.43 Y349.79;
G1 X63.94 Y349.76;
G1 X63.5 Y349.68;
G1 X63.1 Y349.54;
G1 X63.04 Y349.51;
G1 X62.67 Y349.28;
G1 X62.34 Y348.99;
G1 X62.09 Y348.69;
G1 X61.83 Y348.27;
G1 X61.63 Y347.78;
G1 X61.53 Y347.45;
G1 X61.41 Y346.83;
G1 X61.36 Y346.16;
G1 X61.35 Y345.89;
G1 X61.38 Y345.16;
G1 X61.47 Y344.47;
G1 X61.5 Y344.36;
G1 X61.64 Y343.84;
G1 X61.84 Y343.37;
G1 X61.99 Y343.1;
G1 X62.26 Y342.76;
G1 X62.59 Y342.47;
G1 X62.93 Y342.25;
G1 X63.29 Y342.1;
G1 X63.69 Y342.0;
G1 X64.15 Y341.95;
G1 X64.38 Y341.94;
G1 X64.86 Y341.97;
G1 X65.3 Y342.06;
G1 X65.7 Y342.2;
G1 X65.76 Y342.23;
G1 X66.14 Y342.46;
G1 X66.47 Y342.74;
G1 X66.72 Y343.03;
G1 X66.95 Y343.42;
G1 X67.15 Y343.85;
G1 X67.27 Y344.27;
G1 X67.38 Y344.84;
G1 X67.44 Y345.45;
G1 X67.45 Y345.85;
G1 X67.45 Y345.85;
S0;( end pass 1 of 1 )


( start pass 1 of 1 )
G0 X79.52 Y340.88;
S300;
G1 X79.48 Y340.76 F700;
G1 X79.43 Y340.69;
G1 X79.28 Y340.61;
G1 X79.19 Y340.59;
G1 X79.0 Y340.56;
G1 X78.73 Y340.55;
G1 X78.45 Y340.56;
G1 X78.28 Y340.59;
G1 X78.11 Y340.64;
G1 X78.03 Y340.69;
G1 X77.97 Y340.79;
G1 X77.95 Y340.88;
G1 X77.95 Y341.88;
G1 X77.53 Y341.47;
G1 X77.06 Y341.12;
G1 X76.59 Y340.84;
G1 X76.5 Y340.8;
G1 X75.98 Y340.59;
G1 X75.45 Y340.46;
G1 X74.91 Y340.41;
G1 X74.81 Y340.41;
G1 X74.23 Y340.44;
G1 X73.7 Y340.53;
G1 X73.39 Y340.62;
G1 X72.94 Y340.8;
G1 X72.54 Y341.03;
G1 X72.31 Y341.2;
G1 X72.0 Y341.52;
G1 X71.75 Y341.9;
G1 X71.62 Y342.15;
G1 X71.48 Y342.56;
G1 X71.4 Y343.01;
G1 X71.37 Y343.43;
G1 X71.4 Y343.89;
G1 X71.48 Y344.32;
G1 X71.63 Y344.71;
G1 X71.72 Y344.89;
G1 X71.95 Y345.25;
G1 X72.26 Y345.58;
G1 X72.63 Y345.87;
G1 X72.7 Y345.91;
G1 X73.13 Y346.15;
G1 X73.62 Y346.34;
G1 X74.16 Y346.5;
G1 X74.26 Y346.52;
G1 X74.93 Y346.64;
G1 X75.66 Y346.71;
G1 X76.34 Y346.73;
G1 X77.7 Y346.73;
G1 X77.7 Y347.5;
G1 X77.69 Y348.0;
G1 X77.61 Y348.44;
G1 X77.59 Y348.51;
G1 X77.45 Y348.86;
G1 X77.28 Y349.14;
G1 X77.19 Y349.24;
G1 X76.94 Y349.46;
G1 X76.63 Y349.63;
G1 X76.5 Y349.68;
G1 X76.14 Y349.78;
G1 X75.73 Y349.83;
G1 X75.44 Y349.84;
G1 X74.9 Y349.81;
G1 X74.41 Y349.72;
G1 X74.23 Y349.67;
G1 X73.72 Y349.5;
G1 X73.29 Y349.32;
G1 X72.89 Y349.12;
G1 X72.62 Y348.97;
G1 X72.42 Y348.86;
G1 X72.27 Y348.81;
G1 X72.22 Y348.81;
G1 X72.08 Y348.85;
G1 X72.06 Y348.86;
G1 X71.95 Y348.97;
G1 X71.95 Y348.99;
G1 X71.89 Y349.18;
G1 X71.88 Y349.21;
G1 X71.86 Y349.52;
G1 X71.87 Y349.79;
G1 X71.89 Y349.95;
G1 X71.98 Y350.14;
G1 X72.08 Y350.26;
G1 X72.25 Y350.38;
G1 X72.48 Y350.53;
G1 X72.59 Y350.59;
G1 X73.04 Y350.79;
G1 X73.44 Y350.94;
G1 X73.98 Y351.1;
G1 X74.47 Y351.2;
G1 X75.09 Y351.29;
G1 X75.61 Y351.31;
G1 X76.25 Y351.29;
G1 X76.83 Y351.22;
G1 X77.34 Y351.1;
G1 X77.43 Y351.07;
G1 X77.87 Y350.9;
G1 X78.26 Y350.67;
G1 X78.59 Y350.41;
G1 X78.64 Y350.35;
G1 X78.91 Y350.04;
G1 X79.12 Y349.68;
G1 X79.29 Y349.27;
G1 X79.31 Y349.2;
G1 X79.43 Y348.69;
G1 X79.5 Y348.12;
G1 X79.52 Y347.58;
G1 X79.52 Y340.88;
S0;( end pass 1 of 1 )


( start pass 1 of 1 )
G0 X77.7 Y345.42;
S300;
G1 X76.16 Y345.42 F700;
G1 X75.62 Y345.4;
G1 X75.13 Y345.34;
G1 X74.86 Y345.28;
G1 X74.45 Y345.17;
G1 X74.13 Y345.02;
G1 X73.94 Y344.91;
G1 X73.67 Y344.69;
G1 X73.45 Y344.42;
G1 X73.4 Y344.31;
G1 X73.29 Y344.01;
G1 X73.23 Y343.66;
G1 X73.23 Y343.52;
G1 X73.27 Y343.14;
G1 X73.37 Y342.8;
G1 X73.53 Y342.5;
G1 X73.72 Y342.28;
G1 X73.98 Y342.1;
G1 X74.28 Y341.96;
G1 X74.62 Y341.87;
G1 X75.01 Y341.83;
G1 X75.09 Y341.83;
G1 X75.54 Y341.87;
G1 X75.95 Y341.98;
G1 X76.36 Y342.16;
G1 X76.42 Y342.2;
G1 X76.81 Y342.46;
G1 X77.22 Y342.81;
G1 X77.64 Y343.23;
G1 X77.7 Y343.31;
G1 X77.7 Y345.42;
S0;( end pass 1 of 1 )


( start pass 1 of 1 )
G0 X97.58 Y340.9;
S300;
G1 X97.54 Y340.75 F700;
G1 X97.53 Y340.74;
G1 X97.43 Y340.66;
G1 X97.39 Y340.64;
G1 X97.22 Y340.59;
G1 X97.12 Y340.58;
G1 X96.87 Y340.56;
G1 X96.67 Y340.55;
G1 X96.37 Y340.56;
G1 X96.22 Y340.58;
G1 X96.0 Y340.62;
G1 X95.94 Y340.64;
G1 X95.81 Y340.72;
G1 X95.79 Y340.74;
G1 X95.75 Y340.88;
G1 X95.75 Y340.9;
G1 X95.75 Y346.93;
G1 X95.73 Y347.48;
G1 X95.65 Y347.99;
G1 X95.64 Y348.07;
G1 X95.52 Y348.48;
G1 X95.36 Y348.84;
G1 X95.29 Y348.97;
G1 X95.06 Y349.25;
G1 X94.79 Y349.47;
G1 X94.67 Y349.54;
G1 X94.36 Y349.66;
G1 X94.02 Y349.73;
G1 X93.79 Y349.74;
G1 X93.43 Y349.7;
G1 X93.06 Y349.58;
G1 X92.7 Y349.38;
G1 X92.52 Y349.25;
G1 X92.15 Y348.94;
G1 X91.75 Y348.55;
G1 X91.34 Y348.08;
G1 X91.13 Y347.83;
G1 X91.13 Y340.9;
G1 X91.09 Y340.75;
G1 X91.09 Y340.74;
G1 X90.98 Y340.67;
G1 X90.93 Y340.64;
G1 X90.76 Y340.59;
G1 X90.66 Y340.58;
G1 X90.41 Y340.56;
G1 X90.21 Y340.55;
G1 X89.87 Y340.57;
G1 X89.77 Y340.58;
G1 X89.55 Y340.62;
G1 X89.49 Y340.64;
G1 X89.36 Y340.72;
G1 X89.34 Y340.74;
G1 X89.31 Y340.9;
G1 X89.31 Y346.93;
G1 X89.28 Y347.48;
G1 X89.21 Y347.99;
G1 X89.19 Y348.07;
G1 X89.05 Y348.52;
G1 X88.86 Y348.91;
G1 X88.83 Y348.97;
G1 X88.6 Y349.25;
G1 X88.33 Y349.47;
G1 X88.21 Y349.54;
G1 X87.91 Y349.66;
G1 X87.57 Y349.73;
G1 X87.34 Y349.74;
G1 X86.98 Y349.7;
G1 X86.61 Y349.58;
G1 X86.25 Y349.38;
G1 X86.07 Y349.25;
G1 X85.69 Y348.94;
G1 X85.3 Y348.55;
G1 X84.89 Y348.08;
G1 X84.68 Y347.83;
G1 X84.68 Y340.9;
G1 X84.64 Y340.75;
G1 X84.64 Y340.74;
G1 X84.53 Y340.66;
G1 X84.49 Y340.64;
G1 X84.32 Y340.59;
G1 X84.22 Y340.58;
G1 X83.96 Y340.56;
G1 X83.77 Y340.55;
G1 X83.47 Y340.56;
G1 X83.32 Y340.58;
G1 X83.1 Y340.62;
G1 X83.04 Y340.64;
G1 X82.91 Y340.72;
G1 X82.89 Y340.74;
G1 X82.86 Y340.9;
G1 X82.86 Y350.82;
G1 X82.89 Y350.95;
G1 X82.89 Y350.96;
G1 X82.98 Y351.05;
G1 X83.03 Y351.07;
G1 X83.2 Y351.13;
G1 X83.28 Y351.14;
G1 X83.51 Y351.16;
G1 X83.69 Y351.16;
G1 X83.95 Y351.15;
G1 X84.09 Y351.14;
G1 X84.26 Y351.11;
G1 X84.34 Y351.07;
G1 X84.45 Y350.98;
G1 X84.46 Y350.96;
G1 X84.5 Y350.85;
G1 X84.5 Y350.82;
G1 X84.5 Y349.51;
G1 X84.94 Y349.96;
G1 X85.36 Y350.34;
G1 X85.78 Y350.66;
G1 X86.12 Y350.87;
G1 X86.58 Y351.09;
G1 X87.04 Y351.23;
G1 X87.5 Y351.3;
G1 X87.72 Y351.31;
G1 X88.22 Y351.29;
G1 X88.67 Y351.21;
G1 X88.83 Y351.17;
G1 X89.26 Y351.01;
G1 X89.64 Y350.8;
G1 X89.7 Y350.76;
G1 X90.02 Y350.5;
G1 X90.29 Y350.2;
G1 X90.34 Y350.14;
G1 X90.6 Y349.72;
G1 X90.78 Y349.35;
G1 X91.22 Y349.81;
G1 X91.65 Y350.21;
G1 X91.71 Y350.27;
G1 X92.16 Y350.61;
G1 X92.57 Y350.87;
G1 X92.99 Y351.07;
G1 X93.38 Y351.2;
G1 X93.82 Y351.29;
G1 X94.17 Y351.31;
G1 X94.7 Y351.29;
G1 X95.17 Y351.2;
G1 X95.59 Y351.06;
G1 X95.78 Y350.97;
G1 X96.17 Y350.74;
G1 X96.5 Y350.46;
G1 X96.79 Y350.14;
G1 X96.83 Y350.08;
G1 X97.08 Y349.66;
G1 X97.28 Y349.2;
G1 X97.4 Y348.76;
G1 X97.52 Y348.11;
G1 X97.57 Y347.44;
G1 X97.58 Y347.17;
G1 X97.58 Y340.9;
S0;( end pass 1 of 1 )


( start pass 1 of 1 )
G0 X103.25 Y341.82;
S300;
G1 X103.23 Y341.45 F700;
G1 X103.17 Y341.15;
G1 X103.08 Y340.91;
G1 X102.98 Y340.77;
G1 X102.82 Y340.66;
G1 X102.6 Y340.58;
G1 X102.32 Y340.53;
G1 X102.04 Y340.52;
G1 X101.7 Y340.54;
G1 X101.42 Y340.6;
G1 X101.21 Y340.71;
G1 X101.13 Y340.77;
G1 X101.01 Y340.94;
G1 X100.93 Y341.18;
G1 X100.89 Y341.48;
G1 X100.87 Y341.79;
G1 X100.89 Y342.16;
G1 X100.94 Y342.46;
G1 X101.03 Y342.69;
G1 X101.13 Y342.82;
G1 X101.29 Y342.94;
G1 X101.52 Y343.03;
G1 X101.8 Y343.08;
G1 X102.08 Y343.09;
G1 X102.42 Y343.07;
G1 X102.7 Y343.01;
G1 X102.91 Y342.9;
G1 X102.99 Y342.84;
G1 X103.11 Y342.67;
G1 X103.19 Y342.43;
G1 X103.23 Y342.13;
G1 X103.25 Y341.82;
G1 X103.25 Y341.82;
S0;( end pass 1 of 1 )


( start pass 1 of 1 )
G0 X120.67 Y350.71;
S300;
G1 X120.65 Y350.11 F700;
G1 X120.56 Y349.55;
G1 X120.41 Y349.02;
G1 X120.32 Y348.78;
G1 X120.07 Y348.26;
G1 X119.75 Y347.79;
G1 X119.38 Y347.38;
G1 X119.31 Y347.31;
G1 X118.91 Y346.99;
G1 X118.46 Y346.71;
G1 X117.96 Y346.47;
G1 X117.7 Y346.37;
G1 X117.18 Y346.22;
G1 X116.61 Y346.12;
G1 X115.99 Y346.06;
G1 X115.43 Y346.04;
G1 X113.81 Y346.04;
G1 X113.81 Y340.91;
G1 X113.77 Y340.78;
G1 X113.75 Y340.75;
G1 X113.65 Y340.67;
G1 X113.6 Y340.64;
G1 X113.44 Y340.61;
G1 X113.31 Y340.59;
G1 X113.06 Y340.56;
G1 X112.86 Y340.55;
G1 X112.55 Y340.57;
G1 X112.4 Y340.59;
G1 X112.17 Y340.63;
G1 X112.11 Y340.64;
G1 X111.98 Y340.72;
G1 X111.95 Y340.75;
G1 X111.91 Y340.89;
G1 X111.91 Y340.91;
G1 X111.91 Y354.07;
G1 X111.93 Y354.32;
G1 X112.0 Y354.52;
G1 X112.12 Y354.68;
G1 X112.14 Y354.7;
G1 X112.35 Y354.82;
G1 X112.57 Y354.88;
G1 X112.66 Y354.89;
G1 X115.71 Y354.89;
G1 X116.38 Y354.86;
G1 X116.6 Y354.84;
G1 X117.02 Y354.79;
G1 X117.51 Y354.7;
G1 X117.6 Y354.68;
G1 X118.05 Y354.55;
G1 X118.5 Y354.36;
G1 X118.78 Y354.2;
G1 X119.21 Y353.92;
G1 X119.59 Y353.58;
G1 X119.8 Y353.35;
G1 X120.09 Y352.94;
G1 X120.33 Y352.48;
G1 X120.44 Y352.17;
G1 X120.59 Y351.65;
G1 X120.66 Y351.08;
G1 X120.67 Y350.71;
G1 X120.67 Y350.71;
S0;( end pass 1 of 1 )


( start pass 1 of 1 )
G0 X118.68 Y350.55;
S300;
G1 X118.65 Y351.03 F700;
G1 X118.57 Y351.46;
G1 X118.43 Y351.84;
G1 X118.35 Y352.01;
G1 X118.13 Y352.35;
G1 X117.88 Y352.63;
G1 X117.6 Y352.85;
G1 X117.54 Y352.88;
G1 X117.14 Y353.08;
G1 X116.72 Y353.21;
G1 X116.55 Y353.24;
G1 X115.88 Y353.31;
G1 X115.56 Y353.32;
G1 X113.81 Y353.32;
G1 X113.81 Y347.6;
G1 X115.52 Y347.6;
G1 X116.03 Y347.62;
G1 X116.48 Y347.69;
G1 X116.88 Y347.8;
G1 X116.94 Y347.82;
G1 X117.35 Y348.01;
G1 X117.7 Y348.25;
G1 X117.9 Y348.43;
G1 X118.16 Y348.75;
G1 X118.38 Y349.11;
G1 X118.48 Y349.36;
G1 X118.61 Y349.84;
G1 X118.67 Y350.35;
G1 X118.68 Y350.55;
G1 X118.68 Y350.55;
S0;( end pass 1 of 1 )


( start pass 1 of 1 )
G0 X130.35 Y340.88;
S300;
G1 X130.33 Y340.76 F700;
G1 X130.27 Y340.69;
G1 X130.12 Y340.61;
G1 X130.02 Y340.59;
G1 X129.83 Y340.56;
G1 X129.57 Y340.55;
G1 X129.29 Y340.56;
G1 X129.11 Y340.59;
G1 X128.94 Y340.64;
G1 X128.87 Y340.69;
G1 X128.8 Y340.79;
G1 X128.79 Y340.88;
G1 X128.79 Y341.88;
G1 X128.36 Y341.47;
G1 X127.91 Y341.12;
G1 X127.42 Y340.84;
G1 X127.33 Y340.8;
G1 X126.82 Y340.59;
G1 X126.29 Y340.46;
G1 X125.74 Y340.41;
G1 X125.65 Y340.41;
G1 X125.07 Y340.44;
G1 X124.54 Y340.53;
G1 X124.22 Y340.62;
G1 X123.77 Y340.8;
G1 X123.37 Y341.03;
G1 X123.14 Y341.2;
G1 X122.84 Y341.52;
G1 X122.58 Y341.9;
G1 X122.45 Y342.15;
G1 X122.31 Y342.56;
G1 X122.23 Y343.01;
G1 X122.21 Y343.43;
G1 X122.24 Y343.89;
G1 X122.32 Y344.32;
G1 X122.46 Y344.71;
G1 X122.55 Y344.89;
G1 X122.79 Y345.25;
G1 X123.1 Y345.58;
G1 X123.46 Y345.87;
G1 X123.53 Y345.91;
G1 X123.96 Y346.15;
G1 X124.45 Y346.34;
G1 X125.0 Y346.5;
G1 X125.1 Y346.52;
G1 X125.77 Y346.64;
G1 X126.49 Y346.71;
G1 X127.18 Y346.73;
G1 X128.55 Y346.73;
G1 X128.55 Y347.5;
G1 X128.52 Y348.0;
G1 X128.44 Y348.44;
G1 X128.41 Y348.51;
G1 X128.3 Y348.86;
G1 X128.11 Y349.14;
G1 X128.03 Y349.24;
G1 X127.78 Y349.46;
G1 X127.47 Y349.63;
G1 X127.33 Y349.68;
G1 X126.98 Y349.78;
G1 X126.56 Y349.83;
G1 X126.28 Y349.84;
G1 X125.73 Y349.81;
G1 X125.24 Y349.72;
G1 X125.06 Y349.67;
G1 X124.56 Y349.5;
G1 X124.13 Y349.32;
G1 X123.72 Y349.12;
G1 X123.45 Y348.97;
G1 X123.25 Y348.86;
G1 X123.1 Y348.81;
G1 X123.06 Y348.81;
G1 X122.92 Y348.85;
G1 X122.9 Y348.86;
G1 X122.79 Y348.97;
G1 X122.78 Y348.99;
G1 X122.72 Y349.18;
G1 X122.71 Y349.21;
G1 X122.69 Y349.52;
G1 X122.7 Y349.79;
G1 X122.73 Y349.95;
G1 X122.82 Y350.14;
G1 X122.91 Y350.26;
G1 X123.08 Y350.38;
G1 X123.32 Y350.53;
G1 X123.43 Y350.59;
G1 X123.87 Y350.79;
G1 X124.27 Y350.94;
G1 X124.83 Y351.1;
G1 X125.31 Y351.2;
G1 X125.94 Y351.29;
G1 X126.44 Y351.31;
G1 X127.08 Y351.29;
G1 X127.66 Y351.22;
G1 X128.18 Y351.1;
G1 X128.26 Y351.07;
G1 X128.69 Y350.9;
G1 X129.09 Y350.67;
G1 X129.41 Y350.41;
G1 X129.47 Y350.35;
G1 X129.74 Y350.04;
G1 X129.96 Y349.68;
G1 X130.12 Y349.27;
G1 X130.13 Y349.2;
G1 X130.26 Y348.69;
G1 X130.33 Y348.12;
G1 X130.35 Y347.58;
G1 X130.35 Y340.88;
S0;( end pass 1 of 1 )


( start pass 1 of 1 )
G0 X128.55 Y345.42;
S300;
G1 X126.99 Y345.42 F700;
G1 X126.45 Y345.4;
G1 X125.96 Y345.34;
G1 X125.69 Y345.28;
G1 X125.3 Y345.17;
G1 X124.96 Y345.02;
G1 X124.78 Y344.91;
G1 X124.5 Y344.69;
G1 X124.3 Y344.42;
G1 X124.24 Y344.31;
G1 X124.13 Y344.01;
G1 X124.07 Y343.66;
G1 X124.07 Y343.52;
G1 X124.1 Y343.14;
G1 X124.2 Y342.8;
G1 X124.37 Y342.5;
G1 X124.56 Y342.28;
G1 X124.81 Y342.1;
G1 X125.11 Y341.96;
G1 X125.45 Y341.87;
G1 X125.84 Y341.83;
G1 X125.93 Y341.83;
G1 X126.37 Y341.87;
G1 X126.79 Y341.98;
G1 X127.19 Y342.16;
G1 X127.26 Y342.2;
G1 X127.65 Y342.46;
G1 X128.06 Y342.81;
G1 X128.47 Y343.23;
G1 X128.55 Y343.31;
G1 X128.55 Y345.42;
S0;( end pass 1 of 1 )


( start pass 1 of 1 )
G0 X141.97 Y350.37;
S300;
G1 X141.97 Y350.1 F700;
G1 X141.91 Y349.9;
G1 X141.87 Y349.8;
G1 X141.77 Y349.69;
G1 X141.63 Y349.64;
G1 X141.61 Y349.64;
G1 X140.19 Y349.64;
G1 X140.44 Y349.32;
G1 X140.63 Y348.98;
G1 X140.72 Y348.76;
G1 X140.84 Y348.31;
G1 X140.88 Y347.84;
G1 X140.88 Y347.76;
G1 X140.85 Y347.24;
G1 X140.77 Y346.76;
G1 X140.63 Y346.31;
G1 X140.61 Y346.24;
G1 X140.38 Y345.81;
G1 X140.11 Y345.42;
G1 X139.81 Y345.12;
G1 X139.44 Y344.83;
G1 X139.01 Y344.59;
G1 X138.6 Y344.42;
G1 X138.09 Y344.28;
G1 X137.55 Y344.2;
G1 X137.03 Y344.18;
G1 X136.49 Y344.21;
G1 X135.96 Y344.31;
G1 X135.88 Y344.34;
G1 X135.5 Y344.47;
G1 X135.19 Y344.63;
G1 X135.04 Y344.74;
G1 X134.8 Y344.45;
G1 X134.71 Y344.29;
G1 X134.62 Y344.01;
G1 X134.59 Y343.71;
G1 X134.62 Y343.48;
G1 X134.72 Y343.27;
G1 X134.9 Y343.1;
G1 X134.94 Y343.07;
G1 X135.22 Y342.92;
G1 X135.56 Y342.83;
G1 X135.9 Y342.79;
G1 X138.49 Y342.68;
G1 X139.09 Y342.63;
G1 X139.63 Y342.53;
G1 X139.85 Y342.47;
G1 X140.29 Y342.31;
G1 X140.69 Y342.11;
G1 X140.91 Y341.95;
G1 X141.22 Y341.68;
G1 X141.49 Y341.35;
G1 X141.62 Y341.13;
G1 X141.77 Y340.77;
G1 X141.85 Y340.37;
G1 X141.87 Y339.99;
G1 X141.84 Y339.53;
G1 X141.74 Y339.08;
G1 X141.59 Y338.69;
G1 X141.38 Y338.32;
G1 X141.1 Y337.97;
G1 X140.77 Y337.66;
G1 X140.71 Y337.61;
G1 X140.3 Y337.33;
G1 X139.84 Y337.1;
G1 X139.3 Y336.9;
G1 X139.21 Y336.87;
G1 X138.65 Y336.74;
G1 X138.05 Y336.65;
G1 X137.38 Y336.6;
G1 X137.05 Y336.6;
G1 X136.38 Y336.61;
G1 X135.78 Y336.66;
G1 X135.24 Y336.75;
G1 X135.0 Y336.81;
G1 X134.5 Y336.95;
G1 X134.06 Y337.12;
G1 X133.68 Y337.32;
G1 X133.62 Y337.36;
G1 X133.28 Y337.62;
G1 X133.01 Y337.91;
G1 X132.83 Y338.21;
G1 X132.68 Y338.59;
G1 X132.61 Y339.0;
G1 X132.59 Y339.26;
G1 X132.62 Y339.7;
G1 X132.68 Y339.97;
G1 X132.82 Y340.38;
G1 X132.94 Y340.62;
G1 X133.22 Y341.02;
G1 X133.4 Y341.2;
G1 X133.8 Y341.59;
G1 X134.02 Y341.77;
G1 X133.68 Y341.97;
G1 X133.41 Y342.22;
G1 X133.22 Y342.46;
G1 X133.06 Y342.79;
G1 X132.97 Y343.14;
G1 X132.97 Y343.36;
G1 X133.0 Y343.81;
G1 X133.1 Y344.23;
G1 X133.24 Y344.57;
G1 X133.52 Y345.03;
G1 X133.86 Y345.45;
G1 X133.93 Y345.51;
G1 X133.63 Y345.91;
G1 X133.41 Y346.35;
G1 X133.38 Y346.43;
G1 X133.27 Y346.81;
G1 X133.21 Y347.25;
G1 X133.19 Y347.68;
G1 X133.22 Y348.19;
G1 X133.3 Y348.68;
G1 X133.44 Y349.12;
G1 X133.47 Y349.2;
G1 X133.69 Y349.64;
G1 X133.97 Y350.03;
G1 X134.27 Y350.33;
G1 X134.63 Y350.63;
G1 X135.07 Y350.87;
G1 X135.47 Y351.04;
G1 X135.99 Y351.18;
G1 X136.53 Y351.27;
G1 X137.03 Y351.29;
G1 X137.61 Y351.27;
G1 X137.87 Y351.24;
G1 X138.43 Y351.15;
G1 X138.61 Y351.1;
G1 X141.61 Y351.1;
G1 X141.75 Y351.07;
G1 X141.85 Y350.97;
G1 X141.88 Y350.92;
G1 X141.94 Y350.73;
G1 X141.97 Y350.48;
G1 X141.97 Y350.37;
G1 X141.97 Y350.37;
S0;( end pass 1 of 1 )


( start pass 1 of 1 )
G0 X139.13 Y347.75;
S300;
G1 X139.11 Y348.17 F700;
G1 X139.04 Y348.54;
G1 X138.91 Y348.87;
G1 X138.72 Y349.16;
G1 X138.58 Y349.33;
G1 X138.32 Y349.55;
G1 X138.02 Y349.72;
G1 X137.66 Y349.83;
G1 X137.28 Y349.89;
G1 X137.0 Y349.9;
G1 X136.58 Y349.87;
G1 X136.21 Y349.78;
G1 X136.08 Y349.73;
G1 X135.75 Y349.53;
G1 X135.47 Y349.29;
G1 X135.41 Y349.24;
G1 X135.22 Y348.93;
G1 X135.06 Y348.59;
G1 X135.04 Y348.52;
G1 X134.94 Y348.11;
G1 X134.91 Y347.69;
G1 X134.94 Y347.25;
G1 X135.04 Y346.85;
G1 X135.19 Y346.5;
G1 X135.41 Y346.2;
G1 X135.47 Y346.14;
G1 X135.72 Y345.93;
G1 X136.04 Y345.76;
G1 X136.38 Y345.65;
G1 X136.76 Y345.59;
G1 X137.03 Y345.58;
G1 X137.46 Y345.61;
G1 X137.84 Y345.7;
G1 X137.97 Y345.75;
G1 X138.31 Y345.93;
G1 X138.58 Y346.18;
G1 X138.62 Y346.22;
G1 X138.84 Y346.52;
G1 X138.99 Y346.87;
G1 X139.01 Y346.93;
G1 X139.11 Y347.34;
G1 X139.13 Y347.75;
G1 X139.13 Y347.75;
S0;( end pass 1 of 1 )


( start pass 1 of 1 )
G0 X140.06 Y339.89;
S300;
G1 X140.03 Y340.18 F700;
G1 X139.94 Y340.43;
G1 X139.79 Y340.65;
G1 X139.58 Y340.84;
G1 X139.53 Y340.87;
G1 X139.22 Y341.03;
G1 X138.88 Y341.15;
G1 X138.49 Y341.22;
G1 X138.11 Y341.25;
G1 X135.55 Y341.34;
G1 X135.19 Y341.04;
G1 X134.96 Y340.81;
G1 X134.72 Y340.52;
G1 X134.61 Y340.34;
G1 X134.47 Y340.04;
G1 X134.41 Y339.89;
G1 X134.38 Y339.49;
G1 X134.38 Y339.44;
G1 X134.41 Y339.15;
G1 X134.51 Y338.89;
G1 X134.68 Y338.66;
G1 X134.91 Y338.47;
G1 X135.11 Y338.36;
G1 X135.47 Y338.2;
G1 X135.91 Y338.09;
G1 X136.43 Y338.02;
G1 X137.0 Y337.99;
G1 X137.13 Y337.99;
G1 X137.66 Y338.0;
G1 X138.15 Y338.06;
G1 X138.51 Y338.15;
G1 X138.91 Y338.28;
G1 X139.24 Y338.45;
G1 X139.41 Y338.57;
G1 X139.66 Y338.8;
G1 X139.85 Y339.07;
G1 X139.9 Y339.18;
G1 X140.01 Y339.5;
G1 X140.05 Y339.83;
G1 X140.06 Y339.89;
G1 X140.06 Y339.89;
S0;( end pass 1 of 1 )


( start pass 1 of 1 )
G0 X152.6 Y346.29;
S300;
G1 X152.57 Y346.02 F700;
G1 X152.49 Y345.81;
G1 X152.38 Y345.67;
G1 X152.19 Y345.55;
G1 X151.97 Y345.5;
G1 X151.9 Y345.49;
G1 X145.38 Y345.49;
G1 X145.41 Y344.89;
G1 X145.49 Y344.33;
G1 X145.56 Y344.0;
G1 X145.69 Y343.57;
G1 X145.88 Y343.18;
G1 X146.11 Y342.87;
G1 X146.4 Y342.57;
G1 X146.75 Y342.32;
G1 X147.11 Y342.14;
G1 X147.53 Y342.01;
G1 X148.0 Y341.92;
G1 X148.52 Y341.89;
G1 X148.62 Y341.89;
G1 X149.19 Y341.91;
G1 X149.69 Y341.97;
G1 X149.88 Y342.0;
G1 X150.35 Y342.11;
G1 X150.76 Y342.24;
G1 X150.83 Y342.26;
G1 X151.16 Y342.39;
G1 X151.44 Y342.5;
G1 X151.49 Y342.52;
G1 X151.69 Y342.6;
G1 X151.86 Y342.64;
G1 X151.88 Y342.64;
G1 X152.01 Y342.6;
G1 X152.02 Y342.59;
G1 X152.1 Y342.51;
G1 X152.12 Y342.48;
G1 X152.15 Y342.33;
G1 X152.16 Y342.26;
G1 X152.18 Y342.03;
G1 X152.18 Y341.93;
G1 X152.16 Y341.68;
G1 X152.13 Y341.49;
G1 X152.08 Y341.35;
G1 X151.97 Y341.22;
G1 X151.91 Y341.16;
G1 X151.76 Y341.08;
G1 X151.63 Y341.02;
G1 X151.32 Y340.89;
G1 X150.93 Y340.77;
G1 X150.86 Y340.75;
G1 X150.38 Y340.64;
G1 X149.85 Y340.54;
G1 X149.76 Y340.52;
G1 X149.11 Y340.44;
G1 X148.43 Y340.41;
G1 X147.76 Y340.44;
G1 X147.13 Y340.52;
G1 X146.55 Y340.66;
G1 X146.28 Y340.75;
G1 X145.78 Y340.98;
G1 X145.33 Y341.25;
G1 X144.91 Y341.58;
G1 X144.74 Y341.77;
G1 X144.41 Y342.18;
G1 X144.12 Y342.65;
G1 X143.88 Y343.18;
G1 X143.79 Y343.45;
G1 X143.63 Y344.06;
G1 X143.53 Y344.72;
G1 X143.47 Y345.44;
G1 X143.47 Y345.81;
G1 X143.5 Y346.52;
G1 X143.58 Y347.19;
G1 X143.72 Y347.82;
G1 X143.8 Y348.11;
G1 X144.02 Y348.67;
G1 X144.28 Y349.18;
G1 X144.58 Y349.63;
G1 X144.75 Y349.84;
G1 X145.13 Y350.22;
G1 X145.56 Y350.55;
G1 X146.02 Y350.82;
G1 X146.26 Y350.93;
G1 X146.78 Y351.12;
G1 X147.34 Y351.24;
G1 X147.93 Y351.31;
G1 X148.24 Y351.31;
G1 X148.82 Y351.29;
G1 X149.36 Y351.21;
G1 X149.85 Y351.08;
G1 X150.22 Y350.94;
G1 X150.71 Y350.68;
G1 X151.13 Y350.36;
G1 X151.52 Y349.99;
G1 X151.58 Y349.92;
G1 X151.88 Y349.51;
G1 X152.13 Y349.04;
G1 X152.32 Y348.53;
G1 X152.35 Y348.44;
G1 X152.49 Y347.83;
G1 X152.58 Y347.2;
G1 X152.6 Y346.62;
G1 X152.6 Y346.29;
S0;( end pass 1 of 1 )


( start pass 1 of 1 )
G0 X150.77 Y346.83;
S300;
G1 X150.76 Y347.36 F700;
G1 X150.69 Y347.85;
G1 X150.57 Y348.3;
G1 X150.38 Y348.69;
G1 X150.16 Y349.04;
G1 X150.13 Y349.08;
G1 X149.85 Y349.36;
G1 X149.51 Y349.59;
G1 X149.13 Y349.75;
G1 X148.69 Y349.85;
G1 X148.21 Y349.89;
G1 X148.16 Y349.89;
G1 X147.71 Y349.86;
G1 X147.3 Y349.77;
G1 X146.97 Y349.64;
G1 X146.62 Y349.42;
G1 X146.3 Y349.15;
G1 X146.13 Y348.97;
G1 X145.87 Y348.59;
G1 X145.66 Y348.16;
G1 X145.6 Y347.98;
G1 X145.46 Y347.46;
G1 X145.4 Y346.92;
G1 X145.38 Y346.83;
G1 X150.77 Y346.83;
S0;( end pass 1 of 1 )


( start pass 1 of 1 )
G0 X169.45 Y347.79;
S300;
G1 X169.42 Y346.78 F700;
G1 X169.34 Y345.83;
G1 X169.21 Y344.94;
G1 X169.18 Y344.79;
G1 X169.03 Y344.11;
G1 X168.82 Y343.48;
G1 X168.57 Y342.9;
G1 X168.32 Y342.45;
G1 X167.99 Y341.97;
G1 X167.6 Y341.56;
G1 X167.16 Y341.2;
G1 X166.76 Y340.94;
G1 X166.27 Y340.72;
G1 X165.74 Y340.56;
G1 X165.15 Y340.45;
G1 X164.51 Y340.41;
G1 X164.36 Y340.41;
G1 X163.75 Y340.44;
G1 X163.18 Y340.52;
G1 X162.66 Y340.65;
G1 X162.19 Y340.84;
G1 X162.09 Y340.88;
G1 X161.63 Y341.17;
G1 X161.24 Y341.51;
G1 X160.88 Y341.91;
G1 X160.62 Y342.3;
G1 X160.34 Y342.81;
G1 X160.12 Y343.39;
G1 X159.93 Y344.02;
G1 X159.81 Y344.59;
G1 X159.69 Y345.4;
G1 X159.62 Y346.29;
G1 X159.58 Y347.23;
G1 X159.58 Y347.72;
G1 X159.61 Y348.72;
G1 X159.68 Y349.67;
G1 X159.82 Y350.56;
G1 X159.84 Y350.71;
G1 X160.0 Y351.39;
G1 X160.21 Y352.02;
G1 X160.46 Y352.6;
G1 X160.69 Y353.04;
G1 X161.04 Y353.52;
G1 X161.43 Y353.94;
G1 X161.86 Y354.3;
G1 X162.27 Y354.55;
G1 X162.75 Y354.78;
G1 X163.29 Y354.95;
G1 X163.87 Y355.05;
G1 X164.5 Y355.09;
G1 X164.65 Y355.09;
G1 X165.27 Y355.07;
G1 X165.84 Y354.99;
G1 X166.35 Y354.85;
G1 X166.82 Y354.66;
G1 X166.92 Y354.61;
G1 X167.38 Y354.33;
G1 X167.79 Y353.99;
G1 X168.15 Y353.59;
G1 X168.41 Y353.2;
G1 X168.68 Y352.69;
G1 X168.91 Y352.11;
G1 X169.09 Y351.48;
G1 X169.2 Y350.91;
G1 X169.32 Y350.09;
G1 X169.4 Y349.22;
G1 X169.44 Y348.27;
G1 X169.45 Y347.79;
G1 X169.45 Y347.79;
S0;( end pass 1 of 1 )


( start pass 1 of 1 )
G0 X167.51 Y347.65;
S300;
G1 X167.49 Y348.44 F700;
G1 X167.46 Y349.16;
G1 X167.43 Y349.57;
G1 X167.35 Y350.25;
G1 X167.25 Y350.86;
G1 X167.2 Y351.07;
G1 X167.06 Y351.58;
G1 X166.89 Y352.03;
G1 X166.81 Y352.18;
G1 X166.6 Y352.55;
G1 X166.35 Y352.86;
G1 X166.25 Y352.96;
G1 X165.95 Y353.18;
G1 X165.62 Y353.35;
G1 X165.49 Y353.4;
G1 X165.08 Y353.5;
G1 X164.62 Y353.54;
G1 X164.54 Y353.54;
G1 X164.08 Y353.51;
G1 X163.66 Y353.42;
G1 X163.29 Y353.27;
G1 X163.02 Y353.1;
G1 X162.69 Y352.82;
G1 X162.43 Y352.49;
G1 X162.19 Y352.1;
G1 X162.09 Y351.89;
G1 X161.91 Y351.37;
G1 X161.76 Y350.81;
G1 X161.65 Y350.19;
G1 X161.63 Y350.08;
G1 X161.56 Y349.18;
G1 X161.52 Y348.23;
G1 X161.52 Y347.85;
G1 X161.53 Y347.05;
G1 X161.56 Y346.31;
G1 X161.62 Y345.64;
G1 X161.69 Y345.13;
G1 X161.8 Y344.52;
G1 X161.94 Y343.99;
G1 X162.11 Y343.52;
G1 X162.19 Y343.31;
G1 X162.43 Y342.94;
G1 X162.68 Y342.63;
G1 X162.97 Y342.38;
G1 X163.12 Y342.28;
G1 X163.5 Y342.11;
G1 X163.92 Y342.01;
G1 X164.39 Y341.97;
G1 X164.47 Y341.96;
G1 X164.92 Y341.99;
G1 X165.33 Y342.08;
G1 X165.55 Y342.16;
G1 X165.93 Y342.36;
G1 X166.25 Y342.61;
G1 X166.36 Y342.73;
G1 X166.65 Y343.1;
G1 X166.89 Y343.54;
G1 X166.92 Y343.62;
G1 X167.12 Y344.17;
G1 X167.27 Y344.76;
G1 X167.39 Y345.43;
G1 X167.45 Y346.12;
G1 X167.5 Y347.14;
G1 X167.51 Y347.65;
G1 X167.51 Y347.65;
S0;( end pass 1 of 1 )


( start pass 1 of 1 )
G0 X180.45 Y341.37;
S300;
G1 X180.43 Y341.12 F700;
G1 X180.42 Y341.02;
G1 X180.35 Y340.82;
G1 X180.33 Y340.79;
G1 X180.21 Y340.66;
G1 X180.19 Y340.65;
G1 X180.05 Y340.62;
G1 X172.6 Y340.62;
G1 X172.46 Y340.65;
G1 X172.34 Y340.77;
G1 X172.32 Y340.79;
G1 X172.25 Y340.97;
G1 X172.24 Y341.02;
G1 X172.21 Y341.24;
G1 X172.2 Y341.37;
G1 X172.22 Y341.63;
G1 X172.24 Y341.71;
G1 X172.3 Y341.91;
G1 X172.31 Y341.94;
G1 X172.41 Y342.07;
G1 X172.43 Y342.09;
G1 X172.57 Y342.14;
G1 X172.6 Y342.14;
G1 X175.58 Y342.14;
G1 X175.58 Y352.99;
G1 X172.82 Y351.35;
G1 X172.61 Y351.25;
G1 X172.48 Y351.21;
G1 X172.35 Y351.22;
G1 X172.28 Y351.26;
G1 X172.2 Y351.39;
G1 X172.17 Y351.5;
G1 X172.15 Y351.74;
G1 X172.15 Y351.92;
G1 X172.15 Y352.19;
G1 X172.16 Y352.24;
G1 X172.21 Y352.44;
G1 X172.21 Y352.46;
G1 X172.3 Y352.61;
G1 X172.47 Y352.75;
G1 X175.75 Y354.85;
G1 X175.86 Y354.91;
G1 X176.03 Y354.95;
G1 X176.26 Y354.97;
G1 X176.26 Y354.97;
G1 X176.49 Y354.98;
G1 X176.59 Y354.98;
G1 X176.88 Y354.98;
G1 X177.03 Y354.96;
G1 X177.23 Y354.92;
G1 X177.31 Y354.9;
G1 X177.41 Y354.84;
G1 X177.44 Y354.8;
G1 X177.47 Y354.68;
G1 X177.47 Y342.14;
G1 X180.05 Y342.14;
G1 X180.19 Y342.1;
G1 X180.22 Y342.09;
G1 X180.31 Y341.99;
G1 X180.34 Y341.94;
G1 X180.4 Y341.78;
G1 X180.41 Y341.71;
G1 X180.45 Y341.47;
G1 X180.45 Y341.37;
G1 X180.45 Y341.37;
S0;( end pass 1 of 1 )


( start pass 1 of 1 )
G0 X64.2 Y307.23;
S300;
G1 X64.18 Y307.06 F700;
G1 X64.14 Y306.94;
G1 X64.06 Y306.88;
G1 X64.0 Y306.86;
G1 X60.28 Y306.86;
G1 X60.2 Y306.88;
G1 X60.14 Y306.94;
G1 X60.09 Y307.06;
G1 X60.08 Y307.23;
G1 X60.09 Y307.39;
G1 X60.13 Y307.52;
G1 X60.19 Y307.58;
G1 X60.28 Y307.62;
G1 X61.76 Y307.62;
G1 X61.76 Y313.04;
G1 X60.39 Y312.22;
G1 X60.24 Y312.16;
G1 X60.22 Y312.16;
G1 X60.13 Y312.17;
G1 X60.12 Y312.18;
G1 X60.07 Y312.27;
G1 X60.06 Y312.3;
G1 X60.05 Y312.48;
G1 X60.05 Y312.51;
G1 X60.06 Y312.67;
G1 X60.09 Y312.77;
G1 X60.13 Y312.86;
G1 X60.21 Y312.92;
G1 X61.86 Y313.97;
G1 X61.91 Y314.0;
G1 X62.0 Y314.02;
G1 X62.11 Y314.04;
G1 X62.28 Y314.04;
G1 X62.48 Y314.02;
G1 X62.5 Y314.02;
G1 X62.63 Y314.0;
G1 X62.7 Y313.95;
G1 X62.72 Y313.89;
G1 X62.72 Y307.62;
G1 X64.01 Y307.62;
G1 X64.09 Y307.58;
G1 X64.15 Y307.52;
G1 X64.19 Y307.39;
G1 X64.2 Y307.23;
G1 X64.2 Y307.23;
S0;( end pass 1 of 1 )


( start pass 1 of 1 )
G0 X176.52 Y288.05;
S300;
G1 X176.5 Y287.85 F700;
G1 X176.46 Y287.7;
G1 X176.38 Y287.61;
G1 X176.28 Y287.58;
G1 X171.85 Y287.58;
G1 X171.69 Y287.61;
G1 X171.58 Y287.68;
G1 X171.52 Y287.81;
G1 X171.51 Y287.82;
G1 X171.5 Y288.02;
G1 X171.5 Y288.05;
G1 X171.51 Y288.27;
G1 X171.55 Y288.43;
G1 X171.62 Y288.57;
G1 X171.75 Y288.73;
G1 X173.3 Y290.38;
G1 X173.68 Y290.8;
G1 X174.0 Y291.18;
G1 X174.16 Y291.39;
G1 X174.44 Y291.8;
G1 X174.64 Y292.17;
G1 X174.67 Y292.23;
G1 X174.82 Y292.58;
G1 X174.9 Y292.89;
G1 X174.96 Y293.33;
G1 X174.96 Y293.47;
G1 X174.93 Y293.79;
G1 X174.87 Y293.98;
G1 X174.73 Y294.25;
G1 X174.62 Y294.39;
G1 X174.41 Y294.57;
G1 X174.21 Y294.68;
G1 X173.94 Y294.76;
G1 X173.64 Y294.79;
G1 X173.27 Y294.76;
G1 X172.96 Y294.68;
G1 X172.55 Y294.52;
G1 X172.43 Y294.45;
G1 X172.13 Y294.27;
G1 X172.05 Y294.22;
G1 X171.92 Y294.14;
G1 X171.83 Y294.12;
G1 X171.75 Y294.14;
G1 X171.69 Y294.22;
G1 X171.66 Y294.37;
G1 X171.65 Y294.6;
G1 X171.66 Y294.76;
G1 X171.68 Y294.87;
G1 X171.72 Y294.97;
G1 X171.79 Y295.05;
G1 X171.82 Y295.07;
G1 X171.93 Y295.16;
G1 X172.07 Y295.25;
G1 X172.36 Y295.39;
G1 X172.53 Y295.47;
G1 X172.97 Y295.61;
G1 X173.14 Y295.66;
G1 X173.61 Y295.72;
G1 X173.84 Y295.73;
G1 X174.3 Y295.7;
G1 X174.71 Y295.61;
G1 X174.86 Y295.56;
G1 X175.2 Y295.41;
G1 X175.49 Y295.2;
G1 X175.58 Y295.12;
G1 X175.82 Y294.83;
G1 X175.99 Y294.51;
G1 X176.02 Y294.45;
G1 X176.12 Y294.06;
G1 X176.16 Y293.64;
G1 X176.12 Y293.07;
G1 X176.09 Y292.88;
G1 X176.0 Y292.51;
G1 X175.83 Y292.12;
G1 X175.8 Y292.05;
G1 X175.58 Y291.66;
G1 X175.3 Y291.24;
G1 X175.17 Y291.07;
G1 X174.85 Y290.67;
G1 X174.46 Y290.24;
G1 X174.06 Y289.82;
G1 X172.79 Y288.49;
G1 X176.28 Y288.49;
G1 X176.38 Y288.45;
G1 X176.46 Y288.38;
G1 X176.51 Y288.24;
G1 X176.53 Y288.05;
G1 X176.52 Y288.05;
S0;( end pass 1 of 1 )


( start pass 1 of 1 )
G0 X71.19 Y240.59;
S300;
G1 X71.16 Y240.15 F700;
G1 X71.06 Y239.74;
G1 X71.0 Y239.59;
G1 X70.81 Y239.24;
G1 X70.56 Y238.94;
G1 X70.45 Y238.83;
G1 X70.11 Y238.59;
G1 X69.72 Y238.4;
G1 X69.56 Y238.34;
G1 X69.09 Y238.23;
G1 X68.56 Y238.18;
G1 X68.36 Y238.17;
G1 X67.84 Y238.21;
G1 X67.61 Y238.24;
G1 X67.17 Y238.34;
G1 X66.98 Y238.39;
G1 X66.68 Y238.51;
G1 X66.53 Y238.58;
G1 X66.38 Y238.66;
G1 X66.3 Y238.72;
G1 X66.23 Y238.81;
G1 X66.19 Y238.91;
G1 X66.16 Y239.06;
G1 X66.15 Y239.29;
G1 X66.16 Y239.48;
G1 X66.19 Y239.6;
G1 X66.26 Y239.67;
G1 X66.31 Y239.68;
G1 X66.4 Y239.66;
G1 X66.53 Y239.59;
G1 X66.77 Y239.46;
G1 X66.95 Y239.37;
G1 X67.34 Y239.22;
G1 X67.56 Y239.16;
G1 X67.97 Y239.08;
G1 X68.33 Y239.06;
G1 X68.72 Y239.08;
G1 X69.05 Y239.16;
G1 X69.34 Y239.29;
G1 X69.56 Y239.46;
G1 X69.78 Y239.7;
G1 X69.89 Y239.91;
G1 X69.97 Y240.23;
G1 X69.98 Y240.49;
G1 X69.95 Y240.82;
G1 X69.86 Y241.11;
G1 X69.69 Y241.37;
G1 X69.47 Y241.58;
G1 X69.2 Y241.74;
G1 X68.89 Y241.87;
G1 X68.83 Y241.88;
G1 X68.43 Y241.96;
G1 X67.98 Y241.99;
G1 X67.22 Y241.99;
G1 X67.12 Y242.01;
G1 X67.04 Y242.08;
G1 X66.98 Y242.21;
G1 X66.95 Y242.38;
G1 X66.95 Y242.43;
G1 X66.98 Y242.6;
G1 X66.98 Y242.62;
G1 X67.03 Y242.74;
G1 X67.11 Y242.81;
G1 X67.2 Y242.84;
G1 X67.91 Y242.84;
G1 X68.31 Y242.86;
G1 X68.65 Y242.94;
G1 X68.95 Y243.07;
G1 X69.2 Y243.25;
G1 X69.41 Y243.47;
G1 X69.55 Y243.72;
G1 X69.64 Y244.02;
G1 X69.67 Y244.34;
G1 X69.64 Y244.66;
G1 X69.59 Y244.81;
G1 X69.45 Y245.07;
G1 X69.34 Y245.21;
G1 X69.14 Y245.37;
G1 X68.93 Y245.47;
G1 X68.63 Y245.55;
G1 X68.36 Y245.57;
G1 X67.97 Y245.53;
G1 X67.69 Y245.46;
G1 X67.28 Y245.29;
G1 X67.16 Y245.23;
G1 X66.87 Y245.07;
G1 X66.76 Y244.99;
G1 X66.63 Y244.91;
G1 X66.55 Y244.89;
G1 X66.47 Y244.9;
G1 X66.41 Y244.96;
G1 X66.38 Y245.09;
G1 X66.37 Y245.27;
G1 X66.37 Y245.31;
G1 X66.38 Y245.48;
G1 X66.4 Y245.6;
G1 X66.45 Y245.7;
G1 X66.53 Y245.8;
G1 X66.62 Y245.87;
G1 X66.77 Y245.97;
G1 X67.05 Y246.12;
G1 X67.2 Y246.19;
G1 X67.61 Y246.32;
G1 X67.81 Y246.38;
G1 X68.27 Y246.44;
G1 X68.56 Y246.45;
G1 X69.01 Y246.42;
G1 X69.41 Y246.35;
G1 X69.55 Y246.31;
G1 X69.91 Y246.15;
G1 X70.2 Y245.94;
G1 X70.25 Y245.9;
G1 X70.48 Y245.64;
G1 X70.65 Y245.33;
G1 X70.67 Y245.28;
G1 X70.77 Y244.93;
G1 X70.81 Y244.54;
G1 X70.81 Y244.47;
G1 X70.78 Y244.07;
G1 X70.72 Y243.77;
G1 X70.58 Y243.43;
G1 X70.42 Y243.19;
G1 X70.18 Y242.93;
G1 X69.95 Y242.76;
G1 X69.65 Y242.61;
G1 X69.31 Y242.52;
G1 X69.31 Y242.5;
G1 X69.7 Y242.43;
G1 X70.06 Y242.29;
G1 X70.39 Y242.11;
G1 X70.66 Y241.88;
G1 X70.88 Y241.61;
G1 X71.04 Y241.3;
G1 X71.15 Y240.95;
G1 X71.19 Y240.59;
G1 X71.19 Y240.59;
S0;( end pass 1 of 1 )


( start pass 1 of 1 )
G0 X94.16 Y213.08;
S300;
G1 X94.14 Y212.88 F700;
G1 X94.1 Y212.76;
G1 X94.01 Y212.66;
G1 X93.92 Y212.64;
G1 X93.02 Y212.64;
G1 X93.02 Y210.95;
G1 X92.99 Y210.86;
G1 X92.9 Y210.81;
G1 X92.74 Y210.77;
G1 X92.54 Y210.76;
G1 X92.49 Y210.76;
G1 X92.28 Y210.77;
G1 X92.24 Y210.77;
G1 X92.08 Y210.81;
G1 X92.0 Y210.86;
G1 X91.98 Y210.95;
G1 X91.98 Y212.64;
G1 X88.66 Y212.64;
G1 X88.54 Y212.66;
G1 X88.44 Y212.73;
G1 X88.39 Y212.85;
G1 X88.39 Y212.87;
G1 X88.37 Y213.06;
G1 X88.37 Y213.11;
G1 X88.38 Y213.32;
G1 X88.41 Y213.49;
G1 X88.46 Y213.64;
G1 X88.53 Y213.8;
G1 X91.43 Y218.68;
G1 X91.52 Y218.77;
G1 X91.67 Y218.83;
G1 X91.87 Y218.86;
G1 X91.9 Y218.86;
G1 X92.16 Y218.87;
G1 X92.22 Y218.87;
G1 X92.52 Y218.86;
G1 X92.58 Y218.85;
G1 X92.78 Y218.83;
G1 X92.83 Y218.81;
G1 X92.96 Y218.76;
G1 X92.97 Y218.75;
G1 X93.02 Y218.67;
G1 X93.02 Y218.65;
G1 X93.02 Y213.52;
G1 X93.93 Y213.52;
G1 X94.03 Y213.49;
G1 X94.09 Y213.41;
G1 X94.15 Y213.27;
G1 X94.16 Y213.08;
G1 X94.16 Y213.08;
S0;( end pass 1 of 1 )


( start pass 1 of 1 )
G0 X91.98 Y217.93;
S300;
G1 X91.97 Y217.93 F700;
G1 X89.35 Y213.52;
G1 X91.98 Y213.52;
G1 X91.98 Y217.93;
S0;( end pass 1 of 1 )


( start pass 1 of 1 )
G0 X50.23 Y247.72;
S300;
G1 X50.19 Y247.25 F700;
G1 X50.1 Y246.82;
G1 X50.01 Y246.57;
G1 X49.82 Y246.21;
G1 X49.57 Y245.9;
G1 X49.39 Y245.72;
G1 X49.03 Y245.47;
G1 X48.62 Y245.26;
G1 X48.44 Y245.2;
G1 X47.96 Y245.08;
G1 X47.44 Y245.03;
G1 X47.22 Y245.02;
G1 X46.69 Y245.05;
G1 X46.52 Y245.08;
G1 X46.1 Y245.16;
G1 X45.92 Y245.2;
G1 X45.63 Y245.3;
G1 X45.49 Y245.36;
G1 X45.34 Y245.43;
G1 X45.27 Y245.48;
G1 X45.21 Y245.56;
G1 X45.17 Y245.64;
G1 X45.15 Y245.78;
G1 X45.14 Y245.97;
G1 X45.15 Y246.16;
G1 X45.19 Y246.3;
G1 X45.25 Y246.38;
G1 X45.33 Y246.4;
G1 X45.42 Y246.38;
G1 X45.52 Y246.32;
G1 X45.71 Y246.22;
G1 X45.87 Y246.15;
G1 X46.18 Y246.05;
G1 X46.42 Y245.98;
G1 X46.78 Y245.92;
G1 X47.19 Y245.9;
G1 X47.64 Y245.93;
G1 X47.96 Y246.0;
G1 X48.28 Y246.13;
G1 X48.55 Y246.31;
G1 X48.78 Y246.56;
G1 X48.95 Y246.84;
G1 X49.05 Y247.14;
G1 X49.09 Y247.48;
G1 X49.09 Y247.62;
G1 X49.07 Y247.96;
G1 X48.99 Y248.26;
G1 X48.97 Y248.3;
G1 X48.83 Y248.55;
G1 X48.64 Y248.76;
G1 X48.6 Y248.79;
G1 X48.34 Y248.95;
G1 X48.02 Y249.07;
G1 X47.96 Y249.08;
G1 X47.58 Y249.16;
G1 X47.13 Y249.18;
G1 X47.04 Y249.18;
G1 X46.65 Y249.17;
G1 X46.39 Y249.15;
G1 X45.97 Y249.11;
G1 X45.88 Y249.11;
G1 X45.72 Y249.14;
G1 X45.63 Y249.19;
G1 X45.58 Y249.3;
G1 X45.56 Y249.47;
G1 X45.56 Y249.5;
G1 X45.56 Y252.78;
G1 X45.58 Y252.96;
G1 X45.65 Y253.08;
G1 X45.77 Y253.16;
G1 X45.93 Y253.18;
G1 X49.49 Y253.18;
G1 X49.58 Y253.15;
G1 X49.67 Y253.07;
G1 X49.71 Y252.92;
G1 X49.73 Y252.72;
G1 X49.71 Y252.5;
G1 X49.67 Y252.37;
G1 X49.59 Y252.28;
G1 X49.49 Y252.25;
G1 X46.49 Y252.25;
G1 X46.49 Y249.99;
G1 X46.93 Y250.03;
G1 X47.31 Y250.04;
G1 X47.46 Y250.04;
G1 X47.96 Y250.01;
G1 X48.41 Y249.94;
G1 X48.66 Y249.87;
G1 X49.07 Y249.71;
G1 X49.41 Y249.5;
G1 X49.52 Y249.4;
G1 X49.78 Y249.13;
G1 X49.98 Y248.81;
G1 X50.04 Y248.68;
G1 X50.16 Y248.3;
G1 X50.22 Y247.89;
G1 X50.22 Y247.73;
G1 X50.23 Y247.72;
S0;( end pass 1 of 1 )


( start pass 1 of 1 )
G0 X46.04 Y220.71;
S300;
G1 X46.01 Y220.23 F700;
G1 X45.9 Y219.76;
G1 X45.88 Y219.69;
G1 X45.71 Y219.3;
G1 X45.49 Y218.94;
G1 X45.38 Y218.82;
G1 X45.1 Y218.55;
G1 X44.77 Y218.33;
G1 X44.53 Y218.22;
G1 X44.15 Y218.09;
G1 X43.73 Y218.01;
G1 X43.31 Y217.99;
G1 X42.88 Y218.02;
G1 X42.49 Y218.1;
G1 X42.43 Y218.12;
G1 X42.06 Y218.27;
G1 X41.75 Y218.47;
G1 X41.49 Y218.73;
G1 X41.28 Y219.04;
G1 X41.09 Y219.44;
G1 X40.97 Y219.8;
G1 X40.86 Y220.36;
G1 X40.81 Y220.74;
G1 X40.77 Y221.39;
G1 X40.76 Y221.83;
G1 X40.79 Y222.68;
G1 X40.82 Y222.88;
G1 X40.92 Y223.51;
G1 X41.02 Y223.89;
G1 X41.21 Y224.42;
G1 X41.4 Y224.81;
G1 X41.66 Y225.19;
G1 X41.96 Y225.52;
G1 X42.02 Y225.57;
G1 X42.35 Y225.81;
G1 X42.74 Y226.01;
G1 X42.9 Y226.08;
G1 X43.32 Y226.19;
G1 X43.79 Y226.25;
G1 X44.1 Y226.26;
G1 X44.57 Y226.23;
G1 X44.96 Y226.17;
G1 X45.0 Y226.16;
G1 X45.27 Y226.08;
G1 X45.34 Y226.06;
G1 X45.47 Y226.0;
G1 X45.52 Y225.96;
G1 X45.58 Y225.89;
G1 X45.62 Y225.8;
G1 X45.64 Y225.7;
G1 X45.65 Y225.55;
G1 X45.64 Y225.36;
G1 X45.61 Y225.23;
G1 X45.61 Y225.23;
G1 X45.56 Y225.16;
G1 X45.47 Y225.13;
G1 X45.34 Y225.15;
G1 X45.28 Y225.17;
G1 X45.06 Y225.25;
G1 X45.0 Y225.27;
G1 X44.74 Y225.34;
G1 X44.59 Y225.37;
G1 X44.27 Y225.4;
G1 X44.03 Y225.41;
G1 X43.65 Y225.38;
G1 X43.31 Y225.3;
G1 X43.04 Y225.17;
G1 X42.72 Y224.95;
G1 X42.45 Y224.66;
G1 X42.36 Y224.54;
G1 X42.14 Y224.14;
G1 X41.99 Y223.69;
G1 X41.97 Y223.61;
G1 X41.86 Y223.01;
G1 X41.82 Y222.52;
G1 X42.18 Y222.71;
G1 X42.62 Y222.87;
G1 X43.13 Y222.99;
G1 X43.13 Y222.99;
G1 X43.55 Y223.04;
G1 X43.71 Y223.04;
G1 X44.17 Y223.02;
G1 X44.58 Y222.94;
G1 X44.81 Y222.86;
G1 X45.15 Y222.69;
G1 X45.43 Y222.47;
G1 X45.53 Y222.37;
G1 X45.73 Y222.09;
G1 X45.88 Y221.77;
G1 X45.92 Y221.63;
G1 X46.01 Y221.18;
G1 X46.04 Y220.71;
G1 X46.04 Y220.71;
S0;( end pass 1 of 1 )


( start pass 1 of 1 )
G0 X44.96 Y220.61;
S300;
G1 X44.93 Y221.03 F700;
G1 X44.89 Y221.27;
G1 X44.79 Y221.55;
G1 X44.65 Y221.77;
G1 X44.45 Y221.95;
G1 X44.2 Y222.09;
G1 X43.92 Y222.17;
G1 X43.58 Y222.2;
G1 X43.51 Y222.2;
G1 X43.1 Y222.16;
G1 X43.05 Y222.16;
G1 X42.61 Y222.04;
G1 X42.2 Y221.88;
G1 X41.84 Y221.67;
G1 X41.85 Y221.15;
G1 X41.89 Y220.68;
G1 X41.94 Y220.33;
G1 X42.03 Y219.95;
G1 X42.15 Y219.63;
G1 X42.24 Y219.46;
G1 X42.42 Y219.22;
G1 X42.64 Y219.04;
G1 X42.73 Y218.99;
G1 X43.02 Y218.9;
G1 X43.35 Y218.86;
G1 X43.41 Y218.86;
G1 X43.76 Y218.89;
G1 X44.06 Y218.98;
G1 X44.1 Y219.01;
G1 X44.37 Y219.18;
G1 X44.59 Y219.4;
G1 X44.77 Y219.7;
G1 X44.87 Y219.97;
G1 X44.95 Y220.36;
G1 X44.96 Y220.61;
G1 X44.96 Y220.61;
S0;( end pass 1 of 1 )


( start pass 1 of 1 )
G0 X110.61 Y205.27;
S300;
G1 X110.6 Y205.06 F700;
G1 X110.58 Y204.89;
G1 X110.53 Y204.73;
G1 X110.47 Y204.57;
G1 X107.58 Y197.89;
G1 X107.5 Y197.77;
G1 X107.38 Y197.69;
G1 X107.22 Y197.66;
G1 X107.2 Y197.66;
G1 X106.98 Y197.65;
G1 X106.92 Y197.65;
G1 X106.7 Y197.66;
G1 X106.59 Y197.67;
G1 X106.45 Y197.71;
G1 X106.42 Y197.73;
G1 X106.38 Y197.81;
G1 X106.38 Y197.83;
G1 X106.42 Y197.97;
G1 X109.46 Y204.79;
G1 X105.61 Y204.79;
G1 X105.5 Y204.82;
G1 X105.43 Y204.92;
G1 X105.38 Y205.08;
G1 X105.37 Y205.26;
G1 X105.38 Y205.47;
G1 X105.43 Y205.61;
G1 X105.51 Y205.7;
G1 X105.61 Y205.73;
G1 X110.29 Y205.73;
G1 X110.44 Y205.71;
G1 X110.53 Y205.65;
G1 X110.54 Y205.64;
G1 X110.6 Y205.49;
G1 X110.62 Y205.32;
G1 X110.62 Y205.27;
G1 X110.61 Y205.27;
S0;( end pass 1 of 1 )


( start pass 1 of 1 )
G0 X36.04 Y90.92;
S300;
G1 X36.04 Y90.71 F700;
G1 X36.02 Y90.54;
G1 X35.97 Y90.37;
G1 X35.9 Y90.21;
G1 X33.02 Y83.54;
G1 X32.93 Y83.42;
G1 X32.82 Y83.34;
G1 X32.65 Y83.31;
G1 X32.64 Y83.31;
G1 X32.42 Y83.3;
G1 X32.36 Y83.3;
G1 X32.14 Y83.3;
G1 X32.03 Y83.32;
G1 X31.89 Y83.35;
G1 X31.86 Y83.37;
G1 X31.82 Y83.45;
G1 X31.82 Y83.47;
G1 X31.86 Y83.61;
G1 X34.9 Y90.44;
G1 X31.05 Y90.44;
G1 X30.94 Y90.47;
G1 X30.87 Y90.56;
G1 X30.82 Y90.73;
G1 X30.81 Y90.91;
G1 X30.82 Y91.11;
G1 X30.87 Y91.26;
G1 X30.95 Y91.34;
G1 X31.05 Y91.37;
G1 X35.72 Y91.37;
G1 X35.88 Y91.35;
G1 X35.97 Y91.3;
G1 X35.97 Y91.28;
G1 X36.03 Y91.14;
G1 X36.04 Y90.96;
G1 X36.04 Y90.91;
G1 X36.04 Y90.92;
S0;( end pass 1 of 1 )


( start pass 1 of 1 )
G0 X138.94 Y203.41;
S300;
G1 X138.9 Y202.99 F700;
G1 X138.8 Y202.61;
G1 X138.75 Y202.48;
G1 X138.56 Y202.16;
G1 X138.32 Y201.89;
G1 X138.21 Y201.8;
G1 X137.88 Y201.58;
G1 X137.51 Y201.42;
G1 X137.35 Y201.37;
G1 X136.88 Y201.28;
G1 X136.37 Y201.23;
G1 X136.16 Y201.23;
G1 X135.62 Y201.26;
G1 X135.13 Y201.34;
G1 X135.05 Y201.36;
G1 X134.66 Y201.49;
G1 X134.33 Y201.67;
G1 X134.22 Y201.75;
G1 X133.96 Y201.98;
G1 X133.76 Y202.26;
G1 X133.69 Y202.37;
G1 X133.58 Y202.7;
G1 X133.52 Y203.07;
G1 X133.52 Y203.22;
G1 X133.55 Y203.59;
G1 X133.63 Y203.92;
G1 X133.81 Y204.26;
G1 X134.0 Y204.5;
G1 X134.29 Y204.79;
G1 X134.57 Y205.0;
G1 X135.03 Y205.28;
G1 X135.34 Y205.45;
G1 X134.91 Y205.69;
G1 X134.69 Y205.85;
G1 X134.37 Y206.13;
G1 X134.19 Y206.32;
G1 X133.99 Y206.64;
G1 X133.9 Y206.86;
G1 X133.82 Y207.19;
G1 X133.8 Y207.48;
G1 X133.83 Y207.86;
G1 X133.91 Y208.21;
G1 X133.94 Y208.27;
G1 X134.12 Y208.59;
G1 X134.36 Y208.87;
G1 X134.41 Y208.92;
G1 X134.69 Y209.12;
G1 X135.04 Y209.29;
G1 X135.19 Y209.34;
G1 X135.62 Y209.45;
G1 X136.1 Y209.5;
G1 X136.3 Y209.51;
G1 X136.78 Y209.48;
G1 X137.21 Y209.4;
G1 X137.35 Y209.36;
G1 X137.69 Y209.22;
G1 X137.99 Y209.04;
G1 X138.09 Y208.96;
G1 X138.32 Y208.71;
G1 X138.49 Y208.42;
G1 X138.51 Y208.37;
G1 X138.62 Y208.01;
G1 X138.65 Y207.64;
G1 X138.62 Y207.29;
G1 X138.54 Y207.03;
G1 X138.38 Y206.68;
G1 X138.25 Y206.47;
G1 X137.97 Y206.17;
G1 X137.76 Y205.98;
G1 X137.37 Y205.72;
G1 X137.1 Y205.56;
G1 X137.6 Y205.29;
G1 X137.88 Y205.11;
G1 X138.22 Y204.85;
G1 X138.46 Y204.62;
G1 X138.68 Y204.31;
G1 X138.81 Y204.06;
G1 X138.91 Y203.74;
G1 X138.94 Y203.41;
G1 X138.94 Y203.41;
S0;( end pass 1 of 1 )


( start pass 1 of 1 )
G0 X137.59 Y207.54;
S300;
G1 X137.56 Y207.84 F700;
G1 X137.5 Y208.01;
G1 X137.38 Y208.23;
G1 X137.24 Y208.37;
G1 X137.02 Y208.51;
G1 X136.8 Y208.59;
G1 X136.5 Y208.66;
G1 X136.22 Y208.67;
G1 X135.86 Y208.65;
G1 X135.56 Y208.57;
G1 X135.31 Y208.45;
G1 X135.19 Y208.37;
G1 X135.03 Y208.18;
G1 X134.91 Y207.95;
G1 X134.87 Y207.68;
G1 X134.86 Y207.54;
G1 X134.9 Y207.22;
G1 X134.94 Y207.08;
G1 X135.08 Y206.84;
G1 X135.19 Y206.69;
G1 X135.49 Y206.44;
G1 X135.65 Y206.33;
G1 X136.02 Y206.1;
G1 X136.3 Y205.96;
G1 X136.69 Y206.19;
G1 X137.03 Y206.44;
G1 X137.26 Y206.67;
G1 X137.44 Y206.93;
G1 X137.55 Y207.2;
G1 X137.59 Y207.49;
G1 X137.59 Y207.54;
G1 X137.59 Y207.54;
S0;( end pass 1 of 1 )


( start pass 1 of 1 )
G0 X137.85 Y203.3;
S300;
G1 X137.82 Y203.6 F700;
G1 X137.75 Y203.81;
G1 X137.6 Y204.07;
G1 X137.43 Y204.25;
G1 X137.16 Y204.47;
G1 X136.88 Y204.64;
G1 X136.5 Y204.86;
G1 X136.15 Y205.04;
G1 X135.71 Y204.8;
G1 X135.46 Y204.65;
G1 X135.13 Y204.41;
G1 X134.97 Y204.26;
G1 X134.78 Y203.99;
G1 X134.69 Y203.82;
G1 X134.61 Y203.53;
G1 X134.6 Y203.32;
G1 X134.63 Y203.03;
G1 X134.71 Y202.77;
G1 X134.85 Y202.55;
G1 X135.01 Y202.39;
G1 X135.25 Y202.24;
G1 X135.55 Y202.14;
G1 X135.91 Y202.08;
G1 X136.25 Y202.06;
G1 X136.63 Y202.08;
G1 X136.97 Y202.15;
G1 X137.25 Y202.26;
G1 X137.44 Y202.39;
G1 X137.65 Y202.6;
G1 X137.78 Y202.85;
G1 X137.85 Y203.14;
G1 X137.85 Y203.3;
G1 X137.85 Y203.3;
S0;( end pass 1 of 1 )


( start pass 1 of 1 )
G0 X154.77 Y205.18;
S300;
G1 X154.74 Y204.4 F700;
G1 X154.71 Y204.12;
G1 X154.6 Y203.48;
G1 X154.5 Y203.09;
G1 X154.3 Y202.56;
G1 X154.09 Y202.17;
G1 X153.84 Y201.79;
G1 X153.52 Y201.47;
G1 X153.46 Y201.42;
G1 X153.12 Y201.17;
G1 X152.72 Y200.97;
G1 X152.55 Y200.91;
G1 X152.13 Y200.79;
G1 X151.66 Y200.74;
G1 X151.34 Y200.73;
G1 X150.81 Y200.76;
G1 X150.4 Y200.83;
G1 X150.36 Y200.84;
G1 X150.1 Y200.92;
G1 X150.02 Y200.95;
G1 X149.87 Y201.02;
G1 X149.83 Y201.06;
G1 X149.74 Y201.19;
G1 X149.72 Y201.21;
G1 X149.71 Y201.39;
G1 X149.71 Y201.47;
G1 X149.71 Y201.66;
G1 X149.72 Y201.69;
G1 X149.75 Y201.81;
G1 X149.8 Y201.87;
G1 X149.88 Y201.89;
G1 X150.0 Y201.87;
G1 X150.08 Y201.84;
G1 X150.3 Y201.77;
G1 X150.38 Y201.74;
G1 X150.71 Y201.66;
G1 X150.84 Y201.63;
G1 X151.21 Y201.59;
G1 X151.41 Y201.59;
G1 X151.81 Y201.62;
G1 X152.16 Y201.7;
G1 X152.44 Y201.82;
G1 X152.78 Y202.05;
G1 X153.06 Y202.33;
G1 X153.15 Y202.45;
G1 X153.37 Y202.84;
G1 X153.54 Y203.28;
G1 X153.56 Y203.35;
G1 X153.66 Y203.89;
G1 X153.71 Y204.44;
G1 X153.34 Y204.26;
G1 X152.91 Y204.1;
G1 X152.51 Y204.0;
G1 X152.05 Y203.96;
G1 X151.86 Y203.95;
G1 X151.41 Y203.97;
G1 X151.03 Y204.04;
G1 X150.72 Y204.13;
G1 X150.38 Y204.31;
G1 X150.09 Y204.54;
G1 X150.0 Y204.63;
G1 X149.79 Y204.92;
G1 X149.63 Y205.25;
G1 X149.6 Y205.39;
G1 X149.51 Y205.85;
G1 X149.47 Y206.34;
G1 X149.52 Y206.82;
G1 X149.61 Y207.28;
G1 X149.63 Y207.35;
G1 X149.8 Y207.74;
G1 X150.02 Y208.08;
G1 X150.12 Y208.2;
G1 X150.4 Y208.46;
G1 X150.72 Y208.67;
G1 X150.96 Y208.79;
G1 X151.34 Y208.91;
G1 X151.76 Y208.98;
G1 X152.18 Y209.0;
G1 X152.62 Y208.98;
G1 X153.01 Y208.89;
G1 X153.07 Y208.87;
G1 X153.41 Y208.73;
G1 X153.69 Y208.54;
G1 X153.74 Y208.51;
G1 X154.01 Y208.24;
G1 X154.22 Y207.93;
G1 X154.43 Y207.52;
G1 X154.55 Y207.16;
G1 X154.66 Y206.61;
G1 X154.72 Y206.23;
G1 X154.77 Y205.53;
G1 X154.78 Y205.18;
G1 X154.77 Y205.18;
S0;( end pass 1 of 1 )


( start pass 1 of 1 )
G0 X153.68 Y205.3;
S300;
G1 X153.66 Y205.82 F700;
G1 X153.63 Y206.28;
G1 X153.58 Y206.63;
G1 X153.47 Y207.02;
G1 X153.36 Y207.35;
G1 X153.27 Y207.52;
G1 X153.08 Y207.77;
G1 X152.86 Y207.95;
G1 X152.76 Y208.0;
G1 X152.47 Y208.11;
G1 X152.13 Y208.15;
G1 X152.08 Y208.15;
G1 X151.76 Y208.12;
G1 X151.47 Y208.05;
G1 X151.38 Y208.0;
G1 X151.12 Y207.83;
G1 X150.91 Y207.61;
G1 X150.74 Y207.32;
G1 X150.65 Y207.06;
G1 X150.57 Y206.67;
G1 X150.56 Y206.42;
G1 X150.59 Y205.99;
G1 X150.63 Y205.75;
G1 X150.74 Y205.46;
G1 X150.88 Y205.23;
G1 X151.09 Y205.04;
G1 X151.34 Y204.9;
G1 X151.63 Y204.82;
G1 X151.97 Y204.79;
G1 X152.03 Y204.79;
G1 X152.5 Y204.82;
G1 X152.93 Y204.93;
G1 X153.34 Y205.09;
G1 X153.68 Y205.3;
G1 X153.68 Y205.3;
S0;( end pass 1 of 1 )


( start pass 1 of 1 )
G0 X120.87 Y100.64;
S300;
G1 X120.85 Y100.46 F700;
G1 X120.85 Y100.44;
G1 X120.8 Y100.31;
G1 X120.72 Y100.23;
G1 X120.64 Y100.22;
G1 X116.44 Y100.22;
G1 X116.36 Y100.23;
G1 X116.29 Y100.31;
G1 X116.24 Y100.44;
G1 X116.22 Y100.61;
G1 X116.22 Y100.64;
G1 X116.24 Y100.83;
G1 X116.28 Y100.96;
G1 X116.35 Y101.04;
G1 X116.44 Y101.07;
G1 X118.12 Y101.07;
G1 X118.12 Y107.19;
G1 X116.57 Y106.26;
G1 X116.41 Y106.2;
G1 X116.37 Y106.19;
G1 X116.28 Y106.2;
G1 X116.26 Y106.21;
G1 X116.21 Y106.32;
G1 X116.2 Y106.35;
G1 X116.19 Y106.53;
G1 X116.19 Y106.58;
G1 X116.2 Y106.76;
G1 X116.23 Y106.89;
G1 X116.28 Y106.98;
G1 X116.37 Y107.05;
G1 X118.22 Y108.24;
G1 X118.29 Y108.27;
G1 X118.38 Y108.29;
G1 X118.51 Y108.31;
G1 X118.7 Y108.32;
G1 X118.91 Y108.31;
G1 X118.94 Y108.3;
G1 X119.09 Y108.27;
G1 X119.1 Y108.27;
G1 X119.17 Y108.22;
G1 X119.17 Y108.21;
G1 X119.19 Y108.14;
G1 X119.19 Y101.08;
G1 X120.65 Y101.08;
G1 X120.74 Y101.05;
G1 X120.81 Y100.96;
G1 X120.85 Y100.83;
G1 X120.87 Y100.64;
G1 X120.87 Y100.64;
S0;( end pass 1 of 1 )


( start pass 1 of 1 )
G0 X127.57 Y104.25;
S300;
G1 X127.54 Y103.51 F700;
G1 X127.46 Y102.81;
G1 X127.42 Y102.56;
G1 X127.29 Y102.06;
G1 X127.12 Y101.61;
G1 X126.93 Y101.25;
G1 X126.67 Y100.9;
G1 X126.37 Y100.61;
G1 X126.05 Y100.4;
G1 X125.68 Y100.24;
G1 X125.26 Y100.14;
G1 X124.79 Y100.1;
G1 X124.7 Y100.1;
G1 X124.25 Y100.12;
G1 X123.84 Y100.2;
G1 X123.48 Y100.34;
G1 X123.42 Y100.36;
G1 X123.09 Y100.58;
G1 X122.8 Y100.86;
G1 X122.59 Y101.16;
G1 X122.39 Y101.55;
G1 X122.24 Y102.01;
G1 X122.14 Y102.45;
G1 X122.06 Y103.07;
G1 X122.01 Y103.76;
G1 X122.01 Y104.22;
G1 X122.03 Y104.96;
G1 X122.11 Y105.65;
G1 X122.15 Y105.9;
G1 X122.28 Y106.41;
G1 X122.45 Y106.86;
G1 X122.64 Y107.22;
G1 X122.9 Y107.57;
G1 X123.21 Y107.86;
G1 X123.52 Y108.07;
G1 X123.89 Y108.23;
G1 X124.31 Y108.33;
G1 X124.78 Y108.37;
G1 X124.86 Y108.37;
G1 X125.32 Y108.35;
G1 X125.73 Y108.27;
G1 X126.09 Y108.13;
G1 X126.14 Y108.1;
G1 X126.48 Y107.88;
G1 X126.77 Y107.6;
G1 X126.98 Y107.31;
G1 X127.18 Y106.91;
G1 X127.33 Y106.46;
G1 X127.43 Y106.01;
G1 X127.51 Y105.4;
G1 X127.56 Y104.71;
G1 X127.57 Y104.25;
G1 X127.57 Y104.25;
S0;( end pass 1 of 1 )


( start pass 1 of 1 )
G0 X126.47 Y104.18;
S300;
G1 X126.46 Y104.76 F700;
G1 X126.43 Y105.26;
G1 X126.37 Y105.76;
G1 X126.3 Y106.11;
G1 X126.19 Y106.48;
G1 X126.08 Y106.73;
G1 X125.92 Y107.0;
G1 X125.77 Y107.17;
G1 X125.54 Y107.33;
G1 X125.34 Y107.42;
G1 X125.02 Y107.49;
G1 X124.8 Y107.5;
G1 X124.46 Y107.47;
G1 X124.17 Y107.38;
G1 X123.94 Y107.25;
G1 X123.71 Y107.03;
G1 X123.52 Y106.76;
G1 X123.42 Y106.57;
G1 X123.29 Y106.17;
G1 X123.19 Y105.73;
G1 X123.17 Y105.55;
G1 X123.11 Y104.87;
G1 X123.1 Y104.29;
G1 X123.11 Y103.7;
G1 X123.14 Y103.17;
G1 X123.19 Y102.76;
G1 X123.28 Y102.31;
G1 X123.4 Y101.93;
G1 X123.48 Y101.73;
G1 X123.66 Y101.46;
G1 X123.86 Y101.25;
G1 X124.0 Y101.15;
G1 X124.29 Y101.03;
G1 X124.62 Y100.98;
G1 X124.76 Y100.97;
G1 X125.1 Y101.0;
G1 X125.37 Y101.09;
G1 X125.65 Y101.24;
G1 X125.83 Y101.4;
G1 X126.04 Y101.69;
G1 X126.14 Y101.91;
G1 X126.29 Y102.33;
G1 X126.34 Y102.55;
G1 X126.42 Y103.06;
G1 X126.44 Y103.32;
G1 X126.47 Y104.09;
G1 X126.47 Y104.18;
G1 X126.47 Y104.18;
S0;( end pass 1 of 1 )


( start pass 1 of 1 )
G0 X157.43 Y63.11;
S300;
G1 X157.41 Y62.93 F700;
G1 X157.41 Y62.91;
G1 X157.36 Y62.78;
G1 X157.29 Y62.71;
G1 X157.19 Y62.69;
G1 X153.0 Y62.69;
G1 X152.91 Y62.71;
G1 X152.85 Y62.78;
G1 X152.8 Y62.91;
G1 X152.78 Y63.09;
G1 X152.78 Y63.11;
G1 X152.8 Y63.31;
G1 X152.84 Y63.44;
G1 X152.91 Y63.52;
G1 X153.0 Y63.55;
G1 X154.68 Y63.55;
G1 X154.68 Y69.66;
G1 X153.13 Y68.73;
G1 X152.97 Y68.67;
G1 X152.94 Y68.66;
G1 X152.84 Y68.68;
G1 X152.82 Y68.69;
G1 X152.77 Y68.79;
G1 X152.76 Y68.81;
G1 X152.75 Y69.01;
G1 X152.75 Y69.06;
G1 X152.76 Y69.23;
G1 X152.79 Y69.36;
G1 X152.84 Y69.45;
G1 X152.93 Y69.53;
G1 X154.78 Y70.7;
G1 X154.85 Y70.73;
G1 X154.94 Y70.77;
G1 X155.07 Y70.78;
G1 X155.26 Y70.79;
G1 X155.47 Y70.78;
G1 X155.51 Y70.78;
G1 X155.65 Y70.75;
G1 X155.66 Y70.73;
G1 X155.72 Y70.69;
G1 X155.74 Y70.69;
G1 X155.75 Y70.62;
G1 X155.75 Y63.55;
G1 X157.21 Y63.55;
G1 X157.3 Y63.52;
G1 X157.37 Y63.44;
G1 X157.41 Y63.31;
G1 X157.43 Y63.12;
G1 X157.43 Y63.11;
S0;( end pass 1 of 1 )


( start pass 1 of 1 )
G0 X163.88 Y63.11;
S300;
G1 X163.86 Y62.93 F700;
G1 X163.86 Y62.91;
G1 X163.81 Y62.78;
G1 X163.74 Y62.71;
G1 X163.65 Y62.69;
G1 X159.44 Y62.69;
G1 X159.37 Y62.71;
G1 X159.3 Y62.78;
G1 X159.25 Y62.91;
G1 X159.22 Y63.09;
G1 X159.22 Y63.11;
G1 X159.25 Y63.31;
G1 X159.29 Y63.44;
G1 X159.36 Y63.52;
G1 X159.44 Y63.55;
G1 X161.13 Y63.55;
G1 X161.13 Y69.66;
G1 X159.58 Y68.73;
G1 X159.43 Y68.67;
G1 X159.38 Y68.66;
G1 X159.29 Y68.68;
G1 X159.27 Y68.69;
G1 X159.22 Y68.79;
G1 X159.21 Y68.81;
G1 X159.19 Y69.01;
G1 X159.19 Y69.06;
G1 X159.21 Y69.23;
G1 X159.24 Y69.36;
G1 X159.29 Y69.45;
G1 X159.38 Y69.53;
G1 X161.22 Y70.7;
G1 X161.3 Y70.73;
G1 X161.38 Y70.77;
G1 X161.52 Y70.78;
G1 X161.71 Y70.79;
G1 X161.91 Y70.78;
G1 X161.94 Y70.78;
G1 X162.1 Y70.75;
G1 X162.11 Y70.73;
G1 X162.18 Y70.69;
G1 X162.18 Y70.69;
G1 X162.19 Y70.62;
G1 X162.19 Y63.55;
G1 X163.66 Y63.55;
G1 X163.75 Y63.52;
G1 X163.82 Y63.44;
G1 X163.86 Y63.31;
G1 X163.88 Y63.12;
G1 X163.88 Y63.11;
S0;( end pass 1 of 1 )


( start pass 1 of 1 )
G0 X205.64 Y42.69;
S300;
G1 X205.63 Y42.51 F700;
G1 X205.62 Y42.49;
G1 X205.57 Y42.36;
G1 X205.5 Y42.29;
G1 X205.42 Y42.27;
G1 X201.22 Y42.27;
G1 X201.13 Y42.29;
G1 X201.06 Y42.36;
G1 X201.01 Y42.49;
G1 X200.99 Y42.67;
G1 X200.99 Y42.69;
G1 X201.01 Y42.89;
G1 X201.05 Y43.02;
G1 X201.12 Y43.1;
G1 X201.21 Y43.13;
G1 X202.89 Y43.13;
G1 X202.89 Y49.24;
G1 X201.34 Y48.32;
G1 X201.19 Y48.25;
G1 X201.15 Y48.24;
G1 X201.05 Y48.25;
G1 X201.03 Y48.27;
G1 X200.98 Y48.37;
G1 X200.97 Y48.4;
G1 X200.96 Y48.59;
G1 X200.96 Y48.64;
G1 X200.97 Y48.82;
G1 X201.0 Y48.94;
G1 X201.05 Y49.03;
G1 X201.14 Y49.1;
G1 X203.0 Y50.29;
G1 X203.06 Y50.32;
G1 X203.15 Y50.35;
G1 X203.28 Y50.36;
G1 X203.47 Y50.37;
G1 X203.68 Y50.36;
G1 X203.72 Y50.36;
G1 X203.86 Y50.32;
G1 X203.87 Y50.32;
G1 X203.94 Y50.27;
G1 X203.95 Y50.26;
G1 X203.97 Y50.2;
G1 X203.97 Y43.13;
G1 X205.42 Y43.13;
G1 X205.51 Y43.1;
G1 X205.58 Y43.02;
G1 X205.62 Y42.89;
G1 X205.64 Y42.7;
G1 X205.64 Y42.69;
S0;( end pass 1 of 1 )


( start pass 1 of 1 )
G0 X212.07 Y42.73;
S300;
G1 X212.05 Y42.53 F700;
G1 X212.01 Y42.38;
G1 X211.94 Y42.29;
G1 X211.84 Y42.27;
G1 X207.39 Y42.27;
G1 X207.24 Y42.29;
G1 X207.13 Y42.36;
G1 X207.06 Y42.49;
G1 X207.06 Y42.51;
G1 X207.04 Y42.71;
G1 X207.04 Y42.74;
G1 X207.05 Y42.95;
G1 X207.09 Y43.12;
G1 X207.17 Y43.26;
G1 X207.29 Y43.41;
G1 X208.85 Y45.07;
G1 X209.23 Y45.49;
G1 X209.55 Y45.87;
G1 X209.71 Y46.09;
G1 X209.99 Y46.49;
G1 X210.19 Y46.86;
G1 X210.22 Y46.92;
G1 X210.37 Y47.28;
G1 X210.45 Y47.6;
G1 X210.51 Y48.03;
G1 X210.51 Y48.17;
G1 X210.48 Y48.48;
G1 X210.42 Y48.67;
G1 X210.29 Y48.94;
G1 X210.17 Y49.09;
G1 X209.96 Y49.27;
G1 X209.76 Y49.38;
G1 X209.49 Y49.46;
G1 X209.19 Y49.48;
G1 X208.82 Y49.46;
G1 X208.5 Y49.38;
G1 X208.1 Y49.21;
G1 X207.97 Y49.15;
G1 X207.68 Y48.97;
G1 X207.6 Y48.92;
G1 X207.46 Y48.84;
G1 X207.37 Y48.81;
G1 X207.29 Y48.84;
G1 X207.24 Y48.92;
G1 X207.2 Y49.07;
G1 X207.19 Y49.29;
G1 X207.2 Y49.45;
G1 X207.22 Y49.57;
G1 X207.27 Y49.66;
G1 X207.34 Y49.75;
G1 X207.36 Y49.77;
G1 X207.48 Y49.86;
G1 X207.62 Y49.95;
G1 X207.91 Y50.1;
G1 X208.08 Y50.17;
G1 X208.52 Y50.31;
G1 X208.69 Y50.35;
G1 X209.16 Y50.42;
G1 X209.39 Y50.43;
G1 X209.85 Y50.4;
G1 X210.27 Y50.31;
G1 X210.41 Y50.26;
G1 X210.75 Y50.1;
G1 X211.04 Y49.9;
G1 X211.14 Y49.81;
G1 X211.37 Y49.53;
G1 X211.55 Y49.21;
G1 X211.57 Y49.15;
G1 X211.68 Y48.75;
G1 X211.71 Y48.34;
G1 X211.68 Y47.77;
G1 X211.65 Y47.57;
G1 X211.55 Y47.21;
G1 X211.39 Y46.81;
G1 X211.35 Y46.74;
G1 X211.14 Y46.36;
G1 X210.85 Y45.93;
G1 X210.72 Y45.76;
G1 X210.4 Y45.36;
G1 X210.01 Y44.93;
G1 X209.61 Y44.51;
G1 X208.34 Y43.18;
G1 X211.84 Y43.18;
G1 X211.93 Y43.15;
G1 X212.01 Y43.07;
G1 X212.06 Y42.92;
G1 X212.08 Y42.73;
G1 X212.07 Y42.73;
S0;( end pass 1 of 1 )


( start pass 1 of 1 )
G0 X183.1 Y6.56;
S300;
G1 X183.09 Y6.37 F700;
G1 X183.08 Y6.36;
G1 X183.03 Y6.23;
G1 X182.96 Y6.15;
G1 X182.88 Y6.13;
G1 X178.68 Y6.13;
G1 X178.6 Y6.15;
G1 X178.52 Y6.23;
G1 X178.47 Y6.36;
G1 X178.45 Y6.53;
G1 X178.45 Y6.56;
G1 X178.47 Y6.75;
G1 X178.51 Y6.88;
G1 X178.58 Y6.96;
G1 X178.68 Y6.99;
G1 X180.35 Y6.99;
G1 X180.35 Y13.11;
G1 X178.8 Y12.18;
G1 X178.65 Y12.11;
G1 X178.61 Y12.1;
G1 X178.51 Y12.12;
G1 X178.5 Y12.13;
G1 X178.44 Y12.23;
G1 X178.43 Y12.27;
G1 X178.42 Y12.45;
G1 X178.42 Y12.5;
G1 X178.43 Y12.68;
G1 X178.46 Y12.81;
G1 X178.51 Y12.89;
G1 X178.61 Y12.97;
G1 X180.46 Y14.16;
G1 X180.52 Y14.19;
G1 X180.61 Y14.21;
G1 X180.74 Y14.22;
G1 X180.93 Y14.23;
G1 X181.14 Y14.23;
G1 X181.18 Y14.22;
G1 X181.32 Y14.19;
G1 X181.33 Y14.19;
G1 X181.4 Y14.14;
G1 X181.41 Y14.13;
G1 X181.43 Y14.06;
G1 X181.43 Y7.0;
G1 X182.88 Y7.0;
G1 X182.97 Y6.97;
G1 X183.04 Y6.88;
G1 X183.09 Y6.75;
G1 X183.1 Y6.56;
G1 X183.1 Y6.56;
S0;( end pass 1 of 1 )


( start pass 1 of 1 )
G0 X189.47 Y8.43;
S300;
G1 X189.44 Y7.99 F700;
G1 X189.34 Y7.58;
G1 X189.28 Y7.43;
G1 X189.09 Y7.08;
G1 X188.84 Y6.78;
G1 X188.73 Y6.67;
G1 X188.39 Y6.43;
G1 X188.0 Y6.24;
G1 X187.84 Y6.18;
G1 X187.37 Y6.07;
G1 X186.86 Y6.02;
G1 X186.65 Y6.02;
G1 X186.12 Y6.05;
G1 X185.89 Y6.08;
G1 X185.45 Y6.18;
G1 X185.27 Y6.23;
G1 X184.97 Y6.35;
G1 X184.81 Y6.42;
G1 X184.66 Y6.51;
G1 X184.58 Y6.56;
G1 X184.51 Y6.65;
G1 X184.47 Y6.75;
G1 X184.44 Y6.9;
G1 X184.43 Y7.13;
G1 X184.44 Y7.32;
G1 X184.47 Y7.44;
G1 X184.54 Y7.51;
G1 X184.6 Y7.53;
G1 X184.68 Y7.5;
G1 X184.82 Y7.43;
G1 X185.05 Y7.3;
G1 X185.24 Y7.21;
G1 X185.63 Y7.06;
G1 X185.84 Y7.0;
G1 X186.25 Y6.92;
G1 X186.61 Y6.9;
G1 X187.0 Y6.92;
G1 X187.33 Y7.0;
G1 X187.62 Y7.13;
G1 X187.85 Y7.3;
G1 X188.06 Y7.54;
G1 X188.17 Y7.76;
G1 X188.26 Y8.07;
G1 X188.28 Y8.33;
G1 X188.24 Y8.66;
G1 X188.14 Y8.94;
G1 X187.97 Y9.21;
G1 X187.75 Y9.42;
G1 X187.49 Y9.58;
G1 X187.17 Y9.71;
G1 X187.11 Y9.72;
G1 X186.71 Y9.8;
G1 X186.26 Y9.83;
G1 X185.5 Y9.83;
G1 X185.4 Y9.85;
G1 X185.32 Y9.92;
G1 X185.26 Y10.06;
G1 X185.24 Y10.22;
G1 X185.24 Y10.27;
G1 X185.26 Y10.44;
G1 X185.26 Y10.46;
G1 X185.31 Y10.58;
G1 X185.39 Y10.65;
G1 X185.49 Y10.68;
G1 X186.19 Y10.68;
G1 X186.59 Y10.7;
G1 X186.93 Y10.78;
G1 X187.24 Y10.91;
G1 X187.48 Y11.09;
G1 X187.69 Y11.31;
G1 X187.83 Y11.56;
G1 X187.92 Y11.86;
G1 X187.95 Y12.18;
G1 X187.92 Y12.5;
G1 X187.87 Y12.65;
G1 X187.74 Y12.91;
G1 X187.63 Y13.05;
G1 X187.42 Y13.21;
G1 X187.21 Y13.31;
G1 X186.91 Y13.39;
G1 X186.64 Y13.41;
G1 X186.25 Y13.37;
G1 X185.97 Y13.3;
G1 X185.56 Y13.13;
G1 X185.44 Y13.07;
G1 X185.15 Y12.91;
G1 X185.04 Y12.83;
G1 X184.91 Y12.75;
G1 X184.83 Y12.73;
G1 X184.75 Y12.74;
G1 X184.69 Y12.8;
G1 X184.66 Y12.93;
G1 X184.65 Y13.11;
G1 X184.65 Y13.15;
G1 X184.66 Y13.32;
G1 X184.68 Y13.44;
G1 X184.73 Y13.54;
G1 X184.81 Y13.64;
G1 X184.9 Y13.71;
G1 X185.05 Y13.81;
G1 X185.33 Y13.96;
G1 X185.49 Y14.03;
G1 X185.89 Y14.16;
G1 X186.1 Y14.22;
G1 X186.55 Y14.28;
G1 X186.85 Y14.29;
G1 X187.29 Y14.27;
G1 X187.69 Y14.19;
G1 X187.83 Y14.15;
G1 X188.19 Y13.99;
G1 X188.49 Y13.78;
G1 X188.53 Y13.74;
G1 X188.76 Y13.48;
G1 X188.93 Y13.17;
G1 X188.95 Y13.12;
G1 X189.06 Y12.77;
G1 X189.1 Y12.38;
G1 X189.1 Y12.32;
G1 X189.07 Y11.91;
G1 X189.0 Y11.61;
G1 X188.86 Y11.27;
G1 X188.71 Y11.03;
G1 X188.46 Y10.77;
G1 X188.23 Y10.6;
G1 X187.93 Y10.45;
G1 X187.59 Y10.36;
G1 X187.59 Y10.35;
G1 X187.99 Y10.27;
G1 X188.35 Y10.13;
G1 X188.67 Y9.94;
G1 X188.94 Y9.72;
G1 X189.17 Y9.44;
G1 X189.33 Y9.14;
G1 X189.44 Y8.78;
G1 X189.47 Y8.43;
G1 X189.47 Y8.43;
S0;( end pass 1 of 1 )

M5 S0;
( file end tmp/split/toy.Styrofoam.01.Engrave.svg)
( file start tmp/split/toy.Styrofoam.01.Cut.svg)
( speed:20, strength:950 codestyle='laserGRBL', passes:2 support:yes, {'support_gap': 1.0, 'support_strength': 0}' )
M3 S0;

S0;
S0;


( start pass 1 of 2 )
G0 X87.68 Y56.02;
S950;
G1 X89.82 Y69.12 F20;
G1 X102.3 Y64.59;
G1 X94.55 Y75.37;
G1 X106.57 Y80.98;
G1 X93.47 Y83.13;
G1 X98.0 Y95.61;
(addedblock start)
X93.01579572857592 Y92.02211269515298
S0
X92.20420427142408 Y91.43788730484701
S950
(added block end)
G1 X87.22 Y87.85;
G1 X81.59 Y99.88;
G1 X79.45 Y86.78;
G1 X66.98 Y91.31;
G1 X74.73 Y80.53;
G1 X62.71 Y74.91;
G1 X75.81 Y72.77;
G1 X71.28 Y60.29;
G1 X82.06 Y68.04;
G1 X87.68 Y56.02;
S0;
( end pass 1 of 2 )
( start pass 2 of 2 )
G0 X87.68 Y56.02;
S950;
G1 X89.82 Y69.12 F20;
G1 X102.3 Y64.59;
G1 X94.55 Y75.37;
G1 X106.57 Y80.98;
G1 X93.47 Y83.13;
G1 X98.0 Y95.61;
(addedblock start)
X93.01579572857592 Y92.02211269515298
S0
X92.20420427142408 Y91.43788730484701
S950
(added block end)
G1 X87.22 Y87.85;
G1 X81.59 Y99.88;
G1 X79.45 Y86.78;
G1 X66.98 Y91.31;
G1 X74.73 Y80.53;
G1 X62.71 Y74.91;
G1 X75.81 Y72.77;
G1 X71.28 Y60.29;
G1 X82.06 Y68.04;
G1 X87.68 Y56.02;
S0;
( end pass 2 of 2 )


( start pass 1 of 2 )
G0 X49.9 Y184.55;
S950;
G1 X51.98 Y190.53 F20;
G1 X57.47 Y187.39;
G1 X54.71 Y193.08;
G1 X60.82 Y194.75;
(addedblock start)
X58.29757739182175 Y195.62168861417845
S0
X57.35242260817825 Y195.94831138582154
S950
(added block end)
G1 X54.83 Y196.82;
G1 X57.98 Y202.31;
G1 X52.28 Y199.55;
G1 X50.62 Y205.66;
G1 X48.55 Y199.68;
G1 X43.05 Y202.82;
G1 X45.82 Y197.13;
G1 X39.71 Y195.46;
G1 X45.69 Y193.39;
G1 X42.55 Y187.9;
G1 X48.24 Y190.66;
G1 X49.9 Y184.55;
S0;
( end pass 1 of 2 )
( start pass 2 of 2 )
G0 X49.9 Y184.55;
S950;
G1 X51.98 Y190.53 F20;
G1 X57.47 Y187.39;
G1 X54.71 Y193.08;
G1 X60.82 Y194.75;
(addedblock start)
X58.29757739182175 Y195.62168861417845
S0
X57.35242260817825 Y195.94831138582154
S950
(added block end)
G1 X54.83 Y196.82;
G1 X57.98 Y202.31;
G1 X52.28 Y199.55;
G1 X50.62 Y205.66;
G1 X48.55 Y199.68;
G1 X43.05 Y202.82;
G1 X45.82 Y197.13;
G1 X39.71 Y195.46;
G1 X45.69 Y193.39;
G1 X42.55 Y187.9;
G1 X48.24 Y190.66;
G1 X49.9 Y184.55;
S0;
( end pass 2 of 2 )


( start pass 1 of 2 )
G0 X150.91 Y263.49;
S950;
G1 X168.81 Y273.11 F20;
G1 X174.95 Y253.74;
G1 X180.8 Y273.2;
G1 X198.84 Y263.83;
G1 X189.22 Y281.74;
G1 X208.6 Y287.88;
G1 X189.13 Y293.73;
G1 X198.5 Y311.77;
(addedblock start)
X189.9853775870737 Y307.1917859387783
S0
X189.1046224129263 Y306.71821406122166
S950
(added block end)
G1 X180.59 Y302.14;
G1 X174.46 Y321.52;
G1 X168.6 Y302.06;
G1 X150.56 Y311.43;
G1 X160.18 Y293.52;
G1 X140.81 Y287.39;
G1 X160.27 Y281.52;
G1 X150.91 Y263.49;
S0;
( end pass 1 of 2 )
( start pass 2 of 2 )
G0 X150.91 Y263.49;
S950;
G1 X168.81 Y273.11 F20;
G1 X174.95 Y253.74;
G1 X180.8 Y273.2;
G1 X198.84 Y263.83;
G1 X189.22 Y281.74;
G1 X208.6 Y287.88;
G1 X189.13 Y293.73;
G1 X198.5 Y311.77;
(addedblock start)
X189.9853775870737 Y307.1917859387783
S0
X189.1046224129263 Y306.71821406122166
S950
(added block end)
G1 X180.59 Y302.14;
G1 X174.46 Y321.52;
G1 X168.6 Y302.06;
G1 X150.56 Y311.43;
G1 X160.18 Y293.52;
G1 X140.81 Y287.39;
G1 X160.27 Y281.52;
G1 X150.91 Y263.49;
S0;
( end pass 2 of 2 )


( start pass 1 of 2 )
G0 X61.62 Y58.28;
S950;
G1 X13.78 Y58.28 F20;
G1 X13.78 Y34.9;
(addedblock start)
X37.199999999999996 Y34.9
S0
X38.199999999999996 Y34.9
S950
(added block end)
G1 X61.62 Y34.9;
G1 X61.62 Y58.28;
S0;
( end pass 1 of 2 )
( start pass 2 of 2 )
G0 X61.62 Y58.28;
S950;
G1 X13.78 Y58.28 F20;
G1 X13.78 Y34.9;
(addedblock start)
X37.199999999999996 Y34.9
S0
X38.199999999999996 Y34.9
S950
(added block end)
G1 X61.62 Y34.9;
G1 X61.62 Y58.28;
S0;
( end pass 2 of 2 )


( start pass 1 of 2 )
G0 X99.19 Y241.66;
S950;
G1 X77.27 Y241.66 F20;
(addedblock start)
X77.27 Y214.05
S0
X77.27 Y213.05
S950
(added block end)
G1 X77.27 Y185.44;
G1 X99.19 Y185.44;
G1 X99.19 Y241.66;
S0;
( end pass 1 of 2 )
( start pass 2 of 2 )
G0 X99.19 Y241.66;
S950;
G1 X77.27 Y241.66 F20;
(addedblock start)
X77.27 Y214.05
S0
X77.27 Y213.05
S950
(added block end)
G1 X77.27 Y185.44;
G1 X99.19 Y185.44;
G1 X99.19 Y241.66;
S0;
( end pass 2 of 2 )


( start pass 1 of 2 )
G0 X158.5 Y221.81;
S950;
G1 X146.51 Y221.81 F20;
(addedblock start)
X146.51 Y204.125
S0
X146.51 Y203.125
S950
(added block end)
G1 X146.51 Y185.44;
G1 X158.5 Y185.44;
G1 X158.5 Y221.81;
S0;
( end pass 1 of 2 )
( start pass 2 of 2 )
G0 X158.5 Y221.81;
S950;
G1 X146.51 Y221.81 F20;
(addedblock start)
X146.51 Y204.125
S0
X146.51 Y203.125
S950
(added block end)
G1 X146.51 Y185.44;
G1 X158.5 Y185.44;
G1 X158.5 Y221.81;
S0;
( end pass 2 of 2 )


( start pass 1 of 2 )
G0 X181.21 Y162.11;
S950;
G1 X125.81 Y162.11 F20;
G1 X125.81 Y150.08;
(addedblock start)
X153.01 Y150.08
S0
X154.01 Y150.08
S950
(added block end)
G1 X181.21 Y150.08;
G1 X181.21 Y162.11;
S0;
( end pass 1 of 2 )
( start pass 2 of 2 )
G0 X181.21 Y162.11;
S950;
G1 X125.81 Y162.11 F20;
G1 X125.81 Y150.08;
(addedblock start)
X153.01 Y150.08
S0
X154.01 Y150.08
S950
(added block end)
G1 X181.21 Y150.08;
G1 X181.21 Y162.11;
S0;
( end pass 2 of 2 )


( start pass 1 of 2 )
G0 X53.68 Y231.25;
S950;
G1 X24.46 Y231.25 F20;
G1 X24.46 Y207.83;
(addedblock start)
X38.57 Y207.83
S0
X39.57 Y207.83
S950
(added block end)
G1 X53.68 Y207.83;
G1 X53.68 Y231.25;
S0;
( end pass 1 of 2 )
( start pass 2 of 2 )
G0 X53.68 Y231.25;
S950;
G1 X24.46 Y231.25 F20;
G1 X24.46 Y207.83;
(addedblock start)
X38.57 Y207.83
S0
X39.57 Y207.83
S950
(added block end)
G1 X53.68 Y207.83;
G1 X53.68 Y231.25;
S0;
( end pass 2 of 2 )


( start pass 1 of 2 )
G0 X41.75 Y93.33;
S950;
G1 X25.85 Y93.33 F20;
(addedblock start)
X25.85 Y85.875
S0
X25.85 Y84.875
S950
(added block end)
G1 X25.85 Y77.42;
G1 X41.75 Y77.42;
G1 X41.75 Y93.33;
S0;
( end pass 1 of 2 )
( start pass 2 of 2 )
G0 X41.75 Y93.33;
S950;
G1 X25.85 Y93.33 F20;
(addedblock start)
X25.85 Y85.875
S0
X25.85 Y84.875
S950
(added block end)
G1 X25.85 Y77.42;
G1 X41.75 Y77.42;
G1 X41.75 Y93.33;
S0;
( end pass 2 of 2 )


( start pass 1 of 2 )
G0 X186.83 Y218.7;
S950;
G1 X186.63 Y218.67 F20;
G1 X186.44 Y218.56;
G1 X186.26 Y218.4;
G1 X186.08 Y218.17;
G1 X185.9 Y217.89;
G1 X185.74 Y217.54;
G1 X185.57 Y217.15;
G1 X185.42 Y216.7;
G1 X185.27 Y216.2;
G1 X185.14 Y215.65;
G1 X185.01 Y215.06;
G1 X184.89 Y214.43;
G1 X184.78 Y213.75;
G1 X184.68 Y213.04;
G1 X184.59 Y212.3;
G1 X184.51 Y211.52;
G1 X184.45 Y210.71;
G1 X184.39 Y209.87;
G1 X184.35 Y209.01;
G1 X184.33 Y208.13;
G1 X184.32 Y207.23;
G1 X184.32 Y206.91;
(addedblock start)
X184.32 Y202.57
S0
X184.32 Y201.57
S950
(added block end)
G1 X184.32 Y197.23;
G1 X184.34 Y195.63;
G1 X184.4 Y194.24;
G1 X184.49 Y192.91;
G1 X184.6 Y191.76;
G1 X184.73 Y190.69;
G1 X184.88 Y189.78;
G1 X185.04 Y188.94;
G1 X185.2 Y188.24;
G1 X185.37 Y187.61;
G1 X185.55 Y187.05;
G1 X185.75 Y186.57;
G1 X185.93 Y186.2;
G1 X186.13 Y185.9;
G1 X186.33 Y185.67;
G1 X186.53 Y185.52;
G1 X186.72 Y185.45;
G1 X186.83 Y185.44;
G1 X187.02 Y185.47;
G1 X187.21 Y185.58;
G1 X187.39 Y185.74;
G1 X187.57 Y185.97;
G1 X187.75 Y186.25;
G1 X187.91 Y186.6;
G1 X188.08 Y187.0;
G1 X188.23 Y187.45;
G1 X188.38 Y187.95;
G1 X188.51 Y188.49;
G1 X188.64 Y189.09;
G1 X188.76 Y189.72;
G1 X188.87 Y190.39;
G1 X188.97 Y191.1;
G1 X189.06 Y191.85;
G1 X189.14 Y192.63;
G1 X189.2 Y193.43;
G1 X189.26 Y194.27;
G1 X189.3 Y195.13;
G1 X189.32 Y196.01;
G1 X189.33 Y196.92;
G1 X189.34 Y197.23;
G1 X189.34 Y206.91;
G1 X189.31 Y208.51;
G1 X189.25 Y209.91;
G1 X189.16 Y211.24;
G1 X189.05 Y212.38;
G1 X188.92 Y213.46;
G1 X188.77 Y214.36;
G1 X188.61 Y215.2;
G1 X188.45 Y215.9;
G1 X188.28 Y216.53;
G1 X188.1 Y217.09;
G1 X187.9 Y217.57;
G1 X187.72 Y217.94;
G1 X187.52 Y218.24;
G1 X187.32 Y218.47;
G1 X187.12 Y218.62;
G1 X186.93 Y218.69;
G1 X186.83 Y218.7;
G1 X186.83 Y218.7;
S0;
( end pass 1 of 2 )
( start pass 2 of 2 )
G0 X186.83 Y218.7;
S950;
G1 X186.63 Y218.67 F20;
G1 X186.44 Y218.56;
G1 X186.26 Y218.4;
G1 X186.08 Y218.17;
G1 X185.9 Y217.89;
G1 X185.74 Y217.54;
G1 X185.57 Y217.15;
G1 X185.42 Y216.7;
G1 X185.27 Y216.2;
G1 X185.14 Y215.65;
G1 X185.01 Y215.06;
G1 X184.89 Y214.43;
G1 X184.78 Y213.75;
G1 X184.68 Y213.04;
G1 X184.59 Y212.3;
G1 X184.51 Y211.52;
G1 X184.45 Y210.71;
G1 X184.39 Y209.87;
G1 X184.35 Y209.01;
G1 X184.33 Y208.13;
G1 X184.32 Y207.23;
G1 X184.32 Y206.91;
(addedblock start)
X184.32 Y202.57
S0
X184.32 Y201.57
S950
(added block end)
G1 X184.32 Y197.23;
G1 X184.34 Y195.63;
G1 X184.4 Y194.24;
G1 X184.49 Y192.91;
G1 X184.6 Y191.76;
G1 X184.73 Y190.69;
G1 X184.88 Y189.78;
G1 X185.04 Y188.94;
G1 X185.2 Y188.24;
G1 X185.37 Y187.61;
G1 X185.55 Y187.05;
G1 X185.75 Y186.57;
G1 X185.93 Y186.2;
G1 X186.13 Y185.9;
G1 X186.33 Y185.67;
G1 X186.53 Y185.52;
G1 X186.72 Y185.45;
G1 X186.83 Y185.44;
G1 X187.02 Y185.47;
G1 X187.21 Y185.58;
G1 X187.39 Y185.74;
G1 X187.57 Y185.97;
G1 X187.75 Y186.25;
G1 X187.91 Y186.6;
G1 X188.08 Y187.0;
G1 X188.23 Y187.45;
G1 X188.38 Y187.95;
G1 X188.51 Y188.49;
G1 X188.64 Y189.09;
G1 X188.76 Y189.72;
G1 X188.87 Y190.39;
G1 X188.97 Y191.1;
G1 X189.06 Y191.85;
G1 X189.14 Y192.63;
G1 X189.2 Y193.43;
G1 X189.26 Y194.27;
G1 X189.3 Y195.13;
G1 X189.32 Y196.01;
G1 X189.33 Y196.92;
G1 X189.34 Y197.23;
G1 X189.34 Y206.91;
G1 X189.31 Y208.51;
G1 X189.25 Y209.91;
G1 X189.16 Y211.24;
G1 X189.05 Y212.38;
G1 X188.92 Y213.46;
G1 X188.77 Y214.36;
G1 X188.61 Y215.2;
G1 X188.45 Y215.9;
G1 X188.28 Y216.53;
G1 X188.1 Y217.09;
G1 X187.9 Y217.57;
G1 X187.72 Y217.94;
G1 X187.52 Y218.24;
G1 X187.32 Y218.47;
G1 X187.12 Y218.62;
G1 X186.93 Y218.69;
G1 X186.83 Y218.7;
G1 X186.83 Y218.7;
S0;
( end pass 2 of 2 )


( start pass 1 of 2 )
G0 X180.64 Y202.54;
S950;
G1 X180.34 Y202.5 F20;
G1 X180.05 Y202.4;
G1 X179.77 Y202.22;
G1 X179.5 Y201.99;
G1 X179.24 Y201.69;
G1 X178.99 Y201.33;
G1 X178.76 Y200.92;
G1 X178.54 Y200.46;
G1 X178.34 Y199.95;
G1 X178.16 Y199.39;
(addedSwitchblock start)
S0;
G1 X177.99 Y198.79;
G1 X177.85 Y198.16;
(addedSwitchblock end)
S950;
G1 X177.72 Y197.48;
G1 X177.62 Y196.78;
G1 X177.54 Y196.05;
G1 X177.48 Y195.29;
G1 X177.45 Y194.5;
G1 X177.45 Y193.99;
G1 X177.47 Y192.83;
G1 X177.56 Y191.72;
G1 X177.69 Y190.67;
G1 X177.86 Y189.77;
G1 X178.06 Y188.94;
G1 X178.27 Y188.24;
G1 X178.51 Y187.61;
G1 X178.77 Y187.04;
G1 X179.03 Y186.6;
G1 X179.3 Y186.22;
G1 X179.59 Y185.91;
G1 X179.89 Y185.67;
G1 X180.18 Y185.53;
G1 X180.47 Y185.45;
G1 X180.64 Y185.44;
G1 X180.93 Y185.48;
G1 X181.22 Y185.58;
G1 X181.5 Y185.76;
G1 X181.77 Y186.0;
G1 X182.03 Y186.29;
G1 X182.27 Y186.65;
G1 X182.5 Y187.06;
G1 X182.72 Y187.53;
G1 X182.92 Y188.04;
G1 X183.1 Y188.59;
G1 X183.27 Y189.19;
G1 X183.42 Y189.83;
G1 X183.54 Y190.5;
G1 X183.64 Y191.2;
G1 X183.72 Y191.94;
G1 X183.78 Y192.7;
G1 X183.81 Y193.48;
G1 X183.82 Y193.99;
G1 X183.79 Y195.15;
G1 X183.7 Y196.26;
G1 X183.58 Y197.22;
G1 X183.42 Y198.12;
G1 X183.22 Y198.97;
G1 X183.02 Y199.67;
G1 X182.78 Y200.31;
G1 X182.52 Y200.88;
G1 X182.27 Y201.34;
G1 X182.0 Y201.72;
G1 X181.71 Y202.04;
G1 X181.41 Y202.28;
G1 X181.13 Y202.44;
G1 X180.84 Y202.52;
G1 X180.64 Y202.54;
G1 X180.64 Y202.54;
S0;
( end pass 1 of 2 )
( start pass 2 of 2 )
G0 X180.64 Y202.54;
S950;
G1 X180.34 Y202.5 F20;
G1 X180.05 Y202.4;
G1 X179.77 Y202.22;
G1 X179.5 Y201.99;
G1 X179.24 Y201.69;
G1 X178.99 Y201.33;
G1 X178.76 Y200.92;
G1 X178.54 Y200.46;
G1 X178.34 Y199.95;
G1 X178.16 Y199.39;
(addedSwitchblock start)
S0;
G1 X177.99 Y198.79;
G1 X177.85 Y198.16;
(addedSwitchblock end)
S950;
G1 X177.72 Y197.48;
G1 X177.62 Y196.78;
G1 X177.54 Y196.05;
G1 X177.48 Y195.29;
G1 X177.45 Y194.5;
G1 X177.45 Y193.99;
G1 X177.47 Y192.83;
G1 X177.56 Y191.72;
G1 X177.69 Y190.67;
G1 X177.86 Y189.77;
G1 X178.06 Y188.94;
G1 X178.27 Y188.24;
G1 X178.51 Y187.61;
G1 X178.77 Y187.04;
G1 X179.03 Y186.6;
G1 X179.3 Y186.22;
G1 X179.59 Y185.91;
G1 X179.89 Y185.67;
G1 X180.18 Y185.53;
G1 X180.47 Y185.45;
G1 X180.64 Y185.44;
G1 X180.93 Y185.48;
G1 X181.22 Y185.58;
G1 X181.5 Y185.76;
G1 X181.77 Y186.0;
G1 X182.03 Y186.29;
G1 X182.27 Y186.65;
G1 X182.5 Y187.06;
G1 X182.72 Y187.53;
G1 X182.92 Y188.04;
G1 X183.1 Y188.59;
G1 X183.27 Y189.19;
G1 X183.42 Y189.83;
G1 X183.54 Y190.5;
G1 X183.64 Y191.2;
G1 X183.72 Y191.94;
G1 X183.78 Y192.7;
G1 X183.81 Y193.48;
G1 X183.82 Y193.99;
G1 X183.79 Y195.15;
G1 X183.7 Y196.26;
G1 X183.58 Y197.22;
G1 X183.42 Y198.12;
G1 X183.22 Y198.97;
G1 X183.02 Y199.67;
G1 X182.78 Y200.31;
G1 X182.52 Y200.88;
G1 X182.27 Y201.34;
G1 X182.0 Y201.72;
G1 X181.71 Y202.04;
G1 X181.41 Y202.28;
G1 X181.13 Y202.44;
G1 X180.84 Y202.52;
G1 X180.64 Y202.54;
G1 X180.64 Y202.54;
S0;
( end pass 2 of 2 )


( start pass 1 of 2 )
G0 X169.77 Y200.35;
S950;
G1 X169.79 Y198.52 F20;
G1 X169.86 Y196.91;
G1 X169.97 Y195.36;
G1 X170.1 Y194.02;
G1 X170.27 Y192.75;
(addedSwitchblock start)
S0;
G1 X170.44 Y191.66;
G1 X170.63 Y190.64;
(addedSwitchblock end)
S950;
G1 X170.85 Y189.69;
G1 X171.06 Y188.9;
G1 X171.28 Y188.18;
G1 X171.52 Y187.53;
G1 X171.75 Y187.01;
G1 X171.99 Y186.56;
G1 X172.24 Y186.18;
G1 X172.49 Y185.88;
G1 X172.75 Y185.65;
G1 X173.0 Y185.51;
G1 X173.25 Y185.45;
G1 X173.36 Y185.44;
G1 X173.61 Y185.48;
G1 X173.87 Y185.59;
G1 X174.12 Y185.79;
G1 X174.37 Y186.05;
G1 X174.62 Y186.39;
G1 X174.85 Y186.8;
G1 X175.08 Y187.28;
G1 X175.3 Y187.82;
G1 X175.51 Y188.43;
G1 X175.71 Y189.11;
G1 X175.9 Y189.81;
G1 X176.11 Y190.77;
G1 X176.3 Y191.8;
G1 X176.46 Y192.89;
G1 X176.61 Y194.03;
G1 X176.72 Y195.21;
G1 X176.82 Y196.44;
G1 X176.89 Y197.7;
G1 X176.93 Y198.98;
G1 X176.95 Y200.28;
G1 X176.95 Y200.35;
G1 X176.92 Y202.25;
G1 X176.83 Y204.11;
G1 X176.7 Y205.74;
G1 X176.55 Y207.16;
G1 X176.38 Y208.38;
G1 X176.18 Y209.54;
G1 X175.98 Y210.53;
G1 X175.9 Y210.89;
G1 X175.69 Y211.7;
G1 X175.46 Y212.43;
G1 X175.25 Y213.02;
G1 X175.03 Y213.55;
G1 X174.8 Y214.01;
G1 X174.56 Y214.4;
G1 X174.31 Y214.72;
G1 X174.06 Y214.97;
G1 X173.81 Y215.14;
G1 X173.55 Y215.24;
G1 X173.36 Y215.26;
G1 X173.1 Y215.22;
G1 X172.86 Y215.12;
G1 X172.62 Y214.94;
G1 X172.38 Y214.7;
G1 X172.15 Y214.4;
G1 X171.93 Y214.04;
G1 X171.72 Y213.61;
G1 X171.51 Y213.14;
G1 X171.31 Y212.6;
G1 X171.12 Y212.02;
G1 X170.94 Y211.39;
G1 X170.77 Y210.71;
G1 X170.62 Y209.99;
G1 X170.47 Y209.22;
G1 X170.34 Y208.42;
G1 X170.22 Y207.58;
G1 X170.11 Y206.7;
G1 X170.01 Y205.79;
G1 X169.93 Y204.85;
G1 X169.87 Y203.89;
G1 X169.82 Y202.9;
G1 X169.78 Y201.88;
G1 X169.77 Y200.85;
G1 X169.77 Y200.35;
G1 X169.77 Y200.35;
S0;
( end pass 1 of 2 )
( start pass 2 of 2 )
G0 X169.77 Y200.35;
S950;
G1 X169.79 Y198.52 F20;
G1 X169.86 Y196.91;
G1 X169.97 Y195.36;
G1 X170.1 Y194.02;
G1 X170.27 Y192.75;
(addedSwitchblock start)
S0;
G1 X170.44 Y191.66;
G1 X170.63 Y190.64;
(addedSwitchblock end)
S950;
G1 X170.85 Y189.69;
G1 X171.06 Y188.9;
G1 X171.28 Y188.18;
G1 X171.52 Y187.53;
G1 X171.75 Y187.01;
G1 X171.99 Y186.56;
G1 X172.24 Y186.18;
G1 X172.49 Y185.88;
G1 X172.75 Y185.65;
G1 X173.0 Y185.51;
G1 X173.25 Y185.45;
G1 X173.36 Y185.44;
G1 X173.61 Y185.48;
G1 X173.87 Y185.59;
G1 X174.12 Y185.79;
G1 X174.37 Y186.05;
G1 X174.62 Y186.39;
G1 X174.85 Y186.8;
G1 X175.08 Y187.28;
G1 X175.3 Y187.82;
G1 X175.51 Y188.43;
G1 X175.71 Y189.11;
G1 X175.9 Y189.81;
G1 X176.11 Y190.77;
G1 X176.3 Y191.8;
G1 X176.46 Y192.89;
G1 X176.61 Y194.03;
G1 X176.72 Y195.21;
G1 X176.82 Y196.44;
G1 X176.89 Y197.7;
G1 X176.93 Y198.98;
G1 X176.95 Y200.28;
G1 X176.95 Y200.35;
G1 X176.92 Y202.25;
G1 X176.83 Y204.11;
G1 X176.7 Y205.74;
G1 X176.55 Y207.16;
G1 X176.38 Y208.38;
G1 X176.18 Y209.54;
G1 X175.98 Y210.53;
G1 X175.9 Y210.89;
G1 X175.69 Y211.7;
G1 X175.46 Y212.43;
G1 X175.25 Y213.02;
G1 X175.03 Y213.55;
G1 X174.8 Y214.01;
G1 X174.56 Y214.4;
G1 X174.31 Y214.72;
G1 X174.06 Y214.97;
G1 X173.81 Y215.14;
G1 X173.55 Y215.24;
G1 X173.36 Y215.26;
G1 X173.1 Y215.22;
G1 X172.86 Y215.12;
G1 X172.62 Y214.94;
G1 X172.38 Y214.7;
G1 X172.15 Y214.4;
G1 X171.93 Y214.04;
G1 X171.72 Y213.61;
G1 X171.51 Y213.14;
G1 X171.31 Y212.6;
G1 X171.12 Y212.02;
G1 X170.94 Y211.39;
G1 X170.77 Y210.71;
G1 X170.62 Y209.99;
G1 X170.47 Y209.22;
G1 X170.34 Y208.42;
G1 X170.22 Y207.58;
G1 X170.11 Y206.7;
G1 X170.01 Y205.79;
G1 X169.93 Y204.85;
G1 X169.87 Y203.89;
G1 X169.82 Y202.9;
G1 X169.78 Y201.88;
G1 X169.77 Y200.85;
G1 X169.77 Y200.35;
G1 X169.77 Y200.35;
S0;
( end pass 2 of 2 )


( start pass 1 of 2 )
G0 X64.33 Y134.27;
S950;
G1 X64.36 Y133.19 F20;
G1 X64.47 Y132.15;
G1 X64.66 Y131.13;
G1 X64.9 Y130.15;
G1 X65.22 Y129.19;
G1 X65.59 Y128.29;
G1 X66.02 Y127.42;
G1 X66.51 Y126.59;
G1 X67.05 Y125.82;
(addedSwitchblock start)
S0;
G1 X67.64 Y125.1;
G1 X68.27 Y124.44;
(addedSwitchblock end)
S950;
G1 X68.95 Y123.84;
G1 X69.67 Y123.3;
G1 X70.43 Y122.83;
G1 X71.22 Y122.43;
G1 X71.95 Y122.13;
G1 X72.73 Y121.89;
G1 X73.52 Y121.72;
G1 X74.33 Y121.63;
G1 X75.03 Y121.6;
G1 X75.84 Y121.64;
G1 X76.65 Y121.75;
G1 X77.44 Y121.92;
G1 X78.2 Y122.17;
G1 X78.95 Y122.48;
G1 X79.66 Y122.85;
G1 X80.34 Y123.28;
G1 X81.01 Y123.76;
G1 X81.63 Y124.3;
G1 X82.22 Y124.89;
G1 X82.77 Y125.52;
G1 X83.28 Y126.21;
G1 X83.75 Y126.93;
G1 X84.17 Y127.69;
G1 X84.55 Y128.49;
G1 X84.88 Y129.33;
G1 X85.16 Y130.19;
G1 X85.39 Y131.09;
G1 X85.56 Y132.02;
G1 X85.67 Y132.96;
G1 X85.72 Y133.93;
G1 X85.73 Y134.27;
G1 X85.69 Y135.34;
G1 X85.58 Y136.38;
G1 X85.4 Y137.4;
G1 X85.15 Y138.38;
G1 X84.83 Y139.34;
G1 X84.46 Y140.25;
G1 X84.03 Y141.12;
G1 X83.54 Y141.94;
G1 X83.0 Y142.71;
G1 X82.41 Y143.43;
G1 X81.78 Y144.09;
G1 X81.09 Y144.69;
G1 X80.38 Y145.22;
G1 X79.62 Y145.69;
G1 X78.83 Y146.1;
G1 X78.09 Y146.4;
G1 X77.31 Y146.63;
G1 X76.53 Y146.81;
G1 X75.72 Y146.9;
G1 X75.03 Y146.93;
G1 X74.2 Y146.88;
G1 X73.4 Y146.78;
G1 X72.61 Y146.61;
G1 X71.84 Y146.36;
G1 X71.09 Y146.05;
G1 X70.39 Y145.68;
G1 X69.7 Y145.25;
G1 X69.04 Y144.77;
G1 X68.42 Y144.22;
G1 X67.83 Y143.63;
G1 X67.28 Y143.01;
G1 X66.77 Y142.33;
G1 X66.3 Y141.6;
G1 X65.88 Y140.84;
G1 X65.5 Y140.04;
G1 X65.17 Y139.19;
G1 X64.89 Y138.34;
G1 X64.66 Y137.44;
G1 X64.48 Y136.52;
G1 X64.38 Y135.57;
G1 X64.33 Y134.61;
G1 X64.33 Y134.27;
G1 X64.33 Y134.27;
S0;
( end pass 1 of 2 )
( start pass 2 of 2 )
G0 X64.33 Y134.27;
S950;
G1 X64.36 Y133.19 F20;
G1 X64.47 Y132.15;
G1 X64.66 Y131.13;
G1 X64.9 Y130.15;
G1 X65.22 Y129.19;
G1 X65.59 Y128.29;
G1 X66.02 Y127.42;
G1 X66.51 Y126.59;
G1 X67.05 Y125.82;
(addedSwitchblock start)
S0;
G1 X67.64 Y125.1;
G1 X68.27 Y124.44;
(addedSwitchblock end)
S950;
G1 X68.95 Y123.84;
G1 X69.67 Y123.3;
G1 X70.43 Y122.83;
G1 X71.22 Y122.43;
G1 X71.95 Y122.13;
G1 X72.73 Y121.89;
G1 X73.52 Y121.72;
G1 X74.33 Y121.63;
G1 X75.03 Y121.6;
G1 X75.84 Y121.64;
G1 X76.65 Y121.75;
G1 X77.44 Y121.92;
G1 X78.2 Y122.17;
G1 X78.95 Y122.48;
G1 X79.66 Y122.85;
G1 X80.34 Y123.28;
G1 X81.01 Y123.76;
G1 X81.63 Y124.3;
G1 X82.22 Y124.89;
G1 X82.77 Y125.52;
G1 X83.28 Y126.21;
G1 X83.75 Y126.93;
G1 X84.17 Y127.69;
G1 X84.55 Y128.49;
G1 X84.88 Y129.33;
G1 X85.16 Y130.19;
G1 X85.39 Y131.09;
G1 X85.56 Y132.02;
G1 X85.67 Y132.96;
G1 X85.72 Y133.93;
G1 X85.73 Y134.27;
G1 X85.69 Y135.34;
G1 X85.58 Y136.38;
G1 X85.4 Y137.4;
G1 X85.15 Y138.38;
G1 X84.83 Y139.34;
G1 X84.46 Y140.25;
G1 X84.03 Y141.12;
G1 X83.54 Y141.94;
G1 X83.0 Y142.71;
G1 X82.41 Y143.43;
G1 X81.78 Y144.09;
G1 X81.09 Y144.69;
G1 X80.38 Y145.22;
G1 X79.62 Y145.69;
G1 X78.83 Y146.1;
G1 X78.09 Y146.4;
G1 X77.31 Y146.63;
G1 X76.53 Y146.81;
G1 X75.72 Y146.9;
G1 X75.03 Y146.93;
G1 X74.2 Y146.88;
G1 X73.4 Y146.78;
G1 X72.61 Y146.61;
G1 X71.84 Y146.36;
G1 X71.09 Y146.05;
G1 X70.39 Y145.68;
G1 X69.7 Y145.25;
G1 X69.04 Y144.77;
G1 X68.42 Y144.22;
G1 X67.83 Y143.63;
G1 X67.28 Y143.01;
G1 X66.77 Y142.33;
G1 X66.3 Y141.6;
G1 X65.88 Y140.84;
G1 X65.5 Y140.04;
G1 X65.17 Y139.19;
G1 X64.89 Y138.34;
G1 X64.66 Y137.44;
G1 X64.48 Y136.52;
G1 X64.38 Y135.57;
G1 X64.33 Y134.61;
G1 X64.33 Y134.27;
G1 X64.33 Y134.27;
S0;
( end pass 2 of 2 )


( start pass 1 of 2 )
G0 X163.05 Y10.52;
S950;
G1 X163.08 Y10.18 F20;
G1 X163.19 Y9.85;
G1 X163.38 Y9.52;
G1 X163.63 Y9.21;
G1 X163.97 Y8.9;
G1 X164.36 Y8.6;
G1 X164.81 Y8.31;
G1 X165.33 Y8.02;
G1 X165.9 Y7.75;
G1 X166.54 Y7.49;
G1 X167.22 Y7.24;
G1 X167.96 Y7.0;
G1 X168.75 Y6.77;
G1 X169.59 Y6.56;
G1 X170.47 Y6.36;
(addedSwitchblock start)
S0;
G1 X171.39 Y6.18;
G1 X172.36 Y6.0;
(addedSwitchblock end)
S950;
G1 X173.36 Y5.85;
G1 X174.41 Y5.71;
G1 X175.48 Y5.59;
G1 X176.59 Y5.49;
G1 X177.72 Y5.4;
G1 X178.88 Y5.33;
G1 X180.07 Y5.28;
G1 X181.28 Y5.26;
G1 X182.3 Y5.25;
G1 X184.26 Y5.28;
G1 X186.17 Y5.36;
G1 X187.84 Y5.47;
G1 X189.46 Y5.63;
G1 X190.87 Y5.8;
G1 X192.21 Y6.0;
G1 X193.49 Y6.23;
G1 X194.59 Y6.46;
G1 X195.62 Y6.72;
G1 X196.58 Y6.99;
G1 X197.48 Y7.28;
G1 X198.22 Y7.56;
G1 X198.9 Y7.85;
G1 X199.5 Y8.16;
G1 X200.04 Y8.47;
G1 X200.5 Y8.8;
G1 X200.85 Y9.11;
G1 X201.13 Y9.42;
G1 X201.34 Y9.74;
G1 X201.48 Y10.07;
G1 X201.54 Y10.4;
G1 X201.55 Y10.52;
G1 X201.51 Y10.84;
G1 X201.41 Y11.15;
G1 X201.24 Y11.46;
G1 X201.0 Y11.76;
G1 X200.7 Y12.06;
G1 X200.34 Y12.36;
G1 X199.91 Y12.64;
G1 X199.43 Y12.92;
G1 X198.88 Y13.2;
G1 X198.27 Y13.46;
G1 X197.61 Y13.71;
G1 X196.89 Y13.95;
G1 X196.11 Y14.18;
G1 X195.91 Y14.24;
G1 X194.78 Y14.53;
G1 X193.58 Y14.78;
G1 X192.32 Y15.01;
G1 X191.0 Y15.22;
G1 X189.63 Y15.39;
G1 X188.21 Y15.53;
G1 X186.76 Y15.65;
G1 X185.27 Y15.73;
G1 X183.76 Y15.77;
G1 X182.3 Y15.79;
G1 X180.26 Y15.76;
G1 X178.26 Y15.67;
G1 X176.49 Y15.54;
G1 X174.78 Y15.37;
G1 X173.28 Y15.17;
G1 X171.84 Y14.94;
G1 X170.6 Y14.7;
G1 X169.43 Y14.44;
G1 X168.68 Y14.24;
G1 X167.81 Y13.99;
G1 X167.01 Y13.72;
G1 X166.28 Y13.45;
G1 X165.62 Y13.16;
G1 X165.03 Y12.86;
G1 X164.52 Y12.55;
G1 X164.08 Y12.23;
G1 X163.71 Y11.9;
G1 X163.43 Y11.57;
G1 X163.22 Y11.23;
G1 X163.1 Y10.92;
G1 X163.05 Y10.6;
G1 X163.05 Y10.52;
G1 X163.05 Y10.52;
S0;
( end pass 1 of 2 )
( start pass 2 of 2 )
G0 X163.05 Y10.52;
S950;
G1 X163.08 Y10.18 F20;
G1 X163.19 Y9.85;
G1 X163.38 Y9.52;
G1 X163.63 Y9.21;
G1 X163.97 Y8.9;
G1 X164.36 Y8.6;
G1 X164.81 Y8.31;
G1 X165.33 Y8.02;
G1 X165.9 Y7.75;
G1 X166.54 Y7.49;
G1 X167.22 Y7.24;
G1 X167.96 Y7.0;
G1 X168.75 Y6.77;
G1 X169.59 Y6.56;
G1 X170.47 Y6.36;
(addedSwitchblock start)
S0;
G1 X171.39 Y6.18;
G1 X172.36 Y6.0;
(addedSwitchblock end)
S950;
G1 X173.36 Y5.85;
G1 X174.41 Y5.71;
G1 X175.48 Y5.59;
G1 X176.59 Y5.49;
G1 X177.72 Y5.4;
G1 X178.88 Y5.33;
G1 X180.07 Y5.28;
G1 X181.28 Y5.26;
G1 X182.3 Y5.25;
G1 X184.26 Y5.28;
G1 X186.17 Y5.36;
G1 X187.84 Y5.47;
G1 X189.46 Y5.63;
G1 X190.87 Y5.8;
G1 X192.21 Y6.0;
G1 X193.49 Y6.23;
G1 X194.59 Y6.46;
G1 X195.62 Y6.72;
G1 X196.58 Y6.99;
G1 X197.48 Y7.28;
G1 X198.22 Y7.56;
G1 X198.9 Y7.85;
G1 X199.5 Y8.16;
G1 X200.04 Y8.47;
G1 X200.5 Y8.8;
G1 X200.85 Y9.11;
G1 X201.13 Y9.42;
G1 X201.34 Y9.74;
G1 X201.48 Y10.07;
G1 X201.54 Y10.4;
G1 X201.55 Y10.52;
G1 X201.51 Y10.84;
G1 X201.41 Y11.15;
G1 X201.24 Y11.46;
G1 X201.0 Y11.76;
G1 X200.7 Y12.06;
G1 X200.34 Y12.36;
G1 X199.91 Y12.64;
G1 X199.43 Y12.92;
G1 X198.88 Y13.2;
G1 X198.27 Y13.46;
G1 X197.61 Y13.71;
G1 X196.89 Y13.95;
G1 X196.11 Y14.18;
G1 X195.91 Y14.24;
G1 X194.78 Y14.53;
G1 X193.58 Y14.78;
G1 X192.32 Y15.01;
G1 X191.0 Y15.22;
G1 X189.63 Y15.39;
G1 X188.21 Y15.53;
G1 X186.76 Y15.65;
G1 X185.27 Y15.73;
G1 X183.76 Y15.77;
G1 X182.3 Y15.79;
G1 X180.26 Y15.76;
G1 X178.26 Y15.67;
G1 X176.49 Y15.54;
G1 X174.78 Y15.37;
G1 X173.28 Y15.17;
G1 X171.84 Y14.94;
G1 X170.6 Y14.7;
G1 X169.43 Y14.44;
G1 X168.68 Y14.24;
G1 X167.81 Y13.99;
G1 X167.01 Y13.72;
G1 X166.28 Y13.45;
G1 X165.62 Y13.16;
G1 X165.03 Y12.86;
G1 X164.52 Y12.55;
G1 X164.08 Y12.23;
G1 X163.71 Y11.9;
G1 X163.43 Y11.57;
G1 X163.22 Y11.23;
G1 X163.1 Y10.92;
G1 X163.05 Y10.6;
G1 X163.05 Y10.52;
G1 X163.05 Y10.52;
S0;
( end pass 2 of 2 )


( start pass 1 of 2 )
G0 X54.18 Y237.92;
S950;
G1 X54.2 Y235.74 F20;
G1 X54.28 Y233.6;
G1 X54.41 Y231.5;
G1 X54.6 Y229.46;
G1 X54.83 Y227.47;
G1 X55.1 Y225.54;
G1 X55.39 Y223.85;
G1 X55.72 Y222.21;
G1 X56.07 Y220.63;
(addedSwitchblock start)
S0;
G1 X56.46 Y219.12;
G1 X56.89 Y217.67;
(addedSwitchblock end)
S950;
G1 X57.34 Y216.3;
G1 X57.77 Y215.12;
G1 X58.23 Y214.0;
G1 X58.71 Y212.96;
G1 X59.21 Y211.98;
G1 X59.73 Y211.08;
G1 X60.22 Y210.33;
G1 X60.72 Y209.64;
G1 X61.24 Y209.02;
G1 X61.77 Y208.48;
G1 X62.31 Y208.0;
G1 X62.86 Y207.6;
G1 X63.43 Y207.27;
G1 X64.0 Y207.02;
G1 X64.53 Y206.87;
G1 X65.06 Y206.78;
G1 X65.48 Y206.76;
G1 X66.03 Y206.8;
G1 X66.59 Y206.91;
G1 X67.14 Y207.1;
G1 X67.68 Y207.36;
G1 X68.22 Y207.7;
G1 X68.75 Y208.1;
G1 X69.27 Y208.58;
G1 X69.78 Y209.12;
G1 X70.28 Y209.73;
G1 X70.78 Y210.41;
G1 X71.26 Y211.16;
G1 X71.72 Y211.97;
G1 X72.17 Y212.85;
G1 X72.61 Y213.79;
G1 X73.04 Y214.79;
G1 X73.44 Y215.85;
G1 X73.45 Y215.89;
G1 X73.92 Y217.25;
G1 X74.34 Y218.67;
G1 X74.75 Y220.16;
G1 X75.11 Y221.7;
G1 X75.44 Y223.3;
G1 X75.73 Y224.94;
G1 X76.0 Y226.63;
G1 X76.22 Y228.36;
G1 X76.41 Y230.13;
G1 X76.55 Y231.92;
G1 X76.66 Y233.74;
G1 X76.73 Y235.59;
G1 X76.76 Y237.45;
G1 X76.77 Y237.92;
G1 X76.73 Y240.4;
G1 X76.62 Y242.85;
G1 X76.47 Y245.04;
G1 X76.25 Y247.19;
G1 X75.98 Y249.28;
G1 X75.7 Y251.14;
G1 X75.37 Y252.94;
G1 X74.98 Y254.68;
G1 X74.62 Y256.2;
G1 X74.2 Y257.67;
G1 X73.77 Y259.07;
G1 X73.45 Y259.95;
G1 X73.01 Y261.13;
G1 X72.54 Y262.22;
G1 X72.06 Y263.24;
G1 X71.55 Y264.18;
G1 X71.08 Y264.97;
G1 X70.59 Y265.69;
G1 X70.09 Y266.35;
G1 X69.59 Y266.94;
G1 X69.08 Y267.45;
G1 X68.56 Y267.91;
G1 X68.02 Y268.27;
G1 X67.48 Y268.58;
G1 X66.94 Y268.83;
G1 X66.39 Y268.99;
G1 X65.83 Y269.07;
G1 X65.48 Y269.08;
G1 X64.93 Y269.05;
G1 X64.4 Y268.95;
G1 X63.87 Y268.77;
G1 X63.35 Y268.54;
G1 X62.84 Y268.24;
G1 X62.34 Y267.87;
G1 X61.84 Y267.44;
G1 X61.36 Y266.95;
G1 X60.89 Y266.41;
G1 X60.42 Y265.81;
G1 X59.97 Y265.14;
G1 X59.54 Y264.44;
G1 X59.11 Y263.68;
G1 X58.7 Y262.87;
G1 X58.3 Y262.01;
G1 X57.92 Y261.1;
G1 X57.55 Y260.14;
G1 X57.2 Y259.14;
G1 X56.86 Y258.11;
G1 X56.55 Y257.02;
G1 X56.24 Y255.91;
G1 X55.96 Y254.75;
G1 X55.7 Y253.55;
G1 X55.45 Y252.32;
G1 X55.23 Y251.06;
G1 X55.02 Y249.77;
G1 X54.84 Y248.45;
G1 X54.67 Y247.09;
G1 X54.53 Y245.72;
G1 X54.41 Y244.31;
G1 X54.32 Y242.89;
G1 X54.25 Y241.44;
G1 X54.2 Y239.97;
G1 X54.18 Y238.48;
G1 X54.18 Y237.92;
G1 X54.18 Y237.92;
S0;
( end pass 1 of 2 )
( start pass 2 of 2 )
G0 X54.18 Y237.92;
S950;
G1 X54.2 Y235.74 F20;
G1 X54.28 Y233.6;
G1 X54.41 Y231.5;
G1 X54.6 Y229.46;
G1 X54.83 Y227.47;
G1 X55.1 Y225.54;
G1 X55.39 Y223.85;
G1 X55.72 Y222.21;
G1 X56.07 Y220.63;
(addedSwitchblock start)
S0;
G1 X56.46 Y219.12;
G1 X56.89 Y217.67;
(addedSwitchblock end)
S950;
G1 X57.34 Y216.3;
G1 X57.77 Y215.12;
G1 X58.23 Y214.0;
G1 X58.71 Y212.96;
G1 X59.21 Y211.98;
G1 X59.73 Y211.08;
G1 X60.22 Y210.33;
G1 X60.72 Y209.64;
G1 X61.24 Y209.02;
G1 X61.77 Y208.48;
G1 X62.31 Y208.0;
G1 X62.86 Y207.6;
G1 X63.43 Y207.27;
G1 X64.0 Y207.02;
G1 X64.53 Y206.87;
G1 X65.06 Y206.78;
G1 X65.48 Y206.76;
G1 X66.03 Y206.8;
G1 X66.59 Y206.91;
G1 X67.14 Y207.1;
G1 X67.68 Y207.36;
G1 X68.22 Y207.7;
G1 X68.75 Y208.1;
G1 X69.27 Y208.58;
G1 X69.78 Y209.12;
G1 X70.28 Y209.73;
G1 X70.78 Y210.41;
G1 X71.26 Y211.16;
G1 X71.72 Y211.97;
G1 X72.17 Y212.85;
G1 X72.61 Y213.79;
G1 X73.04 Y214.79;
G1 X73.44 Y215.85;
G1 X73.45 Y215.89;
G1 X73.92 Y217.25;
G1 X74.34 Y218.67;
G1 X74.75 Y220.16;
G1 X75.11 Y221.7;
G1 X75.44 Y223.3;
G1 X75.73 Y224.94;
G1 X76.0 Y226.63;
G1 X76.22 Y228.36;
G1 X76.41 Y230.13;
G1 X76.55 Y231.92;
G1 X76.66 Y233.74;
G1 X76.73 Y235.59;
G1 X76.76 Y237.45;
G1 X76.77 Y237.92;
G1 X76.73 Y240.4;
G1 X76.62 Y242.85;
G1 X76.47 Y245.04;
G1 X76.25 Y247.19;
G1 X75.98 Y249.28;
G1 X75.7 Y251.14;
G1 X75.37 Y252.94;
G1 X74.98 Y254.68;
G1 X74.62 Y256.2;
G1 X74.2 Y257.67;
G1 X73.77 Y259.07;
G1 X73.45 Y259.95;
G1 X73.01 Y261.13;
G1 X72.54 Y262.22;
G1 X72.06 Y263.24;
G1 X71.55 Y264.18;
G1 X71.08 Y264.97;
G1 X70.59 Y265.69;
G1 X70.09 Y266.35;
G1 X69.59 Y266.94;
G1 X69.08 Y267.45;
G1 X68.56 Y267.91;
G1 X68.02 Y268.27;
G1 X67.48 Y268.58;
G1 X66.94 Y268.83;
G1 X66.39 Y268.99;
G1 X65.83 Y269.07;
G1 X65.48 Y269.08;
G1 X64.93 Y269.05;
G1 X64.4 Y268.95;
G1 X63.87 Y268.77;
G1 X63.35 Y268.54;
G1 X62.84 Y268.24;
G1 X62.34 Y267.87;
G1 X61.84 Y267.44;
G1 X61.36 Y266.95;
G1 X60.89 Y266.41;
G1 X60.42 Y265.81;
G1 X59.97 Y265.14;
G1 X59.54 Y264.44;
G1 X59.11 Y263.68;
G1 X58.7 Y262.87;
G1 X58.3 Y262.01;
G1 X57.92 Y261.1;
G1 X57.55 Y260.14;
G1 X57.2 Y259.14;
G1 X56.86 Y258.11;
G1 X56.55 Y257.02;
G1 X56.24 Y255.91;
G1 X55.96 Y254.75;
G1 X55.7 Y253.55;
G1 X55.45 Y252.32;
G1 X55.23 Y251.06;
G1 X55.02 Y249.77;
G1 X54.84 Y248.45;
G1 X54.67 Y247.09;
G1 X54.53 Y245.72;
G1 X54.41 Y244.31;
G1 X54.32 Y242.89;
G1 X54.25 Y241.44;
G1 X54.2 Y239.97;
G1 X54.18 Y238.48;
G1 X54.18 Y237.92;
G1 X54.18 Y237.92;
S0;
( end pass 2 of 2 )


( start pass 1 of 2 )
G0 X29.69 Y140.72;
S950;
G1 X29.65 Y138.96 F20;
G1 X29.55 Y137.22;
G1 X29.38 Y135.51;
G1 X29.17 Y134.0;
G1 X28.9 Y132.54;
G1 X28.62 Y131.27;
G1 X28.29 Y130.07;
(addedSwitchblock start)
S0;
G1 X27.97 Y129.03;
G1 X27.61 Y128.05;
(addedSwitchblock end)
S950;
G1 X27.22 Y127.15;
G1 X26.81 Y126.32;
G1 X26.42 Y125.63;
G1 X26.01 Y125.01;
G1 X25.58 Y124.46;
G1 X25.14 Y123.98;
G1 X24.69 Y123.58;
G1 X24.23 Y123.25;
G1 X23.76 Y123.0;
G1 X23.29 Y122.83;
G1 X22.85 Y122.75;
G1 X22.52 Y122.73;
G1 X22.08 Y122.76;
G1 X21.65 Y122.86;
G1 X21.22 Y123.03;
G1 X20.79 Y123.26;
G1 X20.37 Y123.55;
G1 X19.96 Y123.91;
G1 X19.55 Y124.34;
G1 X19.17 Y124.82;
G1 X18.79 Y125.36;
G1 X18.42 Y125.96;
G1 X18.07 Y126.61;
G1 X17.73 Y127.31;
G1 X17.42 Y128.07;
G1 X17.13 Y128.87;
G1 X16.85 Y129.71;
G1 X16.59 Y130.6;
G1 X16.36 Y131.52;
G1 X16.14 Y132.47;
G1 X15.96 Y133.46;
G1 X15.79 Y134.47;
G1 X15.66 Y135.52;
G1 X15.54 Y136.57;
G1 X15.45 Y137.63;
G1 X15.39 Y138.72;
G1 X15.36 Y139.82;
G1 X15.35 Y140.72;
G1 X15.38 Y142.47;
G1 X15.49 Y144.22;
G1 X15.66 Y145.93;
G1 X15.87 Y147.44;
G1 X16.13 Y148.9;
G1 X16.42 Y150.16;
G1 X16.73 Y151.38;
G1 X17.07 Y152.41;
G1 X17.43 Y153.38;
G1 X17.8 Y154.29;
G1 X18.22 Y155.12;
G1 X18.62 Y155.81;
G1 X19.03 Y156.43;
G1 X19.45 Y156.97;
G1 X19.89 Y157.46;
G1 X20.34 Y157.87;
G1 X20.81 Y158.19;
G1 X21.28 Y158.44;
G1 X21.75 Y158.61;
G1 X22.19 Y158.69;
G1 X22.52 Y158.71;
G1 X22.95 Y158.68;
G1 X23.39 Y158.58;
G1 X23.82 Y158.41;
G1 X24.25 Y158.18;
G1 X24.67 Y157.88;
G1 X25.08 Y157.53;
G1 X25.48 Y157.11;
G1 X25.87 Y156.62;
G1 X26.25 Y156.08;
G1 X26.61 Y155.49;
G1 X26.96 Y154.83;
G1 X27.3 Y154.13;
G1 X27.61 Y153.38;
G1 X27.91 Y152.57;
G1 X28.19 Y151.72;
G1 X28.44 Y150.84;
G1 X28.68 Y149.91;
G1 X28.89 Y148.97;
G1 X29.08 Y147.97;
G1 X29.24 Y146.96;
G1 X29.38 Y145.93;
G1 X29.49 Y144.87;
G1 X29.58 Y143.8;
G1 X29.64 Y142.71;
G1 X29.68 Y141.62;
G1 X29.69 Y140.72;
G1 X29.69 Y140.72;
S0;
( end pass 1 of 2 )
( start pass 2 of 2 )
G0 X29.69 Y140.72;
S950;
G1 X29.65 Y138.96 F20;
G1 X29.55 Y137.22;
G1 X29.38 Y135.51;
G1 X29.17 Y134.0;
G1 X28.9 Y132.54;
G1 X28.62 Y131.27;
G1 X28.29 Y130.07;
(addedSwitchblock start)
S0;
G1 X27.97 Y129.03;
G1 X27.61 Y128.05;
(addedSwitchblock end)
S950;
G1 X27.22 Y127.15;
G1 X26.81 Y126.32;
G1 X26.42 Y125.63;
G1 X26.01 Y125.01;
G1 X25.58 Y124.46;
G1 X25.14 Y123.98;
G1 X24.69 Y123.58;
G1 X24.23 Y123.25;
G1 X23.76 Y123.0;
G1 X23.29 Y122.83;
G1 X22.85 Y122.75;
G1 X22.52 Y122.73;
G1 X22.08 Y122.76;
G1 X21.65 Y122.86;
G1 X21.22 Y123.03;
G1 X20.79 Y123.26;
G1 X20.37 Y123.55;
G1 X19.96 Y123.91;
G1 X19.55 Y124.34;
G1 X19.17 Y124.82;
G1 X18.79 Y125.36;
G1 X18.42 Y125.96;
G1 X18.07 Y126.61;
G1 X17.73 Y127.31;
G1 X17.42 Y128.07;
G1 X17.13 Y128.87;
G1 X16.85 Y129.71;
G1 X16.59 Y130.6;
G1 X16.36 Y131.52;
G1 X16.14 Y132.47;
G1 X15.96 Y133.46;
G1 X15.79 Y134.47;
G1 X15.66 Y135.52;
G1 X15.54 Y136.57;
G1 X15.45 Y137.63;
G1 X15.39 Y138.72;
G1 X15.36 Y139.82;
G1 X15.35 Y140.72;
G1 X15.38 Y142.47;
G1 X15.49 Y144.22;
G1 X15.66 Y145.93;
G1 X15.87 Y147.44;
G1 X16.13 Y148.9;
G1 X16.42 Y150.16;
G1 X16.73 Y151.38;
G1 X17.07 Y152.41;
G1 X17.43 Y153.38;
G1 X17.8 Y154.29;
G1 X18.22 Y155.12;
G1 X18.62 Y155.81;
G1 X19.03 Y156.43;
G1 X19.45 Y156.97;
G1 X19.89 Y157.46;
G1 X20.34 Y157.87;
G1 X20.81 Y158.19;
G1 X21.28 Y158.44;
G1 X21.75 Y158.61;
G1 X22.19 Y158.69;
G1 X22.52 Y158.71;
G1 X22.95 Y158.68;
G1 X23.39 Y158.58;
G1 X23.82 Y158.41;
G1 X24.25 Y158.18;
G1 X24.67 Y157.88;
G1 X25.08 Y157.53;
G1 X25.48 Y157.11;
G1 X25.87 Y156.62;
G1 X26.25 Y156.08;
G1 X26.61 Y155.49;
G1 X26.96 Y154.83;
G1 X27.3 Y154.13;
G1 X27.61 Y153.38;
G1 X27.91 Y152.57;
G1 X28.19 Y151.72;
G1 X28.44 Y150.84;
G1 X28.68 Y149.91;
G1 X28.89 Y148.97;
G1 X29.08 Y147.97;
G1 X29.24 Y146.96;
G1 X29.38 Y145.93;
G1 X29.49 Y144.87;
G1 X29.58 Y143.8;
G1 X29.64 Y142.71;
G1 X29.68 Y141.62;
G1 X29.69 Y140.72;
G1 X29.69 Y140.72;
S0;
( end pass 2 of 2 )


( start pass 1 of 2 )
G0 X28.68 Y248.93;
S950;
G1 X28.71 Y247.69 F20;
G1 X28.81 Y246.46;
G1 X28.97 Y245.25;
G1 X29.19 Y244.06;
G1 X29.47 Y242.9;
G1 X29.81 Y241.77;
G1 X30.21 Y240.67;
G1 X30.67 Y239.62;
G1 X31.18 Y238.61;
(addedSwitchblock start)
S0;
G1 X31.75 Y237.65;
G1 X32.34 Y236.78;
(addedSwitchblock end)
S950;
G1 X32.94 Y236.01;
G1 X33.57 Y235.29;
G1 X34.22 Y234.64;
G1 X34.92 Y234.05;
G1 X35.64 Y233.53;
G1 X36.38 Y233.07;
G1 X37.13 Y232.67;
G1 X37.9 Y232.35;
G1 X38.7 Y232.09;
G1 X39.5 Y231.9;
G1 X40.31 Y231.79;
G1 X41.14 Y231.75;
G1 X41.18 Y231.75;
G1 X41.97 Y231.78;
G1 X42.75 Y231.89;
G1 X43.52 Y232.05;
G1 X44.27 Y232.28;
