( file start tmp/split/toy.Wood1mm.01.Engrave.svg)
( speed:1000, strength:950 codestyle='laserGRBL', passes:1 support:no )
M3 S0;

S0;
S0;


( start pass 1 of 1 )
G0 X67.37 Y8.51;
S950;
G1 X104.34 Y57.97 F1000;
G1 X68.11 Y118.51;
G1 X101.59 Y174.19;
G1 X71.5 Y214.86;
G1 X101.12 Y255.53;
G1 X71.41 Y287.37;
S0;( end pass 1 of 1 )


( start pass 1 of 1 )
G0 X20.13 Y321.45;
S950;
G1 X20.04 Y321.26 F1000;
G1 X20.0 Y321.2;
G1 X19.85 Y321.1;
G1 X19.76 Y321.06;
G1 X19.51 Y321.01;
G1 X19.37 Y320.99;
G1 X19.09 Y320.98;
G1 X18.82 Y320.97;
G1 X18.44 Y320.98;
G1 X18.23 Y320.99;
G1 X17.96 Y321.02;
G1 X17.85 Y321.06;
G1 X17.68 Y321.14;
G1 X17.62 Y321.2;
G1 X17.52 Y321.38;
G1 X17.5 Y321.45;
G1 X14.51 Y332.23;
G1 X14.49 Y332.23;
G1 X11.73 Y321.45;
G1 X11.66 Y321.26;
G1 X11.62 Y321.2;
G1 X11.49 Y321.1;
G1 X11.4 Y321.06;
G1 X11.19 Y321.01;
G1 X11.03 Y320.99;
G1 X10.77 Y320.98;
G1 X10.45 Y320.97;
G1 X10.09 Y320.98;
G1 X9.85 Y320.99;
G1 X9.58 Y321.02;
G1 X9.44 Y321.06;
G1 X9.27 Y321.14;
G1 X9.21 Y321.2;
G1 X9.11 Y321.38;
G1 X9.1 Y321.45;
G1 X5.33 Y334.63;
G1 X5.27 Y334.88;
G1 X5.25 Y335.03;
G1 X5.28 Y335.17;
G1 X5.34 Y335.25;
G1 X5.48 Y335.32;
G1 X5.65 Y335.35;
G1 X5.9 Y335.36;
G1 X6.21 Y335.37;
G1 X6.52 Y335.36;
G1 X6.75 Y335.35;
G1 X6.96 Y335.32;
G1 X7.05 Y335.29;
G1 X7.16 Y335.22;
G1 X7.19 Y335.17;
G1 X7.25 Y335.0;
G1 X7.26 Y334.97;
G1 X10.46 Y323.02;
G1 X10.48 Y323.02;
G1 X13.52 Y334.95;
G1 X13.59 Y335.13;
G1 X13.6 Y335.15;
G1 X13.71 Y335.26;
G1 X13.76 Y335.28;
G1 X13.93 Y335.33;
G1 X14.07 Y335.35;
G1 X14.34 Y335.37;
G1 X14.61 Y335.37;
G1 X14.89 Y335.36;
G1 X15.09 Y335.35;
G1 X15.31 Y335.31;
G1 X15.39 Y335.28;
G1 X15.51 Y335.2;
G1 X15.55 Y335.15;
G1 X15.63 Y334.98;
G1 X15.63 Y334.95;
G1 X18.91 Y323.02;
G1 X18.93 Y323.02;
G1 X22.07 Y334.96;
G1 X22.14 Y335.15;
G1 X22.21 Y335.25;
G1 X22.27 Y335.28;
G1 X22.46 Y335.33;
G1 X22.57 Y335.35;
G1 X22.83 Y335.37;
G1 X23.09 Y335.37;
G1 X23.39 Y335.36;
G1 X23.61 Y335.34;
G1 X23.79 Y335.3;
G1 X23.89 Y335.24;
G1 X23.96 Y335.13;
G1 X23.97 Y335.02;
G1 X23.95 Y334.82;
G1 X23.91 Y334.62;
G1 X20.13 Y321.45;
S0;( end pass 1 of 1 )


( start pass 1 of 1 )
G0 X34.63 Y326.39;
S950;
G1 X34.6 Y325.64 F1000;
G1 X34.5 Y324.93;
G1 X34.34 Y324.26;
G1 X34.31 Y324.14;
G1 X34.1 Y323.58;
G1 X33.84 Y323.08;
G1 X33.52 Y322.61;
G1 X33.35 Y322.39;
G1 X32.96 Y322.0;
G1 X32.52 Y321.64;
G1 X32.03 Y321.36;
G1 X31.76 Y321.24;
G1 X31.25 Y321.05;
G1 X30.69 Y320.92;
G1 X30.09 Y320.85;
G1 X29.56 Y320.83;
G1 X28.88 Y320.86;
G1 X28.26 Y320.95;
G1 X27.68 Y321.1;
G1 X27.42 Y321.19;
G1 X26.93 Y321.43;
G1 X26.48 Y321.72;
G1 X26.09 Y322.06;
G1 X25.91 Y322.25;
G1 X25.59 Y322.67;
G1 X25.32 Y323.14;
G1 X25.1 Y323.67;
G1 X25.01 Y323.94;
G1 X24.85 Y324.58;
G1 X24.75 Y325.29;
G1 X24.71 Y326.05;
G1 X24.71 Y326.19;
G1 X24.74 Y326.93;
G1 X24.83 Y327.64;
G1 X24.98 Y328.3;
G1 X25.02 Y328.41;
G1 X25.23 Y328.98;
G1 X25.48 Y329.49;
G1 X25.79 Y329.96;
G1 X25.96 Y330.18;
G1 X26.36 Y330.57;
G1 X26.8 Y330.92;
G1 X27.29 Y331.2;
G1 X27.55 Y331.32;
G1 X28.07 Y331.51;
G1 X28.63 Y331.64;
G1 X29.23 Y331.71;
G1 X29.77 Y331.73;
G1 X30.44 Y331.7;
G1 X31.07 Y331.61;
G1 X31.64 Y331.46;
G1 X31.9 Y331.37;
G1 X32.39 Y331.13;
G1 X32.84 Y330.84;
G1 X33.24 Y330.5;
G1 X33.42 Y330.31;
G1 X33.74 Y329.89;
G1 X34.01 Y329.42;
G1 X34.22 Y328.9;
G1 X34.32 Y328.62;
G1 X34.49 Y327.97;
G1 X34.59 Y327.27;
G1 X34.63 Y326.52;
G1 X34.63 Y326.39;
G1 X34.63 Y326.39;
S0;( end pass 1 of 1 )


( start pass 1 of 1 )
G0 X32.71 Y326.26;
S950;
G1 X32.68 Y326.99 F1000;
G1 X32.58 Y327.67;
G1 X32.56 Y327.79;
G1 X32.42 Y328.31;
G1 X32.22 Y328.78;
G1 X32.07 Y329.04;
G1 X31.83 Y329.36;
G1 X31.55 Y329.63;
G1 X31.21 Y329.86;
G1 X31.15 Y329.89;
G1 X30.79 Y330.05;
G1 X30.38 Y330.15;
G1 X29.93 Y330.2;
G1 X29.69 Y330.21;
G1 X29.21 Y330.18;
G1 X28.76 Y330.1;
G1 X28.37 Y329.95;
G1 X28.3 Y329.92;
G1 X27.93 Y329.7;
G1 X27.6 Y329.41;
G1 X27.35 Y329.11;
G1 X27.1 Y328.68;
G1 X26.89 Y328.2;
G1 X26.79 Y327.87;
G1 X26.67 Y327.25;
G1 X26.62 Y326.58;
G1 X26.62 Y326.31;
G1 X26.65 Y325.58;
G1 X26.74 Y324.89;
G1 X26.76 Y324.77;
G1 X26.9 Y324.25;
G1 X27.1 Y323.79;
G1 X27.25 Y323.52;
G1 X27.53 Y323.18;
G1 X27.86 Y322.89;
G1 X28.19 Y322.67;
G1 X28.55 Y322.52;
G1 X28.96 Y322.42;
G1 X29.41 Y322.37;
G1 X29.65 Y322.36;
G1 X30.13 Y322.39;
G1 X30.56 Y322.48;
G1 X30.96 Y322.62;
G1 X31.02 Y322.64;
G1 X31.4 Y322.87;
G1 X31.73 Y323.16;
G1 X31.98 Y323.45;
G1 X32.22 Y323.83;
G1 X32.4 Y324.27;
G1 X32.54 Y324.69;
G1 X32.64 Y325.26;
G1 X32.7 Y325.86;
G1 X32.71 Y326.26;
G1 X32.71 Y326.26;
S0;( end pass 1 of 1 )


( start pass 1 of 1 )
G0 X46.54 Y326.39;
S950;
G1 X46.5 Y325.64 F1000;
G1 X46.41 Y324.93;
G1 X46.25 Y324.26;
G1 X46.22 Y324.14;
G1 X46.01 Y323.58;
G1 X45.75 Y323.08;
G1 X45.43 Y322.61;
G1 X45.26 Y322.39;
G1 X44.87 Y322.0;
G1 X44.43 Y321.64;
G1 X43.93 Y321.36;
G1 X43.67 Y321.24;
G1 X43.15 Y321.05;
G1 X42.6 Y320.92;
G1 X42.0 Y320.85;
G1 X41.46 Y320.83;
G1 X40.79 Y320.86;
G1 X40.15 Y320.95;
G1 X39.59 Y321.1;
G1 X39.33 Y321.19;
G1 X38.83 Y321.43;
G1 X38.39 Y321.72;
G1 X37.99 Y322.06;
G1 X37.82 Y322.25;
G1 X37.49 Y322.67;
G1 X37.22 Y323.14;
G1 X37.0 Y323.67;
G1 X36.9 Y323.94;
G1 X36.75 Y324.58;
G1 X36.65 Y325.29;
G1 X36.61 Y326.05;
G1 X36.61 Y326.19;
G1 X36.64 Y326.93;
G1 X36.74 Y327.64;
G1 X36.89 Y328.3;
G1 X36.92 Y328.41;
G1 X37.13 Y328.98;
G1 X37.39 Y329.49;
G1 X37.7 Y329.96;
G1 X37.86 Y330.18;
G1 X38.26 Y330.57;
G1 X38.71 Y330.92;
G1 X39.2 Y331.2;
G1 X39.46 Y331.32;
G1 X39.97 Y331.51;
G1 X40.53 Y331.64;
G1 X41.14 Y331.71;
G1 X41.67 Y331.73;
G1 X42.35 Y331.7;
G1 X42.97 Y331.61;
G1 X43.54 Y331.46;
G1 X43.8 Y331.37;
G1 X44.3 Y331.13;
G1 X44.75 Y330.84;
G1 X45.15 Y330.5;
G1 X45.32 Y330.31;
G1 X45.65 Y329.89;
G1 X45.92 Y329.42;
G1 X46.14 Y328.9;
G1 X46.23 Y328.62;
G1 X46.39 Y327.97;
G1 X46.49 Y327.27;
G1 X46.54 Y326.52;
G1 X46.54 Y326.39;
G1 X46.54 Y326.39;
S0;( end pass 1 of 1 )


( start pass 1 of 1 )
G0 X44.62 Y326.26;
S950;
G1 X44.59 Y326.99 F1000;
G1 X44.49 Y327.67;
G1 X44.46 Y327.79;
G1 X44.33 Y328.31;
G1 X44.13 Y328.78;
G1 X43.98 Y329.04;
G1 X43.74 Y329.36;
G1 X43.45 Y329.63;
G1 X43.12 Y329.86;
G1 X43.05 Y329.89;
G1 X42.69 Y330.05;
G1 X42.29 Y330.15;
G1 X41.84 Y330.2;
G1 X41.6 Y330.21;
G1 X41.11 Y330.18;
G1 X40.67 Y330.1;
G1 X40.27 Y329.95;
G1 X40.21 Y329.92;
G1 X39.83 Y329.7;
G1 X39.51 Y329.41;
G1 X39.26 Y329.11;
G1 X39.0 Y328.68;
G1 X38.79 Y328.2;
G1 X38.7 Y327.87;
G1 X38.58 Y327.25;
G1 X38.53 Y326.58;
G1 X38.52 Y326.31;
G1 X38.54 Y325.58;
G1 X38.64 Y324.89;
G1 X38.65 Y324.77;
G1 X38.81 Y324.25;
G1 X39.01 Y323.79;
G1 X39.15 Y323.52;
G1 X39.43 Y323.18;
G1 X39.76 Y322.89;
G1 X40.1 Y322.67;
G1 X40.46 Y322.52;
G1 X40.86 Y322.42;
G1 X41.31 Y322.37;
G1 X41.55 Y322.36;
G1 X42.03 Y322.39;
G1 X42.47 Y322.48;
G1 X42.87 Y322.62;
G1 X42.93 Y322.64;
G1 X43.31 Y322.87;
G1 X43.64 Y323.16;
G1 X43.89 Y323.45;
G1 X44.13 Y323.83;
G1 X44.31 Y324.27;
G1 X44.44 Y324.69;
G1 X44.55 Y325.26;
G1 X44.61 Y325.86;
G1 X44.62 Y326.26;
G1 X44.62 Y326.26;
S0;( end pass 1 of 1 )


( start pass 1 of 1 )
G0 X57.71 Y321.31;
S950;
G1 X57.68 Y321.17 F1000;
G1 X57.67 Y321.16;
G1 X57.59 Y321.07;
G1 X57.54 Y321.05;
G1 X57.37 Y321.01;
G1 X57.3 Y320.99;
G1 X57.03 Y320.97;
G1 X56.92 Y320.97;
G1 X56.64 Y320.98;
G1 X56.54 Y320.99;
G1 X56.32 Y321.04;
G1 X56.28 Y321.05;
G1 X56.16 Y321.14;
G1 X56.14 Y321.16;
G1 X56.09 Y321.3;
G1 X56.09 Y321.31;
G1 X56.09 Y322.63;
G1 X55.59 Y322.13;
G1 X55.08 Y321.7;
G1 X54.55 Y321.36;
G1 X54.46 Y321.3;
G1 X54.01 Y321.08;
G1 X53.54 Y320.94;
G1 X53.05 Y320.85;
G1 X52.62 Y320.83;
G1 X52.07 Y320.86;
G1 X51.57 Y320.94;
G1 X51.11 Y321.08;
G1 X50.76 Y321.25;
G1 X50.34 Y321.52;
G1 X49.97 Y321.83;
G1 X49.64 Y322.2;
G1 X49.5 Y322.39;
G1 X49.23 Y322.88;
G1 X49.0 Y323.41;
G1 X48.83 Y323.99;
G1 X48.81 Y324.08;
G1 X48.67 Y324.86;
G1 X48.6 Y325.64;
G1 X48.59 Y326.14;
G1 X48.61 Y326.93;
G1 X48.7 Y327.67;
G1 X48.83 Y328.35;
G1 X48.86 Y328.46;
G1 X49.04 Y329.03;
G1 X49.27 Y329.54;
G1 X49.53 Y330.01;
G1 X49.68 Y330.22;
G1 X50.01 Y330.61;
G1 X50.38 Y330.94;
G1 X50.79 Y331.22;
G1 X51.01 Y331.34;
G1 X51.49 Y331.53;
G1 X52.01 Y331.66;
G1 X52.57 Y331.72;
G1 X52.86 Y331.73;
G1 X53.35 Y331.7;
G1 X53.81 Y331.61;
G1 X54.25 Y331.45;
G1 X54.45 Y331.35;
G1 X54.91 Y331.07;
G1 X55.36 Y330.73;
G1 X55.81 Y330.31;
G1 X55.88 Y330.23;
G1 X55.88 Y336.0;
G1 X55.92 Y336.14;
G1 X56.01 Y336.23;
G1 X56.07 Y336.25;
G1 X56.29 Y336.31;
G1 X56.35 Y336.32;
G1 X56.6 Y336.35;
G1 X56.79 Y336.35;
G1 X57.09 Y336.34;
G1 X57.24 Y336.32;
G1 X57.44 Y336.28;
G1 X57.52 Y336.25;
G1 X57.63 Y336.18;
G1 X57.66 Y336.14;
G1 X57.71 Y336.03;
G1 X57.71 Y336.0;
G1 X57.71 Y321.31;
S0;( end pass 1 of 1 )


( start pass 1 of 1 )
G0 X55.88 Y328.29;
S950;
G1 X55.47 Y328.78 F1000;
G1 X55.05 Y329.2;
G1 X54.65 Y329.54;
G1 X54.45 Y329.68;
G1 X54.09 Y329.9;
G1 X53.72 Y330.06;
G1 X53.34 Y330.14;
G1 X53.02 Y330.17;
G1 X52.6 Y330.13;
G1 X52.23 Y330.04;
G1 X51.89 Y329.87;
G1 X51.84 Y329.84;
G1 X51.49 Y329.55;
G1 X51.2 Y329.21;
G1 X51.05 Y328.97;
G1 X50.82 Y328.49;
G1 X50.65 Y327.96;
G1 X50.6 Y327.74;
G1 X50.5 Y327.04;
G1 X50.47 Y326.35;
G1 X50.51 Y325.52;
G1 X50.58 Y324.89;
G1 X50.71 Y324.31;
G1 X50.9 Y323.79;
G1 X50.99 Y323.61;
G1 X51.21 Y323.25;
G1 X51.48 Y322.94;
G1 X51.75 Y322.7;
G1 X52.04 Y322.55;
G1 X52.37 Y322.44;
G1 X52.74 Y322.39;
G1 X52.94 Y322.38;
G1 X53.38 Y322.42;
G1 X53.64 Y322.48;
G1 X53.99 Y322.62;
G1 X54.33 Y322.81;
G1 X54.7 Y323.08;
G1 X55.07 Y323.41;
G1 X55.43 Y323.79;
G1 X55.82 Y324.24;
G1 X55.88 Y324.32;
G1 X55.88 Y328.29;
S0;( end pass 1 of 1 )


( start pass 1 of 1 )
G0 X74.7 Y321.79;
S950;
G1 X74.7 Y321.54 F1000;
G1 X74.68 Y321.44;
G1 X74.61 Y321.24;
G1 X74.59 Y321.2;
G1 X74.48 Y321.08;
G1 X74.45 Y321.07;
G1 X74.31 Y321.04;
G1 X66.86 Y321.04;
G1 X66.72 Y321.07;
G1 X66.59 Y321.19;
G1 X66.59 Y321.2;
G1 X66.51 Y321.38;
G1 X66.5 Y321.44;
G1 X66.47 Y321.66;
G1 X66.47 Y321.79;
G1 X66.48 Y322.05;
G1 X66.5 Y322.13;
G1 X66.56 Y322.33;
G1 X66.58 Y322.36;
G1 X66.68 Y322.49;
G1 X66.7 Y322.5;
G1 X66.83 Y322.56;
G1 X66.87 Y322.56;
G1 X69.84 Y322.56;
G1 X69.84 Y333.41;
G1 X67.09 Y331.77;
G1 X66.88 Y331.67;
G1 X66.73 Y331.63;
G1 X66.61 Y331.64;
G1 X66.55 Y331.68;
G1 X66.47 Y331.81;
G1 X66.44 Y331.92;
G1 X66.42 Y332.16;
G1 X66.41 Y332.34;
G1 X66.42 Y332.61;
G1 X66.42 Y332.66;
G1 X66.47 Y332.86;
G1 X66.48 Y332.88;
G1 X66.56 Y333.03;
G1 X66.73 Y333.17;
G1 X70.02 Y335.27;
G1 X70.13 Y335.33;
G1 X70.29 Y335.37;
G1 X70.52 Y335.39;
G1 X70.76 Y335.4;
G1 X70.86 Y335.4;
G1 X71.15 Y335.39;
G1 X71.3 Y335.38;
G1 X71.5 Y335.34;
G1 X71.56 Y335.32;
G1 X71.68 Y335.26;
G1 X71.7 Y335.22;
G1 X71.73 Y335.09;
G1 X71.73 Y322.56;
G1 X74.31 Y322.56;
G1 X74.45 Y322.52;
G1 X74.48 Y322.5;
G1 X74.58 Y322.41;
G1 X74.59 Y322.36;
G1 X74.67 Y322.2;
G1 X74.68 Y322.13;
G1 X74.7 Y321.89;
G1 X74.7 Y321.79;
G1 X74.7 Y321.79;
S0;( end pass 1 of 1 )


( start pass 1 of 1 )
G0 X97.45 Y321.31;
S950;
G1 X97.41 Y321.17 F1000;
G1 X97.4 Y321.16;
G1 X97.29 Y321.08;
G1 X97.26 Y321.06;
G1 X97.09 Y321.01;
G1 X96.98 Y320.99;
G1 X96.73 Y320.98;
G1 X96.54 Y320.97;
G1 X96.24 Y320.98;
G1 X96.09 Y320.99;
G1 X95.86 Y321.04;
G1 X95.8 Y321.06;
G1 X95.68 Y321.14;
G1 X95.66 Y321.16;
G1 X95.62 Y321.3;
G1 X95.62 Y321.31;
G1 X95.62 Y327.33;
G1 X95.59 Y327.9;
G1 X95.52 Y328.41;
G1 X95.51 Y328.49;
G1 X95.39 Y328.9;
G1 X95.23 Y329.26;
G1 X95.15 Y329.38;
G1 X94.93 Y329.67;
G1 X94.65 Y329.89;
G1 X94.54 Y329.96;
G1 X94.23 Y330.08;
G1 X93.89 Y330.14;
G1 X93.65 Y330.16;
G1 X93.29 Y330.12;
G1 X92.93 Y330.0;
G1 X92.57 Y329.8;
G1 X92.39 Y329.67;
G1 X92.02 Y329.36;
G1 X91.62 Y328.97;
G1 X91.21 Y328.5;
G1 X91.0 Y328.25;
G1 X91.0 Y321.31;
G1 X90.96 Y321.17;
G1 X90.95 Y321.16;
G1 X90.85 Y321.08;
G1 X90.8 Y321.06;
G1 X90.63 Y321.01;
G1 X90.52 Y320.99;
G1 X90.27 Y320.98;
G1 X90.08 Y320.97;
G1 X89.74 Y320.98;
G1 X89.64 Y320.99;
G1 X89.42 Y321.04;
G1 X89.35 Y321.06;
G1 X89.23 Y321.14;
G1 X89.21 Y321.16;
G1 X89.18 Y321.31;
G1 X89.18 Y327.33;
G1 X89.15 Y327.9;
G1 X89.07 Y328.41;
G1 X89.06 Y328.49;
G1 X88.92 Y328.94;
G1 X88.73 Y329.33;
G1 X88.69 Y329.38;
G1 X88.47 Y329.67;
G1 X88.19 Y329.89;
G1 X88.08 Y329.96;
G1 X87.78 Y330.08;
G1 X87.44 Y330.14;
G1 X87.2 Y330.16;
G1 X86.84 Y330.12;
G1 X86.48 Y330.0;
G1 X86.12 Y329.8;
G1 X85.94 Y329.67;
G1 X85.56 Y329.36;
G1 X85.17 Y328.97;
G1 X84.76 Y328.5;
G1 X84.55 Y328.25;
G1 X84.55 Y321.31;
G1 X84.51 Y321.17;
G1 X84.5 Y321.16;
G1 X84.39 Y321.08;
G1 X84.36 Y321.06;
G1 X84.19 Y321.01;
G1 X84.08 Y320.99;
G1 X83.83 Y320.98;
G1 X83.63 Y320.97;
G1 X83.34 Y320.98;
G1 X83.19 Y320.99;
G1 X82.97 Y321.04;
G1 X82.91 Y321.06;
G1 X82.78 Y321.14;
G1 X82.76 Y321.16;
G1 X82.73 Y321.31;
G1 X82.73 Y331.24;
G1 X82.76 Y331.37;
G1 X82.76 Y331.38;
G1 X82.85 Y331.47;
G1 X82.89 Y331.49;
G1 X83.07 Y331.55;
G1 X83.15 Y331.56;
G1 X83.37 Y331.57;
G1 X83.56 Y331.58;
G1 X83.82 Y331.57;
G1 X83.95 Y331.56;
G1 X84.13 Y331.53;
G1 X84.21 Y331.49;
G1 X84.31 Y331.4;
G1 X84.33 Y331.38;
G1 X84.37 Y331.27;
G1 X84.37 Y331.24;
G1 X84.37 Y329.92;
G1 X84.8 Y330.38;
G1 X85.23 Y330.76;
G1 X85.65 Y331.08;
G1 X85.99 Y331.29;
G1 X86.45 Y331.51;
G1 X86.91 Y331.65;
G1 X87.36 Y331.72;
G1 X87.59 Y331.73;
G1 X88.09 Y331.71;
G1 X88.53 Y331.63;
G1 X88.69 Y331.59;
G1 X89.13 Y331.43;
G1 X89.51 Y331.22;
G1 X89.56 Y331.18;
G1 X89.89 Y330.92;
G1 X90.16 Y330.62;
G1 X90.2 Y330.56;
G1 X90.47 Y330.14;
G1 X90.64 Y329.77;
G1 X91.09 Y330.23;
G1 X91.51 Y330.63;
G1 X91.58 Y330.68;
G1 X92.03 Y331.03;
G1 X92.44 Y331.29;
G1 X92.86 Y331.49;
G1 X93.25 Y331.62;
G1 X93.69 Y331.71;
G1 X94.04 Y331.73;
G1 X94.56 Y331.7;
G1 X95.04 Y331.62;
G1 X95.46 Y331.48;
G1 X95.65 Y331.39;
G1 X96.03 Y331.16;
G1 X96.37 Y330.88;
G1 X96.65 Y330.56;
G1 X96.7 Y330.5;
G1 X96.95 Y330.08;
G1 X97.15 Y329.62;
G1 X97.27 Y329.17;
G1 X97.39 Y328.53;
G1 X97.44 Y327.85;
G1 X97.45 Y327.58;
G1 X97.45 Y321.31;
S0;( end pass 1 of 1 )


( start pass 1 of 1 )
G0 X115.48 Y321.31;
S950;
G1 X115.45 Y321.17 F1000;
G1 X115.44 Y321.16;
G1 X115.33 Y321.08;
G1 X115.29 Y321.06;
G1 X115.13 Y321.01;
G1 X115.02 Y320.99;
G1 X114.77 Y320.98;
G1 X114.58 Y320.97;
G1 X114.28 Y320.98;
G1 X114.13 Y320.99;
G1 X113.9 Y321.04;
G1 X113.84 Y321.06;
G1 X113.71 Y321.14;
G1 X113.7 Y321.16;
G1 X113.65 Y321.3;
G1 X113.65 Y321.31;
G1 X113.65 Y327.33;
G1 X113.63 Y327.9;
G1 X113.56 Y328.41;
G1 X113.54 Y328.49;
G1 X113.43 Y328.9;
G1 X113.26 Y329.26;
G1 X113.19 Y329.38;
G1 X112.96 Y329.67;
G1 X112.69 Y329.89;
G1 X112.57 Y329.96;
G1 X112.27 Y330.08;
G1 X111.92 Y330.14;
G1 X111.69 Y330.16;
G1 X111.33 Y330.12;
G1 X110.97 Y330.0;
G1 X110.6 Y329.8;
G1 X110.42 Y329.67;
G1 X110.05 Y329.36;
G1 X109.66 Y328.97;
G1 X109.24 Y328.5;
G1 X109.03 Y328.25;
G1 X109.03 Y321.31;
G1 X109.0 Y321.17;
G1 X108.99 Y321.16;
G1 X108.89 Y321.08;
G1 X108.83 Y321.06;
G1 X108.67 Y321.01;
G1 X108.56 Y320.99;
G1 X108.31 Y320.98;
G1 X108.12 Y320.97;
G1 X107.78 Y320.98;
G1 X107.68 Y320.99;
G1 X107.45 Y321.04;
G1 X107.39 Y321.06;
G1 X107.27 Y321.14;
G1 X107.25 Y321.16;
G1 X107.21 Y321.31;
G1 X107.21 Y327.33;
G1 X107.19 Y327.9;
G1 X107.11 Y328.41;
G1 X107.09 Y328.49;
G1 X106.95 Y328.94;
G1 X106.77 Y329.33;
G1 X106.73 Y329.38;
G1 X106.5 Y329.67;
G1 X106.23 Y329.89;
G1 X106.11 Y329.96;
G1 X105.81 Y330.08;
G1 X105.47 Y330.14;
G1 X105.24 Y330.16;
G1 X104.88 Y330.12;
G1 X104.52 Y330.0;
G1 X104.15 Y329.8;
G1 X103.97 Y329.67;
G1 X103.6 Y329.36;
G1 X103.2 Y328.97;
G1 X102.79 Y328.5;
G1 X102.58 Y328.25;
G1 X102.58 Y321.31;
G1 X102.55 Y321.17;
G1 X102.54 Y321.16;
G1 X102.43 Y321.08;
G1 X102.4 Y321.06;
G1 X102.23 Y321.01;
G1 X102.12 Y320.99;
G1 X101.87 Y320.98;
G1 X101.67 Y320.97;
G1 X101.38 Y320.98;
G1 X101.23 Y320.99;
G1 X101.0 Y321.04;
G1 X100.94 Y321.06;
G1 X100.82 Y321.14;
G1 X100.8 Y321.16;
G1 X100.76 Y321.31;
G1 X100.76 Y331.24;
G1 X100.79 Y331.37;
G1 X100.8 Y331.38;
G1 X100.88 Y331.47;
G1 X100.93 Y331.49;
G1 X101.11 Y331.55;
G1 X101.18 Y331.56;
G1 X101.41 Y331.57;
G1 X101.59 Y331.58;
G1 X101.86 Y331.57;
G1 X101.99 Y331.56;
G1 X102.16 Y331.53;
G1 X102.24 Y331.49;
G1 X102.35 Y331.4;
G1 X102.36 Y331.38;
G1 X102.41 Y331.27;
G1 X102.41 Y331.24;
G1 X102.41 Y329.92;
G1 X102.84 Y330.38;
G1 X103.27 Y330.76;
G1 X103.68 Y331.08;
G1 X104.03 Y331.29;
G1 X104.48 Y331.51;
G1 X104.94 Y331.65;
G1 X105.4 Y331.72;
G1 X105.63 Y331.73;
G1 X106.12 Y331.71;
G1 X106.57 Y331.63;
G1 X106.73 Y331.59;
G1 X107.16 Y331.43;
G1 X107.54 Y331.22;
G1 X107.6 Y331.18;
G1 X107.92 Y330.92;
G1 X108.2 Y330.62;
G1 X108.24 Y330.56;
G1 X108.51 Y330.14;
G1 X108.68 Y329.77;
G1 X109.13 Y330.23;
G1 X109.55 Y330.63;
G1 X109.62 Y330.68;
G1 X110.06 Y331.03;
G1 X110.48 Y331.29;
G1 X110.89 Y331.49;
G1 X111.28 Y331.62;
G1 X111.73 Y331.71;
G1 X112.08 Y331.73;
G1 X112.6 Y331.7;
G1 X113.07 Y331.62;
G1 X113.5 Y331.48;
G1 X113.69 Y331.39;
G1 X114.07 Y331.16;
G1 X114.4 Y330.88;
G1 X114.69 Y330.56;
G1 X114.73 Y330.5;
G1 X114.99 Y330.08;
G1 X115.18 Y329.62;
G1 X115.31 Y329.17;
G1 X115.42 Y328.53;
G1 X115.48 Y327.85;
G1 X115.48 Y327.58;
G1 X115.48 Y321.31;
S0;( end pass 1 of 1 )


( start pass 1 of 1 )
G0 X121.15 Y322.24;
S950;
G1 X121.13 Y321.87 F1000;
G1 X121.08 Y321.57;
G1 X120.99 Y321.33;
G1 X120.88 Y321.19;
G1 X120.72 Y321.08;
G1 X120.5 Y321.0;
G1 X120.23 Y320.95;
G1 X119.95 Y320.94;
G1 X119.6 Y320.95;
G1 X119.32 Y321.02;
G1 X119.11 Y321.13;
G1 X119.03 Y321.19;
G1 X118.92 Y321.36;
G1 X118.84 Y321.58;
G1 X118.79 Y321.89;
G1 X118.78 Y322.2;
G1 X118.8 Y322.58;
G1 X118.85 Y322.88;
G1 X118.93 Y323.11;
G1 X119.03 Y323.24;
G1 X119.2 Y323.36;
G1 X119.42 Y323.45;
G1 X119.7 Y323.5;
G1 X119.98 Y323.51;
G1 X120.33 Y323.49;
G1 X120.6 Y323.42;
G1 X120.82 Y323.32;
G1 X120.9 Y323.25;
G1 X121.01 Y323.08;
G1 X121.09 Y322.85;
G1 X121.14 Y322.55;
G1 X121.15 Y322.24;
G1 X121.15 Y322.24;
S0;( end pass 1 of 1 )


( start pass 1 of 1 )
G0 X138.58 Y331.13;
S950;
G1 X138.55 Y330.53 F1000;
G1 X138.46 Y329.97;
G1 X138.32 Y329.44;
G1 X138.22 Y329.2;
G1 X137.97 Y328.68;
G1 X137.66 Y328.21;
G1 X137.28 Y327.8;
G1 X137.21 Y327.73;
G1 X136.81 Y327.41;
G1 X136.36 Y327.13;
G1 X135.86 Y326.89;
G1 X135.6 Y326.79;
G1 X135.08 Y326.64;
G1 X134.51 Y326.54;
G1 X133.88 Y326.48;
G1 X133.33 Y326.45;
G1 X131.71 Y326.45;
G1 X131.71 Y321.33;
G1 X131.66 Y321.2;
G1 X131.65 Y321.17;
G1 X131.55 Y321.08;
G1 X131.5 Y321.06;
G1 X131.35 Y321.02;
G1 X131.21 Y321.01;
G1 X130.96 Y320.98;
G1 X130.76 Y320.97;
G1 X130.46 Y320.98;
G1 X130.3 Y321.01;
G1 X130.07 Y321.04;
G1 X130.01 Y321.06;
G1 X129.88 Y321.14;
G1 X129.86 Y321.17;
G1 X129.81 Y321.31;
G1 X129.81 Y321.33;
G1 X129.81 Y334.49;
G1 X129.84 Y334.74;
G1 X129.91 Y334.94;
G1 X130.02 Y335.1;
G1 X130.05 Y335.12;
G1 X130.25 Y335.24;
G1 X130.47 Y335.3;
G1 X130.56 Y335.3;
G1 X133.62 Y335.3;
G1 X134.28 Y335.28;
G1 X134.5 Y335.26;
G1 X134.93 Y335.21;
G1 X135.41 Y335.11;
G1 X135.5 Y335.09;
G1 X135.94 Y334.97;
G1 X136.4 Y334.77;
G1 X136.68 Y334.62;
G1 X137.12 Y334.34;
G1 X137.5 Y334.0;
G1 X137.71 Y333.77;
G1 X138.0 Y333.36;
G1 X138.22 Y332.9;
G1 X138.35 Y332.59;
G1 X138.49 Y332.07;
G1 X138.57 Y331.5;
G1 X138.58 Y331.13;
G1 X138.58 Y331.13;
S0;( end pass 1 of 1 )


( start pass 1 of 1 )
G0 X136.58 Y330.97;
S950;
G1 X136.56 Y331.45 F1000;
G1 X136.47 Y331.88;
G1 X136.34 Y332.26;
G1 X136.25 Y332.43;
G1 X136.03 Y332.77;
G1 X135.78 Y333.05;
G1 X135.5 Y333.27;
G1 X135.44 Y333.3;
G1 X135.04 Y333.5;
G1 X134.62 Y333.63;
G1 X134.46 Y333.66;
G1 X133.78 Y333.73;
G1 X133.46 Y333.74;
G1 X131.71 Y333.74;
G1 X131.71 Y328.02;
G1 X133.41 Y328.02;
G1 X133.93 Y328.04;
G1 X134.38 Y328.1;
G1 X134.78 Y328.21;
G1 X134.84 Y328.24;
G1 X135.25 Y328.43;
G1 X135.61 Y328.67;
G1 X135.8 Y328.84;
G1 X136.07 Y329.17;
G1 X136.28 Y329.53;
G1 X136.38 Y329.78;
G1 X136.52 Y330.26;
G1 X136.58 Y330.77;
G1 X136.58 Y330.97;
G1 X136.58 Y330.97;
S0;( end pass 1 of 1 )


( start pass 1 of 1 )
G0 X148.26 Y321.3;
S950;
G1 X148.22 Y321.18 F1000;
G1 X148.16 Y321.1;
G1 X148.02 Y321.02;
G1 X147.93 Y321.01;
G1 X147.72 Y320.98;
G1 X147.47 Y320.97;
G1 X147.19 Y320.98;
G1 X147.01 Y321.01;
G1 X146.84 Y321.06;
G1 X146.77 Y321.1;
G1 X146.69 Y321.2;
G1 X146.69 Y321.3;
G1 X146.69 Y322.3;
G1 X146.27 Y321.89;
G1 X145.81 Y321.54;
G1 X145.32 Y321.26;
G1 X145.24 Y321.2;
G1 X144.72 Y321.01;
G1 X144.19 Y320.88;
G1 X143.65 Y320.83;
G1 X143.55 Y320.83;
G1 X142.97 Y320.86;
G1 X142.44 Y320.95;
G1 X142.13 Y321.04;
G1 X141.66 Y321.22;
G1 X141.27 Y321.45;
G1 X141.05 Y321.62;
G1 X140.74 Y321.94;
G1 X140.47 Y322.31;
G1 X140.35 Y322.57;
G1 X140.21 Y322.98;
G1 X140.13 Y323.42;
G1 X140.11 Y323.85;
G1 X140.13 Y324.31;
G1 X140.22 Y324.74;
G1 X140.36 Y325.13;
G1 X140.44 Y325.3;
G1 X140.69 Y325.67;
G1 X141.0 Y326.0;
G1 X141.36 Y326.29;
G1 X141.43 Y326.33;
G1 X141.87 Y326.57;
G1 X142.35 Y326.76;
G1 X142.9 Y326.91;
G1 X143.0 Y326.94;
G1 X143.66 Y327.06;
G1 X144.38 Y327.13;
G1 X145.08 Y327.14;
G1 X146.44 Y327.14;
G1 X146.44 Y327.92;
G1 X146.41 Y328.42;
G1 X146.35 Y328.86;
G1 X146.33 Y328.93;
G1 X146.19 Y329.27;
G1 X146.02 Y329.56;
G1 X145.93 Y329.66;
G1 X145.68 Y329.88;
G1 X145.37 Y330.05;
G1 X145.24 Y330.1;
G1 X144.88 Y330.2;
G1 X144.47 Y330.25;
G1 X144.18 Y330.25;
G1 X143.63 Y330.23;
G1 X143.13 Y330.14;
G1 X142.97 Y330.09;
G1 X142.46 Y329.92;
G1 X142.03 Y329.74;
G1 X141.62 Y329.53;
G1 X141.36 Y329.38;
G1 X141.16 Y329.28;
G1 X141.01 Y329.23;
G1 X140.96 Y329.23;
G1 X140.82 Y329.27;
G1 X140.81 Y329.27;
G1 X140.69 Y329.39;
G1 X140.68 Y329.41;
G1 X140.62 Y329.6;
G1 X140.62 Y329.63;
G1 X140.6 Y329.94;
G1 X140.61 Y330.21;
G1 X140.63 Y330.37;
G1 X140.72 Y330.56;
G1 X140.82 Y330.67;
G1 X140.97 Y330.8;
G1 X141.22 Y330.95;
G1 X141.33 Y331.0;
G1 X141.77 Y331.21;
G1 X142.16 Y331.36;
G1 X142.72 Y331.52;
G1 X143.21 Y331.62;
G1 X143.84 Y331.71;
G1 X144.34 Y331.73;
G1 X144.99 Y331.71;
G1 X145.57 Y331.64;
G1 X146.08 Y331.52;
G1 X146.16 Y331.49;
G1 X146.61 Y331.31;
G1 X146.99 Y331.09;
G1 X147.32 Y330.82;
G1 X147.38 Y330.77;
G1 X147.63 Y330.46;
G1 X147.86 Y330.1;
G1 X148.02 Y329.69;
G1 X148.05 Y329.62;
G1 X148.16 Y329.11;
G1 X148.24 Y328.54;
G1 X148.26 Y327.99;
G1 X148.26 Y321.3;
S0;( end pass 1 of 1 )


( start pass 1 of 1 )
G0 X146.44 Y325.83;
S950;
G1 X144.9 Y325.83 F1000;
G1 X144.35 Y325.81;
G1 X143.87 Y325.76;
G1 X143.59 Y325.7;
G1 X143.19 Y325.58;
G1 X142.86 Y325.44;
G1 X142.68 Y325.33;
G1 X142.41 Y325.1;
G1 X142.19 Y324.83;
G1 X142.13 Y324.73;
G1 X142.03 Y324.43;
G1 X141.97 Y324.08;
G1 X141.97 Y323.94;
G1 X142.01 Y323.56;
G1 X142.11 Y323.22;
G1 X142.27 Y322.92;
G1 X142.46 Y322.7;
G1 X142.72 Y322.51;
G1 X143.02 Y322.38;
G1 X143.36 Y322.29;
G1 X143.74 Y322.25;
G1 X143.84 Y322.25;
G1 X144.28 Y322.29;
G1 X144.69 Y322.39;
G1 X145.09 Y322.58;
G1 X145.16 Y322.62;
G1 X145.55 Y322.88;
G1 X145.96 Y323.23;
G1 X146.38 Y323.64;
G1 X146.44 Y323.73;
G1 X146.44 Y325.83;
S0;( end pass 1 of 1 )


( start pass 1 of 1 )
G0 X159.88 Y330.78;
S950;
G1 X159.87 Y330.52 F1000;
G1 X159.82 Y330.32;
G1 X159.78 Y330.22;
G1 X159.66 Y330.1;
G1 X159.54 Y330.06;
G1 X159.51 Y330.06;
G1 X158.09 Y330.06;
G1 X158.35 Y329.74;
G1 X158.55 Y329.4;
G1 X158.63 Y329.17;
G1 X158.74 Y328.73;
G1 X158.78 Y328.26;
G1 X158.79 Y328.18;
G1 X158.76 Y327.66;
G1 X158.68 Y327.18;
G1 X158.54 Y326.73;
G1 X158.51 Y326.66;
G1 X158.29 Y326.23;
G1 X158.01 Y325.83;
G1 X157.72 Y325.54;
G1 X157.34 Y325.25;
G1 X156.91 Y325.01;
G1 X156.5 Y324.83;
G1 X156.0 Y324.7;
G1 X155.44 Y324.62;
G1 X154.94 Y324.6;
G1 X154.38 Y324.63;
G1 X153.87 Y324.73;
G1 X153.78 Y324.75;
G1 X153.4 Y324.89;
G1 X153.1 Y325.05;
G1 X152.94 Y325.16;
G1 X152.69 Y324.87;
G1 X152.61 Y324.7;
G1 X152.52 Y324.43;
G1 X152.49 Y324.13;
G1 X152.53 Y323.89;
G1 X152.63 Y323.69;
G1 X152.81 Y323.51;
G1 X152.84 Y323.49;
G1 X153.12 Y323.33;
G1 X153.46 Y323.25;
G1 X153.8 Y323.2;
G1 X156.38 Y323.1;
G1 X156.99 Y323.05;
G1 X157.55 Y322.95;
G1 X157.75 Y322.89;
G1 X158.19 Y322.73;
G1 X158.6 Y322.52;
G1 X158.82 Y322.37;
G1 X159.13 Y322.1;
G1 X159.38 Y321.77;
G1 X159.52 Y321.55;
G1 X159.66 Y321.19;
G1 X159.75 Y320.79;
G1 X159.78 Y320.41;
G1 X159.74 Y319.94;
G1 X159.63 Y319.49;
G1 X159.49 Y319.11;
G1 X159.28 Y318.74;
G1 X159.01 Y318.39;
G1 X158.66 Y318.08;
G1 X158.61 Y318.02;
G1 X158.21 Y317.75;
G1 X157.74 Y317.51;
G1 X157.21 Y317.32;
G1 X157.11 Y317.29;
G1 X156.56 Y317.14;
G1 X155.94 Y317.06;
G1 X155.29 Y317.02;
G1 X154.94 Y317.01;
G1 X154.29 Y317.02;
G1 X153.69 Y317.08;
G1 X153.13 Y317.17;
G1 X152.9 Y317.22;
G1 X152.4 Y317.36;
G1 X151.96 Y317.54;
G1 X151.58 Y317.74;
G1 X151.52 Y317.77;
G1 X151.18 Y318.04;
G1 X150.91 Y318.33;
G1 X150.74 Y318.62;
G1 X150.59 Y319.01;
G1 X150.51 Y319.42;
G1 X150.5 Y319.68;
G1 X150.53 Y320.12;
G1 X150.58 Y320.39;
G1 X150.72 Y320.8;
G1 X150.85 Y321.04;
G1 X151.13 Y321.44;
G1 X151.3 Y321.62;
G1 X151.71 Y322.01;
G1 X151.93 Y322.19;
G1 X151.59 Y322.39;
G1 X151.31 Y322.64;
G1 X151.12 Y322.88;
G1 X150.97 Y323.2;
G1 X150.88 Y323.56;
G1 X150.87 Y323.77;
G1 X150.9 Y324.23;
G1 X151.0 Y324.64;
G1 X151.15 Y324.99;
G1 X151.43 Y325.45;
G1 X151.77 Y325.87;
G1 X151.83 Y325.93;
G1 X151.54 Y326.33;
G1 X151.32 Y326.77;
G1 X151.29 Y326.85;
G1 X151.18 Y327.23;
G1 X151.11 Y327.67;
G1 X151.09 Y328.09;
G1 X151.12 Y328.61;
G1 X151.19 Y329.09;
G1 X151.35 Y329.54;
G1 X151.38 Y329.62;
G1 X151.6 Y330.06;
G1 X151.88 Y330.45;
G1 X152.16 Y330.75;
G1 X152.55 Y331.05;
G1 X152.97 Y331.29;
G1 X153.38 Y331.46;
G1 X153.9 Y331.6;
G1 X154.44 Y331.69;
G1 X154.94 Y331.71;
G1 X155.52 Y331.68;
G1 X155.78 Y331.65;
G1 X156.34 Y331.57;
G1 X156.51 Y331.52;
G1 X159.51 Y331.52;
G1 X159.65 Y331.49;
G1 X159.76 Y331.39;
G1 X159.79 Y331.34;
G1 X159.85 Y331.15;
G1 X159.88 Y330.9;
G1 X159.88 Y330.78;
G1 X159.88 Y330.78;
S0;( end pass 1 of 1 )


( start pass 1 of 1 )
G0 X157.04 Y328.17;
S950;
G1 X157.02 Y328.59 F1000;
G1 X156.94 Y328.96;
G1 X156.81 Y329.29;
G1 X156.63 Y329.58;
G1 X156.47 Y329.75;
G1 X156.22 Y329.97;
G1 X155.91 Y330.14;
G1 X155.57 Y330.25;
G1 X155.18 Y330.31;
G1 X154.91 Y330.32;
G1 X154.47 Y330.29;
G1 X154.11 Y330.2;
G1 X153.97 Y330.14;
G1 X153.65 Y329.95;
G1 X153.37 Y329.71;
G1 X153.33 Y329.66;
G1 X153.12 Y329.35;
G1 X152.96 Y329.01;
G1 X152.94 Y328.94;
G1 X152.85 Y328.53;
G1 X152.82 Y328.11;
G1 X152.85 Y327.66;
G1 X152.94 Y327.27;
G1 X153.1 Y326.92;
G1 X153.32 Y326.62;
G1 X153.37 Y326.56;
G1 X153.63 Y326.35;
G1 X153.94 Y326.18;
G1 X154.28 Y326.07;
G1 X154.66 Y326.01;
G1 X154.94 Y326.0;
G1 X155.37 Y326.02;
G1 X155.74 Y326.12;
G1 X155.88 Y326.16;
G1 X156.21 Y326.35;
G1 X156.49 Y326.58;
G1 X156.53 Y326.64;
G1 X156.74 Y326.94;
G1 X156.88 Y327.27;
G1 X156.91 Y327.33;
G1 X157.01 Y327.76;
G1 X157.04 Y328.17;
G1 X157.04 Y328.17;
S0;( end pass 1 of 1 )


( start pass 1 of 1 )
G0 X157.96 Y320.31;
S950;
G1 X157.93 Y320.6 F1000;
G1 X157.84 Y320.85;
G1 X157.69 Y321.07;
G1 X157.47 Y321.26;
G1 X157.43 Y321.29;
G1 X157.13 Y321.45;
G1 X156.79 Y321.57;
G1 X156.38 Y321.64;
G1 X156.02 Y321.67;
G1 X153.44 Y321.76;
G1 X153.09 Y321.45;
G1 X152.87 Y321.23;
G1 X152.63 Y320.94;
G1 X152.51 Y320.76;
G1 X152.37 Y320.45;
G1 X152.33 Y320.31;
G1 X152.28 Y319.91;
G1 X152.28 Y319.86;
G1 X152.32 Y319.57;
G1 X152.41 Y319.31;
G1 X152.58 Y319.08;
G1 X152.82 Y318.89;
G1 X153.01 Y318.77;
G1 X153.38 Y318.62;
G1 X153.83 Y318.51;
G1 X154.33 Y318.44;
G1 X154.9 Y318.39;
G1 X155.04 Y318.39;
G1 X155.58 Y318.42;
G1 X156.05 Y318.48;
G1 X156.41 Y318.57;
G1 X156.81 Y318.7;
G1 X157.13 Y318.87;
G1 X157.32 Y318.99;
G1 X157.57 Y319.22;
G1 X157.75 Y319.49;
G1 X157.8 Y319.58;
G1 X157.91 Y319.92;
G1 X157.96 Y320.25;
G1 X157.96 Y320.31;
G1 X157.96 Y320.31;
S0;( end pass 1 of 1 )


( start pass 1 of 1 )
G0 X170.5 Y326.7;
S950;
G1 X170.48 Y326.44 F1000;
G1 X170.4 Y326.23;
G1 X170.28 Y326.08;
G1 X170.1 Y325.97;
G1 X169.89 Y325.92;
G1 X169.8 Y325.91;
G1 X163.29 Y325.91;
G1 X163.32 Y325.3;
G1 X163.38 Y324.75;
G1 X163.46 Y324.42;
G1 X163.6 Y323.99;
G1 X163.8 Y323.6;
G1 X164.01 Y323.29;
G1 X164.31 Y322.99;
G1 X164.66 Y322.74;
G1 X165.01 Y322.56;
G1 X165.43 Y322.43;
G1 X165.9 Y322.33;
G1 X166.43 Y322.31;
G1 X166.52 Y322.31;
G1 X167.09 Y322.33;
G1 X167.6 Y322.38;
G1 X167.78 Y322.42;
G1 X168.26 Y322.52;
G1 X168.67 Y322.66;
G1 X168.73 Y322.68;
G1 X169.07 Y322.81;
G1 X169.35 Y322.92;
G1 X169.39 Y322.93;
G1 X169.61 Y323.02;
G1 X169.77 Y323.06;
G1 X169.79 Y323.06;
G1 X169.91 Y323.02;
G1 X169.92 Y323.01;
G1 X170.01 Y322.93;
G1 X170.02 Y322.89;
G1 X170.06 Y322.75;
G1 X170.06 Y322.68;
G1 X170.08 Y322.45;
G1 X170.09 Y322.35;
G1 X170.07 Y322.1;
G1 X170.04 Y321.91;
G1 X169.99 Y321.77;
G1 X169.89 Y321.63;
G1 X169.81 Y321.58;
G1 X169.66 Y321.5;
G1 X169.53 Y321.44;
G1 X169.22 Y321.31;
G1 X168.83 Y321.19;
G1 X168.76 Y321.17;
G1 X168.29 Y321.06;
G1 X167.76 Y320.95;
G1 X167.66 Y320.94;
G1 X167.01 Y320.86;
G1 X166.34 Y320.83;
G1 X165.66 Y320.86;
G1 X165.03 Y320.94;
G1 X164.45 Y321.08;
G1 X164.19 Y321.17;
G1 X163.69 Y321.39;
G1 X163.22 Y321.67;
G1 X162.83 Y322.0;
G1 X162.63 Y322.19;
G1 X162.31 Y322.6;
G1 X162.03 Y323.07;
G1 X161.79 Y323.58;
G1 X161.69 Y323.87;
G1 X161.54 Y324.48;
G1 X161.43 Y325.14;
G1 X161.38 Y325.86;
G1 X161.38 Y326.23;
G1 X161.4 Y326.94;
G1 X161.49 Y327.61;
G1 X161.62 Y328.23;
G1 X161.71 Y328.52;
G1 X161.91 Y329.09;
G1 X162.18 Y329.59;
G1 X162.49 Y330.05;
G1 X162.66 Y330.25;
G1 X163.04 Y330.64;
G1 X163.46 Y330.96;
G1 X163.92 Y331.23;
G1 X164.17 Y331.35;
G1 X164.69 Y331.54;
G1 X165.25 Y331.66;
G1 X165.84 Y331.72;
G1 X166.14 Y331.73;
G1 X166.72 Y331.71;
G1 X167.26 Y331.63;
G1 X167.75 Y331.5;
G1 X168.12 Y331.36;
G1 X168.62 Y331.09;
G1 X169.05 Y330.78;
G1 X169.42 Y330.41;
G1 X169.48 Y330.34;
G1 X169.78 Y329.92;
G1 X170.03 Y329.46;
G1 X170.22 Y328.95;
G1 X170.25 Y328.85;
G1 X170.4 Y328.25;
G1 X170.48 Y327.62;
G1 X170.5 Y327.04;
G1 X170.5 Y326.7;
S0;( end pass 1 of 1 )


( start pass 1 of 1 )
G0 X168.67 Y327.25;
S950;
G1 X168.66 Y327.78 F1000;
G1 X168.59 Y328.27;
G1 X168.47 Y328.72;
G1 X168.29 Y329.11;
G1 X168.06 Y329.46;
G1 X168.04 Y329.49;
G1 X167.75 Y329.78;
G1 X167.42 Y330.01;
G1 X167.03 Y330.17;
G1 X166.6 Y330.27;
G1 X166.12 Y330.31;
G1 X166.06 Y330.31;
G1 X165.62 Y330.28;
G1 X165.21 Y330.19;
G1 X164.88 Y330.06;
G1 X164.52 Y329.84;
G1 X164.2 Y329.57;
G1 X164.03 Y329.38;
G1 X163.77 Y329.01;
G1 X163.57 Y328.58;
G1 X163.5 Y328.4;
G1 X163.37 Y327.88;
G1 X163.3 Y327.33;
G1 X163.29 Y327.25;
G1 X168.67 Y327.25;
S0;( end pass 1 of 1 )


( start pass 1 of 1 )
G0 X187.35 Y328.2;
S950;
G1 X187.32 Y327.2 F1000;
G1 X187.24 Y326.25;
G1 X187.11 Y325.35;
G1 X187.09 Y325.2;
G1 X186.93 Y324.52;
G1 X186.73 Y323.89;
G1 X186.47 Y323.32;
G1 X186.23 Y322.87;
G1 X185.89 Y322.39;
G1 X185.5 Y321.97;
G1 X185.07 Y321.61;
G1 X184.66 Y321.36;
G1 X184.18 Y321.14;
G1 X183.64 Y320.98;
G1 X183.05 Y320.87;
G1 X182.42 Y320.83;
G1 X182.27 Y320.83;
G1 X181.65 Y320.86;
G1 X181.09 Y320.94;
G1 X180.57 Y321.07;
G1 X180.1 Y321.25;
G1 X180.0 Y321.3;
G1 X179.54 Y321.58;
G1 X179.14 Y321.93;
G1 X178.78 Y322.33;
G1 X178.52 Y322.7;
G1 X178.25 Y323.23;
G1 X178.02 Y323.8;
G1 X177.84 Y324.43;
G1 X177.71 Y325.01;
G1 X177.6 Y325.82;
G1 X177.53 Y326.7;
G1 X177.49 Y327.64;
G1 X177.48 Y328.14;
G1 X177.51 Y329.14;
G1 X177.59 Y330.09;
G1 X177.72 Y330.98;
G1 X177.75 Y331.13;
G1 X177.91 Y331.81;
G1 X178.11 Y332.44;
G1 X178.36 Y333.02;
G1 X178.61 Y333.46;
G1 X178.94 Y333.94;
G1 X179.33 Y334.36;
G1 X179.77 Y334.72;
G1 X180.17 Y334.97;
G1 X180.66 Y335.2;
G1 X181.19 Y335.36;
G1 X181.77 Y335.47;
G1 X182.41 Y335.51;
G1 X182.55 Y335.51;
G1 X183.17 Y335.49;
G1 X183.74 Y335.4;
G1 X184.26 Y335.27;
G1 X184.73 Y335.08;
G1 X184.83 Y335.03;
G1 X185.28 Y334.75;
G1 X185.69 Y334.41;
G1 X186.05 Y334.0;
G1 X186.31 Y333.62;
G1 X186.58 Y333.1;
G1 X186.81 Y332.53;
G1 X186.99 Y331.9;
G1 X187.11 Y331.32;
G1 X187.23 Y330.51;
G1 X187.31 Y329.64;
G1 X187.35 Y328.69;
G1 X187.35 Y328.2;
G1 X187.35 Y328.2;
S0;( end pass 1 of 1 )


( start pass 1 of 1 )
G0 X185.41 Y328.07;
S950;
G1 X185.4 Y328.86 F1000;
G1 X185.36 Y329.58;
G1 X185.33 Y329.99;
G1 X185.25 Y330.67;
G1 X185.15 Y331.28;
G1 X185.1 Y331.49;
G1 X184.96 Y332.0;
G1 X184.79 Y332.45;
G1 X184.71 Y332.6;
G1 X184.5 Y332.97;
G1 X184.26 Y333.27;
G1 X184.15 Y333.37;
G1 X183.86 Y333.6;
G1 X183.53 Y333.77;
G1 X183.39 Y333.82;
G1 X182.98 Y333.92;
G1 X182.52 Y333.96;
G1 X182.44 Y333.96;
G1 X181.98 Y333.93;
G1 X181.56 Y333.84;
G1 X181.19 Y333.69;
G1 X180.92 Y333.52;
G1 X180.61 Y333.24;
G1 X180.33 Y332.9;
G1 X180.1 Y332.52;
G1 X180.0 Y332.31;
G1 X179.81 Y331.79;
G1 X179.66 Y331.23;
G1 X179.56 Y330.61;
G1 X179.54 Y330.5;
G1 X179.46 Y329.6;
G1 X179.43 Y328.65;
G1 X179.42 Y328.27;
G1 X179.43 Y327.47;
G1 X179.47 Y326.73;
G1 X179.52 Y326.06;
G1 X179.59 Y325.55;
G1 X179.7 Y324.94;
G1 X179.84 Y324.41;
G1 X180.01 Y323.93;
G1 X180.11 Y323.73;
G1 X180.33 Y323.36;
G1 X180.59 Y323.05;
G1 X180.87 Y322.8;
G1 X181.02 Y322.7;
G1 X181.4 Y322.52;
G1 X181.82 Y322.43;
G1 X182.29 Y322.38;
G1 X182.38 Y322.38;
G1 X182.83 Y322.41;
G1 X183.23 Y322.5;
G1 X183.46 Y322.58;
G1 X183.83 Y322.77;
G1 X184.15 Y323.02;
G1 X184.26 Y323.14;
G1 X184.55 Y323.52;
G1 X184.79 Y323.95;
G1 X184.83 Y324.04;
G1 X185.03 Y324.58;
G1 X185.18 Y325.18;
G1 X185.29 Y325.85;
G1 X185.35 Y326.54;
G1 X185.4 Y327.56;
G1 X185.41 Y328.07;
G1 X185.41 Y328.07;
S0;( end pass 1 of 1 )


( start pass 1 of 1 )
G0 X198.35 Y321.79;
S950;
G1 X198.34 Y321.54 F1000;
G1 X198.32 Y321.44;
G1 X198.25 Y321.24;
G1 X198.23 Y321.2;
G1 X198.11 Y321.08;
G1 X198.1 Y321.07;
G1 X197.96 Y321.04;
G1 X190.5 Y321.04;
G1 X190.36 Y321.07;
G1 X190.24 Y321.19;
G1 X190.23 Y321.2;
G1 X190.15 Y321.38;
G1 X190.14 Y321.44;
G1 X190.11 Y321.66;
G1 X190.11 Y321.79;
G1 X190.12 Y322.05;
G1 X190.14 Y322.13;
G1 X190.2 Y322.33;
G1 X190.22 Y322.36;
G1 X190.31 Y322.49;
G1 X190.34 Y322.5;
G1 X190.47 Y322.56;
G1 X190.5 Y322.56;
G1 X193.48 Y322.56;
G1 X193.48 Y333.41;
G1 X190.72 Y331.77;
G1 X190.51 Y331.67;
G1 X190.38 Y331.63;
G1 X190.25 Y331.64;
G1 X190.18 Y331.68;
G1 X190.1 Y331.81;
G1 X190.07 Y331.92;
G1 X190.05 Y332.16;
G1 X190.05 Y332.34;
G1 X190.06 Y332.61;
G1 X190.06 Y332.66;
G1 X190.11 Y332.86;
G1 X190.12 Y332.88;
G1 X190.21 Y333.03;
G1 X190.37 Y333.17;
G1 X193.66 Y335.27;
G1 X193.77 Y335.33;
G1 X193.93 Y335.37;
G1 X194.16 Y335.39;
G1 X194.4 Y335.4;
G1 X194.49 Y335.4;
G1 X194.79 Y335.39;
G1 X194.93 Y335.38;
G1 X195.14 Y335.34;
G1 X195.21 Y335.32;
G1 X195.31 Y335.26;
G1 X195.34 Y335.22;
G1 X195.38 Y335.09;
G1 X195.38 Y322.56;
G1 X197.96 Y322.56;
G1 X198.09 Y322.52;
G1 X198.12 Y322.5;
G1 X198.22 Y322.41;
G1 X198.24 Y322.36;
G1 X198.31 Y322.2;
G1 X198.32 Y322.13;
G1 X198.35 Y321.89;
G1 X198.35 Y321.79;
G1 X198.35 Y321.79;
S0;( end pass 1 of 1 )

M5 S0;
( file end tmp/split/toy.Wood1mm.01.Engrave.svg)
( file start tmp/split/toy.Wood1mm.01.Cut.svg)
( speed:300, strength:950 codestyle='laserGRBL', passes:1 support:yes, {'support_gap': 1.0, 'support_strength': 0}' )
M3 S0;

S0;
S0;


( start pass 1 of 1 )
G0 X67.9 Y288.74;
S950;
G1 X105.4 Y288.74 F300;
(addedblock start)
X105.4 Y147.495
S0
X105.4 Y146.495
S950
(added block end)
G1 X105.4 Y5.25;
G1 X67.9 Y5.25;
G1 X67.9 Y288.74;
S0;
( end pass 1 of 1 )


( start pass 1 of 1 )
G0 X6.22 Y288.74;
S950;
G1 X43.72 Y288.74 F300;
(addedblock start)
X43.72 Y147.495
S0
X43.72 Y146.495
S950
(added block end)
G1 X43.72 Y5.25;
G1 X6.22 Y5.25;
G1 X6.22 Y288.74;
S0;
( end pass 1 of 1 )

M5 S0;
( file end tmp/split/toy.Wood1mm.01.Cut.svg)
