( file start tmp/split/toy.Wood1mm.02.Engrave.svg)
( speed:1000, strength:950 codestyle='laserGRBL', passes:1 support:no )
M3 S0;

S0;
S0;


( start pass 1 of 1 )
G0 X20.13 Y323.8;
S950;
G1 X20.04 Y323.6 F1000;
G1 X20.0 Y323.54;
G1 X19.85 Y323.44;
G1 X19.76 Y323.39;
G1 X19.51 Y323.35;
G1 X19.37 Y323.33;
G1 X19.09 Y323.32;
G1 X18.82 Y323.31;
G1 X18.44 Y323.32;
G1 X18.23 Y323.33;
G1 X17.96 Y323.37;
G1 X17.85 Y323.39;
G1 X17.68 Y323.49;
G1 X17.62 Y323.54;
G1 X17.52 Y323.72;
G1 X17.5 Y323.8;
G1 X14.51 Y334.57;
G1 X14.49 Y334.57;
G1 X11.73 Y323.8;
G1 X11.66 Y323.6;
G1 X11.62 Y323.54;
G1 X11.49 Y323.44;
G1 X11.4 Y323.39;
G1 X11.19 Y323.36;
G1 X11.03 Y323.33;
G1 X10.77 Y323.32;
G1 X10.45 Y323.31;
G1 X10.08 Y323.32;
G1 X9.85 Y323.33;
G1 X9.58 Y323.37;
G1 X9.44 Y323.39;
G1 X9.27 Y323.49;
G1 X9.21 Y323.54;
G1 X9.11 Y323.72;
G1 X9.1 Y323.8;
G1 X5.33 Y336.97;
G1 X5.27 Y337.22;
G1 X5.25 Y337.37;
G1 X5.28 Y337.51;
G1 X5.34 Y337.59;
G1 X5.48 Y337.66;
G1 X5.65 Y337.69;
G1 X5.9 Y337.71;
G1 X6.21 Y337.71;
G1 X6.52 Y337.71;
G1 X6.75 Y337.69;
G1 X6.96 Y337.66;
G1 X7.05 Y337.63;
G1 X7.16 Y337.56;
G1 X7.19 Y337.51;
G1 X7.25 Y337.34;
G1 X7.26 Y337.31;
G1 X10.46 Y325.36;
G1 X10.48 Y325.36;
G1 X13.52 Y337.29;
G1 X13.59 Y337.47;
G1 X13.6 Y337.49;
G1 X13.71 Y337.6;
G1 X13.76 Y337.62;
G1 X13.93 Y337.67;
G1 X14.07 Y337.69;
G1 X14.34 Y337.71;
G1 X14.61 Y337.71;
G1 X14.89 Y337.71;
G1 X15.09 Y337.69;
G1 X15.31 Y337.65;
G1 X15.39 Y337.62;
G1 X15.51 Y337.54;
G1 X15.55 Y337.49;
G1 X15.63 Y337.32;
G1 X15.63 Y337.29;
G1 X18.91 Y325.36;
G1 X18.93 Y325.36;
G1 X22.07 Y337.3;
G1 X22.14 Y337.49;
G1 X22.21 Y337.59;
G1 X22.27 Y337.62;
G1 X22.46 Y337.67;
G1 X22.57 Y337.69;
G1 X22.83 Y337.71;
G1 X23.09 Y337.71;
G1 X23.39 Y337.7;
G1 X23.61 Y337.68;
G1 X23.79 Y337.64;
G1 X23.89 Y337.58;
G1 X23.96 Y337.47;
G1 X23.97 Y337.36;
G1 X23.95 Y337.16;
G1 X23.91 Y336.96;
G1 X20.13 Y323.8;
S0;( end pass 1 of 1 )


( start pass 1 of 1 )
G0 X34.63 Y328.73;
S950;
G1 X34.6 Y327.98 F1000;
G1 X34.5 Y327.27;
G1 X34.34 Y326.6;
G1 X34.31 Y326.49;
G1 X34.1 Y325.93;
G1 X33.84 Y325.42;
G1 X33.52 Y324.95;
G1 X33.35 Y324.74;
G1 X32.96 Y324.33;
G1 X32.52 Y323.99;
G1 X32.03 Y323.7;
G1 X31.76 Y323.58;
G1 X31.25 Y323.39;
G1 X30.69 Y323.26;
G1 X30.09 Y323.19;
G1 X29.56 Y323.17;
G1 X28.88 Y323.2;
G1 X28.26 Y323.29;
G1 X27.68 Y323.44;
G1 X27.42 Y323.52;
G1 X26.93 Y323.77;
G1 X26.48 Y324.06;
G1 X26.09 Y324.39;
G1 X25.91 Y324.58;
G1 X25.59 Y325.01;
G1 X25.32 Y325.49;
G1 X25.1 Y326.01;
G1 X25.01 Y326.27;
G1 X24.85 Y326.93;
G1 X24.75 Y327.63;
G1 X24.71 Y328.39;
G1 X24.71 Y328.53;
G1 X24.74 Y329.27;
G1 X24.83 Y329.98;
G1 X24.98 Y330.64;
G1 X25.02 Y330.75;
G1 X25.23 Y331.32;
G1 X25.48 Y331.84;
G1 X25.79 Y332.31;
G1 X25.96 Y332.52;
G1 X26.36 Y332.91;
G1 X26.8 Y333.26;
G1 X27.29 Y333.54;
G1 X27.55 Y333.66;
G1 X28.07 Y333.85;
G1 X28.63 Y333.98;
G1 X29.23 Y334.05;
G1 X29.77 Y334.07;
G1 X30.44 Y334.04;
G1 X31.07 Y333.95;
G1 X31.64 Y333.8;
G1 X31.9 Y333.71;
G1 X32.39 Y333.47;
G1 X32.84 Y333.18;
G1 X33.24 Y332.84;
G1 X33.42 Y332.65;
G1 X33.74 Y332.23;
G1 X34.01 Y331.76;
G1 X34.22 Y331.24;
G1 X34.32 Y330.96;
G1 X34.47 Y330.31;
G1 X34.59 Y329.61;
G1 X34.63 Y328.86;
G1 X34.63 Y328.73;
G1 X34.63 Y328.73;
S0;( end pass 1 of 1 )


( start pass 1 of 1 )
G0 X32.71 Y328.6;
S950;
G1 X32.68 Y329.33 F1000;
G1 X32.58 Y330.02;
G1 X32.56 Y330.13;
G1 X32.42 Y330.65;
G1 X32.22 Y331.12;
G1 X32.07 Y331.38;
G1 X31.83 Y331.7;
G1 X31.54 Y331.97;
G1 X31.21 Y332.2;
G1 X31.15 Y332.23;
G1 X30.79 Y332.39;
G1 X30.38 Y332.49;
G1 X29.93 Y332.55;
G1 X29.69 Y332.55;
G1 X29.21 Y332.52;
G1 X28.76 Y332.44;
G1 X28.37 Y332.3;
G1 X28.3 Y332.26;
G1 X27.93 Y332.04;
G1 X27.6 Y331.75;
G1 X27.35 Y331.45;
G1 X27.1 Y331.02;
G1 X26.89 Y330.54;
G1 X26.79 Y330.21;
G1 X26.67 Y329.59;
G1 X26.62 Y328.92;
G1 X26.62 Y328.65;
G1 X26.65 Y327.92;
G1 X26.74 Y327.23;
G1 X26.76 Y327.12;
G1 X26.9 Y326.6;
G1 X27.1 Y326.13;
G1 X27.25 Y325.86;
G1 X27.53 Y325.52;
G1 X27.86 Y325.23;
G1 X28.19 Y325.01;
G1 X28.55 Y324.86;
G1 X28.96 Y324.76;
G1 X29.41 Y324.7;
G1 X29.65 Y324.7;
G1 X30.13 Y324.73;
G1 X30.56 Y324.82;
G1 X30.96 Y324.95;
G1 X31.02 Y324.99;
G1 X31.4 Y325.22;
G1 X31.73 Y325.5;
G1 X31.98 Y325.79;
G1 X32.22 Y326.18;
G1 X32.4 Y326.61;
G1 X32.54 Y327.02;
G1 X32.64 Y327.6;
G1 X32.7 Y328.2;
G1 X32.71 Y328.6;
G1 X32.71 Y328.6;
S0;( end pass 1 of 1 )


( start pass 1 of 1 )
G0 X46.54 Y328.73;
S950;
G1 X46.5 Y327.98 F1000;
G1 X46.41 Y327.27;
G1 X46.25 Y326.6;
G1 X46.22 Y326.49;
G1 X46.01 Y325.93;
G1 X45.74 Y325.42;
G1 X45.43 Y324.95;
G1 X45.26 Y324.74;
G1 X44.87 Y324.33;
G1 X44.43 Y323.99;
G1 X43.93 Y323.7;
G1 X43.67 Y323.58;
G1 X43.15 Y323.39;
G1 X42.6 Y323.26;
G1 X42.0 Y323.19;
G1 X41.46 Y323.17;
G1 X40.79 Y323.2;
G1 X40.15 Y323.29;
G1 X39.59 Y323.44;
G1 X39.33 Y323.52;
G1 X38.83 Y323.77;
G1 X38.39 Y324.06;
G1 X37.99 Y324.39;
G1 X37.82 Y324.58;
G1 X37.49 Y325.01;
G1 X37.22 Y325.49;
G1 X37.0 Y326.01;
G1 X36.9 Y326.27;
G1 X36.75 Y326.93;
G1 X36.65 Y327.63;
G1 X36.61 Y328.39;
G1 X36.61 Y328.53;
G1 X36.64 Y329.27;
G1 X36.74 Y329.98;
G1 X36.89 Y330.64;
G1 X36.92 Y330.75;
G1 X37.13 Y331.32;
G1 X37.39 Y331.84;
G1 X37.7 Y332.31;
G1 X37.86 Y332.52;
G1 X38.26 Y332.91;
G1 X38.71 Y333.26;
G1 X39.2 Y333.54;
G1 X39.46 Y333.66;
G1 X39.97 Y333.85;
G1 X40.53 Y333.98;
G1 X41.14 Y334.05;
G1 X41.67 Y334.07;
G1 X42.35 Y334.04;
G1 X42.97 Y333.95;
G1 X43.54 Y333.8;
G1 X43.8 Y333.71;
G1 X44.3 Y333.47;
G1 X44.75 Y333.18;
G1 X45.15 Y332.84;
G1 X45.32 Y332.65;
G1 X45.65 Y332.23;
G1 X45.92 Y331.76;
G1 X46.14 Y331.24;
G1 X46.23 Y330.96;
G1 X46.39 Y330.31;
G1 X46.49 Y329.61;
G1 X46.54 Y328.86;
G1 X46.54 Y328.73;
G1 X46.54 Y328.73;
S0;( end pass 1 of 1 )


( start pass 1 of 1 )
G0 X44.62 Y328.6;
S950;
G1 X44.58 Y329.33 F1000;
G1 X44.49 Y330.02;
G1 X44.46 Y330.13;
G1 X44.33 Y330.65;
G1 X44.13 Y331.12;
G1 X43.98 Y331.38;
G1 X43.74 Y331.7;
G1 X43.45 Y331.97;
G1 X43.12 Y332.2;
G1 X43.05 Y332.23;
G1 X42.69 Y332.39;
G1 X42.29 Y332.49;
G1 X41.84 Y332.55;
G1 X41.6 Y332.55;
G1 X41.11 Y332.52;
G1 X40.67 Y332.44;
G1 X40.27 Y332.3;
G1 X40.21 Y332.26;
G1 X39.83 Y332.04;
G1 X39.51 Y331.75;
G1 X39.26 Y331.45;
G1 X39.0 Y331.02;
G1 X38.79 Y330.54;
G1 X38.7 Y330.21;
G1 X38.58 Y329.59;
G1 X38.53 Y328.92;
G1 X38.52 Y328.65;
G1 X38.54 Y327.92;
G1 X38.64 Y327.23;
G1 X38.65 Y327.12;
G1 X38.81 Y326.6;
G1 X39.01 Y326.13;
G1 X39.15 Y325.86;
G1 X39.43 Y325.52;
G1 X39.76 Y325.23;
G1 X40.1 Y325.01;
G1 X40.46 Y324.86;
G1 X40.86 Y324.76;
G1 X41.31 Y324.7;
G1 X41.55 Y324.7;
G1 X42.03 Y324.73;
G1 X42.47 Y324.82;
G1 X42.87 Y324.95;
G1 X42.93 Y324.99;
G1 X43.31 Y325.22;
G1 X43.64 Y325.5;
G1 X43.89 Y325.79;
G1 X44.13 Y326.18;
G1 X44.31 Y326.61;
G1 X44.44 Y327.02;
G1 X44.55 Y327.6;
G1 X44.61 Y328.2;
G1 X44.62 Y328.6;
G1 X44.62 Y328.6;
S0;( end pass 1 of 1 )


( start pass 1 of 1 )
G0 X57.71 Y323.64;
S950;
G1 X57.68 Y323.51 F1000;
G1 X57.67 Y323.5;
G1 X57.58 Y323.41;
G1 X57.54 Y323.39;
G1 X57.37 Y323.35;
G1 X57.3 Y323.33;
G1 X57.03 Y323.31;
G1 X56.92 Y323.31;
G1 X56.64 Y323.32;
G1 X56.54 Y323.33;
G1 X56.32 Y323.38;
G1 X56.28 Y323.39;
G1 X56.16 Y323.48;
G1 X56.14 Y323.5;
G1 X56.09 Y323.64;
G1 X56.09 Y323.64;
G1 X56.09 Y324.97;
G1 X55.59 Y324.47;
G1 X55.08 Y324.05;
G1 X54.55 Y323.7;
G1 X54.46 Y323.64;
G1 X54.01 Y323.43;
G1 X53.54 Y323.27;
G1 X53.05 Y323.19;
G1 X52.62 Y323.17;
G1 X52.07 Y323.2;
G1 X51.57 Y323.27;
G1 X51.11 Y323.43;
G1 X50.76 Y323.58;
G1 X50.34 Y323.86;
G1 X49.97 Y324.18;
G1 X49.64 Y324.54;
G1 X49.5 Y324.74;
G1 X49.23 Y325.22;
G1 X49.0 Y325.75;
G1 X48.83 Y326.33;
G1 X48.81 Y326.43;
G1 X48.67 Y327.2;
G1 X48.6 Y327.99;
G1 X48.59 Y328.49;
G1 X48.61 Y329.28;
G1 X48.7 Y330.01;
G1 X48.83 Y330.69;
G1 X48.86 Y330.8;
G1 X49.04 Y331.37;
G1 X49.26 Y331.88;
G1 X49.53 Y332.35;
G1 X49.68 Y332.56;
G1 X50.01 Y332.95;
G1 X50.38 Y333.28;
G1 X50.79 Y333.56;
G1 X51.01 Y333.68;
G1 X51.49 Y333.87;
G1 X52.01 Y334.0;
G1 X52.57 Y334.06;
G1 X52.86 Y334.07;
G1 X53.35 Y334.04;
G1 X53.81 Y333.95;
G1 X54.25 Y333.79;
G1 X54.45 Y333.69;
G1 X54.91 Y333.41;
G1 X55.36 Y333.07;
G1 X55.81 Y332.65;
G1 X55.88 Y332.57;
G1 X55.88 Y338.34;
G1 X55.92 Y338.48;
G1 X56.01 Y338.57;
G1 X56.07 Y338.59;
G1 X56.29 Y338.65;
G1 X56.35 Y338.66;
G1 X56.6 Y338.69;
G1 X56.79 Y338.69;
G1 X57.09 Y338.68;
G1 X57.24 Y338.66;
G1 X57.44 Y338.62;
G1 X57.52 Y338.59;
G1 X57.63 Y338.52;
G1 X57.66 Y338.48;
G1 X57.71 Y338.37;
G1 X57.71 Y338.34;
G1 X57.71 Y323.64;
S0;( end pass 1 of 1 )


( start pass 1 of 1 )
G0 X55.88 Y330.63;
S950;
G1 X55.46 Y331.12 F1000;
G1 X55.05 Y331.54;
G1 X54.65 Y331.88;
G1 X54.45 Y332.02;
G1 X54.09 Y332.24;
G1 X53.72 Y332.4;
G1 X53.34 Y332.48;
G1 X53.02 Y332.51;
G1 X52.6 Y332.47;
G1 X52.23 Y332.38;
G1 X51.89 Y332.21;
G1 X51.84 Y332.18;
G1 X51.49 Y331.89;
G1 X51.2 Y331.55;
G1 X51.04 Y331.31;
G1 X50.82 Y330.83;
G1 X50.65 Y330.3;
G1 X50.6 Y330.08;
G1 X50.5 Y329.38;
G1 X50.47 Y328.69;
G1 X50.51 Y327.87;
G1 X50.58 Y327.23;
G1 X50.71 Y326.64;
G1 X50.9 Y326.13;
G1 X50.99 Y325.95;
G1 X51.21 Y325.58;
G1 X51.48 Y325.27;
G1 X51.75 Y325.05;
G1 X52.04 Y324.89;
G1 X52.37 Y324.77;
G1 X52.74 Y324.73;
G1 X52.94 Y324.72;
G1 X53.38 Y324.76;
G1 X53.64 Y324.82;
G1 X53.99 Y324.95;
G1 X54.33 Y325.14;
G1 X54.7 Y325.42;
G1 X55.07 Y325.75;
G1 X55.43 Y326.13;
G1 X55.82 Y326.58;
G1 X55.88 Y326.66;
G1 X55.88 Y330.63;
S0;( end pass 1 of 1 )


( start pass 1 of 1 )
G0 X74.7 Y324.13;
S950;
G1 X74.7 Y323.88 F1000;
G1 X74.68 Y323.77;
G1 X74.61 Y323.58;
G1 X74.59 Y323.54;
G1 X74.48 Y323.42;
G1 X74.45 Y323.41;
G1 X74.31 Y323.38;
G1 X66.86 Y323.38;
G1 X66.72 Y323.41;
G1 X66.59 Y323.52;
G1 X66.59 Y323.54;
G1 X66.51 Y323.73;
G1 X66.5 Y323.77;
G1 X66.47 Y324.0;
G1 X66.47 Y324.13;
G1 X66.48 Y324.39;
G1 X66.5 Y324.47;
G1 X66.56 Y324.67;
G1 X66.58 Y324.7;
G1 X66.68 Y324.83;
G1 X66.7 Y324.85;
G1 X66.83 Y324.89;
G1 X66.86 Y324.89;
G1 X69.84 Y324.89;
G1 X69.84 Y335.75;
G1 X67.09 Y334.11;
G1 X66.88 Y334.01;
G1 X66.73 Y333.97;
G1 X66.61 Y333.98;
G1 X66.55 Y334.02;
G1 X66.47 Y334.15;
G1 X66.43 Y334.26;
G1 X66.42 Y334.5;
G1 X66.41 Y334.68;
G1 X66.42 Y334.95;
G1 X66.42 Y335.0;
G1 X66.47 Y335.2;
G1 X66.48 Y335.22;
G1 X66.56 Y335.37;
G1 X66.73 Y335.51;
G1 X70.02 Y337.61;
G1 X70.13 Y337.67;
G1 X70.29 Y337.71;
G1 X70.52 Y337.73;
G1 X70.76 Y337.74;
G1 X70.86 Y337.74;
G1 X71.15 Y337.74;
G1 X71.3 Y337.72;
G1 X71.5 Y337.68;
G1 X71.56 Y337.66;
G1 X71.68 Y337.6;
G1 X71.7 Y337.56;
G1 X71.73 Y337.44;
G1 X71.73 Y324.89;
G1 X74.31 Y324.89;
G1 X74.45 Y324.86;
G1 X74.48 Y324.85;
G1 X74.58 Y324.75;
G1 X74.59 Y324.7;
G1 X74.67 Y324.54;
G1 X74.68 Y324.47;
G1 X74.7 Y324.23;
G1 X74.7 Y324.13;
G1 X74.7 Y324.13;
S0;( end pass 1 of 1 )


( start pass 1 of 1 )
G0 X97.45 Y323.64;
S950;
G1 X97.41 Y323.51 F1000;
G1 X97.4 Y323.5;
G1 X97.29 Y323.42;
G1 X97.26 Y323.39;
G1 X97.09 Y323.35;
G1 X96.98 Y323.33;
G1 X96.73 Y323.32;
G1 X96.54 Y323.31;
G1 X96.24 Y323.32;
G1 X96.09 Y323.33;
G1 X95.86 Y323.38;
G1 X95.8 Y323.39;
G1 X95.68 Y323.48;
G1 X95.66 Y323.5;
G1 X95.62 Y323.64;
G1 X95.62 Y323.64;
G1 X95.62 Y329.69;
G1 X95.59 Y330.24;
G1 X95.52 Y330.75;
G1 X95.51 Y330.83;
G1 X95.39 Y331.24;
G1 X95.23 Y331.6;
G1 X95.15 Y331.72;
G1 X94.93 Y332.01;
G1 X94.65 Y332.23;
G1 X94.54 Y332.3;
G1 X94.23 Y332.42;
G1 X93.89 Y332.49;
G1 X93.65 Y332.5;
G1 X93.29 Y332.46;
G1 X92.93 Y332.34;
G1 X92.57 Y332.14;
G1 X92.39 Y332.01;
G1 X92.02 Y331.7;
G1 X91.62 Y331.31;
G1 X91.21 Y330.84;
G1 X91.0 Y330.59;
G1 X91.0 Y323.64;
G1 X90.96 Y323.51;
G1 X90.95 Y323.5;
G1 X90.85 Y323.42;
G1 X90.8 Y323.39;
G1 X90.63 Y323.35;
G1 X90.52 Y323.33;
G1 X90.27 Y323.32;
G1 X90.08 Y323.31;
G1 X89.74 Y323.33;
G1 X89.64 Y323.33;
G1 X89.42 Y323.38;
G1 X89.35 Y323.39;
G1 X89.23 Y323.48;
G1 X89.21 Y323.5;
G1 X89.18 Y323.64;
G1 X89.18 Y329.69;
G1 X89.15 Y330.24;
G1 X89.07 Y330.75;
G1 X89.06 Y330.83;
G1 X88.92 Y331.28;
G1 X88.73 Y331.67;
G1 X88.69 Y331.72;
G1 X88.47 Y332.01;
G1 X88.19 Y332.23;
G1 X88.08 Y332.3;
G1 X87.78 Y332.42;
G1 X87.44 Y332.49;
G1 X87.2 Y332.5;
G1 X86.84 Y332.46;
G1 X86.48 Y332.34;
G1 X86.12 Y332.14;
G1 X85.94 Y332.01;
G1 X85.56 Y331.7;
G1 X85.17 Y331.31;
G1 X84.76 Y330.84;
G1 X84.55 Y330.59;
G1 X84.55 Y323.64;
G1 X84.51 Y323.51;
G1 X84.5 Y323.5;
G1 X84.39 Y323.42;
G1 X84.36 Y323.39;
G1 X84.19 Y323.35;
G1 X84.08 Y323.33;
G1 X83.83 Y323.32;
G1 X83.63 Y323.31;
G1 X83.34 Y323.32;
G1 X83.19 Y323.33;
G1 X82.97 Y323.38;
G1 X82.91 Y323.39;
G1 X82.78 Y323.48;
G1 X82.76 Y323.5;
G1 X82.73 Y323.64;
G1 X82.73 Y333.58;
G1 X82.76 Y333.71;
G1 X82.76 Y333.72;
G1 X82.85 Y333.81;
G1 X82.89 Y333.83;
G1 X83.07 Y333.89;
G1 X83.15 Y333.9;
G1 X83.37 Y333.92;
G1 X83.56 Y333.92;
G1 X83.82 Y333.91;
G1 X83.95 Y333.9;
G1 X84.13 Y333.87;
G1 X84.21 Y333.83;
G1 X84.31 Y333.74;
G1 X84.33 Y333.72;
G1 X84.37 Y333.61;
G1 X84.37 Y333.58;
G1 X84.37 Y332.26;
G1 X84.8 Y332.72;
G1 X85.23 Y333.1;
G1 X85.65 Y333.42;
G1 X85.99 Y333.63;
G1 X86.45 Y333.85;
G1 X86.91 Y333.99;
G1 X87.36 Y334.06;
G1 X87.59 Y334.07;
G1 X88.09 Y334.05;
G1 X88.53 Y333.97;
G1 X88.69 Y333.93;
G1 X89.13 Y333.77;
G1 X89.51 Y333.56;
G1 X89.56 Y333.52;
G1 X89.89 Y333.26;
G1 X90.16 Y332.96;
G1 X90.2 Y332.9;
G1 X90.47 Y332.48;
G1 X90.64 Y332.11;
G1 X91.09 Y332.57;
G1 X91.51 Y332.97;
G1 X91.58 Y333.03;
G1 X92.03 Y333.37;
G1 X92.44 Y333.63;
G1 X92.86 Y333.83;
G1 X93.25 Y333.96;
G1 X93.69 Y334.05;
G1 X94.04 Y334.07;
G1 X94.56 Y334.04;
G1 X95.04 Y333.96;
G1 X95.46 Y333.82;
G1 X95.65 Y333.73;
G1 X96.03 Y333.5;
G1 X96.37 Y333.22;
G1 X96.65 Y332.9;
G1 X96.7 Y332.84;
G1 X96.95 Y332.42;
G1 X97.15 Y331.96;
G1 X97.27 Y331.52;
G1 X97.39 Y330.87;
G1 X97.44 Y330.2;
G1 X97.45 Y329.93;
G1 X97.45 Y323.64;
S0;( end pass 1 of 1 )


( start pass 1 of 1 )
G0 X115.48 Y323.64;
S950;
G1 X115.45 Y323.51 F1000;
G1 X115.44 Y323.5;
G1 X115.33 Y323.42;
G1 X115.29 Y323.39;
G1 X115.13 Y323.35;
G1 X115.02 Y323.33;
G1 X114.77 Y323.32;
G1 X114.58 Y323.31;
G1 X114.28 Y323.32;
G1 X114.13 Y323.33;
G1 X113.9 Y323.38;
G1 X113.84 Y323.39;
G1 X113.71 Y323.48;
G1 X113.7 Y323.5;
G1 X113.65 Y323.64;
G1 X113.65 Y323.64;
G1 X113.65 Y329.69;
G1 X113.63 Y330.24;
G1 X113.56 Y330.75;
G1 X113.54 Y330.83;
G1 X113.43 Y331.24;
G1 X113.26 Y331.6;
G1 X113.19 Y331.72;
G1 X112.96 Y332.01;
G1 X112.69 Y332.23;
G1 X112.57 Y332.3;
G1 X112.27 Y332.42;
G1 X111.92 Y332.49;
G1 X111.69 Y332.5;
G1 X111.33 Y332.46;
G1 X110.97 Y332.34;
G1 X110.6 Y332.14;
G1 X110.42 Y332.01;
G1 X110.05 Y331.7;
G1 X109.66 Y331.31;
G1 X109.24 Y330.84;
G1 X109.03 Y330.59;
G1 X109.03 Y323.64;
G1 X109.0 Y323.51;
G1 X108.99 Y323.5;
G1 X108.89 Y323.42;
G1 X108.83 Y323.39;
G1 X108.67 Y323.35;
G1 X108.56 Y323.33;
G1 X108.31 Y323.32;
G1 X108.12 Y323.31;
G1 X107.78 Y323.33;
G1 X107.68 Y323.33;
G1 X107.45 Y323.38;
G1 X107.39 Y323.39;
G1 X107.26 Y323.48;
G1 X107.25 Y323.5;
G1 X107.21 Y323.64;
G1 X107.21 Y329.69;
G1 X107.19 Y330.24;
G1 X107.11 Y330.75;
G1 X107.09 Y330.83;
G1 X106.95 Y331.28;
G1 X106.77 Y331.67;
G1 X106.73 Y331.72;
G1 X106.5 Y332.01;
G1 X106.23 Y332.23;
G1 X106.11 Y332.3;
G1 X105.81 Y332.42;
G1 X105.47 Y332.49;
G1 X105.24 Y332.5;
G1 X104.88 Y332.46;
G1 X104.52 Y332.34;
G1 X104.15 Y332.14;
G1 X103.97 Y332.01;
G1 X103.6 Y331.7;
G1 X103.2 Y331.31;
G1 X102.79 Y330.84;
G1 X102.58 Y330.59;
G1 X102.58 Y323.64;
G1 X102.55 Y323.51;
G1 X102.54 Y323.5;
G1 X102.43 Y323.42;
G1 X102.4 Y323.39;
G1 X102.23 Y323.35;
G1 X102.12 Y323.33;
G1 X101.87 Y323.32;
G1 X101.67 Y323.31;
G1 X101.38 Y323.32;
G1 X101.23 Y323.33;
G1 X101.0 Y323.38;
G1 X100.94 Y323.39;
G1 X100.82 Y323.48;
G1 X100.8 Y323.5;
G1 X100.76 Y323.64;
G1 X100.76 Y333.58;
G1 X100.79 Y333.71;
G1 X100.8 Y333.72;
G1 X100.88 Y333.81;
G1 X100.93 Y333.83;
G1 X101.11 Y333.89;
G1 X101.18 Y333.9;
G1 X101.41 Y333.92;
G1 X101.59 Y333.92;
G1 X101.86 Y333.91;
G1 X101.99 Y333.9;
G1 X102.16 Y333.87;
G1 X102.24 Y333.83;
G1 X102.35 Y333.74;
G1 X102.36 Y333.72;
G1 X102.41 Y333.61;
G1 X102.41 Y333.58;
G1 X102.41 Y332.26;
G1 X102.84 Y332.72;
G1 X103.27 Y333.1;
G1 X103.68 Y333.42;
G1 X104.03 Y333.63;
G1 X104.48 Y333.85;
G1 X104.94 Y333.99;
G1 X105.4 Y334.06;
G1 X105.63 Y334.07;
G1 X106.12 Y334.05;
G1 X106.57 Y333.97;
G1 X106.73 Y333.93;
G1 X107.16 Y333.77;
G1 X107.54 Y333.56;
G1 X107.6 Y333.52;
G1 X107.92 Y333.26;
G1 X108.2 Y332.96;
G1 X108.24 Y332.9;
G1 X108.51 Y332.48;
G1 X108.68 Y332.11;
G1 X109.13 Y332.57;
G1 X109.55 Y332.97;
G1 X109.62 Y333.03;
G1 X110.06 Y333.37;
G1 X110.48 Y333.63;
G1 X110.89 Y333.83;
G1 X111.28 Y333.96;
G1 X111.73 Y334.05;
G1 X112.08 Y334.07;
G1 X112.6 Y334.04;
G1 X113.07 Y333.96;
G1 X113.5 Y333.82;
G1 X113.69 Y333.73;
G1 X114.07 Y333.5;
G1 X114.4 Y333.22;
G1 X114.69 Y332.9;
G1 X114.73 Y332.84;
G1 X114.99 Y332.42;
G1 X115.18 Y331.96;
G1 X115.31 Y331.52;
G1 X115.42 Y330.87;
G1 X115.48 Y330.2;
G1 X115.48 Y329.93;
G1 X115.48 Y323.64;
S0;( end pass 1 of 1 )


( start pass 1 of 1 )
G0 X121.15 Y324.58;
S950;
G1 X121.13 Y324.2 F1000;
G1 X121.08 Y323.91;
G1 X120.99 Y323.67;
G1 X120.88 Y323.52;
G1 X120.72 Y323.42;
G1 X120.5 Y323.33;
G1 X120.23 Y323.29;
G1 X119.95 Y323.27;
G1 X119.6 Y323.3;
G1 X119.32 Y323.36;
G1 X119.11 Y323.47;
G1 X119.03 Y323.52;
G1 X118.92 Y323.7;
G1 X118.84 Y323.94;
G1 X118.79 Y324.24;
G1 X118.78 Y324.55;
G1 X118.8 Y324.92;
G1 X118.85 Y325.22;
G1 X118.93 Y325.45;
G1 X119.03 Y325.58;
G1 X119.2 Y325.7;
G1 X119.42 Y325.79;
G1 X119.7 Y325.83;
G1 X119.98 Y325.85;
G1 X120.33 Y325.83;
G1 X120.6 Y325.77;
G1 X120.82 Y325.66;
G1 X120.9 Y325.6;
G1 X121.01 Y325.43;
G1 X121.09 Y325.19;
G1 X121.14 Y324.89;
G1 X121.15 Y324.58;
G1 X121.15 Y324.58;
S0;( end pass 1 of 1 )


( start pass 1 of 1 )
G0 X138.58 Y333.47;
S950;
G1 X138.55 Y332.87 F1000;
G1 X138.46 Y332.31;
G1 X138.32 Y331.78;
G1 X138.22 Y331.54;
G1 X137.97 Y331.02;
G1 X137.66 Y330.55;
G1 X137.28 Y330.14;
G1 X137.21 Y330.07;
G1 X136.81 Y329.75;
G1 X136.36 Y329.47;
G1 X135.86 Y329.23;
G1 X135.6 Y329.13;
G1 X135.08 Y328.98;
G1 X134.51 Y328.88;
G1 X133.88 Y328.82;
G1 X133.33 Y328.8;
G1 X131.71 Y328.8;
G1 X131.71 Y323.67;
G1 X131.66 Y323.54;
G1 X131.65 Y323.51;
G1 X131.55 Y323.43;
G1 X131.5 Y323.39;
G1 X131.35 Y323.36;
G1 X131.21 Y323.35;
G1 X130.96 Y323.32;
G1 X130.76 Y323.31;
G1 X130.46 Y323.33;
G1 X130.3 Y323.35;
G1 X130.07 Y323.39;
G1 X130.01 Y323.39;
G1 X129.88 Y323.48;
G1 X129.86 Y323.51;
G1 X129.81 Y323.64;
G1 X129.81 Y323.67;
G1 X129.81 Y336.83;
G1 X129.84 Y337.08;
G1 X129.91 Y337.28;
G1 X130.02 Y337.44;
G1 X130.05 Y337.46;
G1 X130.25 Y337.58;
G1 X130.47 Y337.64;
G1 X130.56 Y337.64;
G1 X133.62 Y337.64;
G1 X134.28 Y337.62;
G1 X134.5 Y337.6;
G1 X134.93 Y337.55;
G1 X135.41 Y337.46;
G1 X135.5 Y337.44;
G1 X135.94 Y337.31;
G1 X136.4 Y337.12;
G1 X136.68 Y336.96;
G1 X137.12 Y336.68;
G1 X137.5 Y336.34;
G1 X137.71 Y336.11;
G1 X138.0 Y335.7;
G1 X138.22 Y335.24;
G1 X138.35 Y334.93;
G1 X138.49 Y334.41;
G1 X138.57 Y333.84;
G1 X138.58 Y333.47;
G1 X138.58 Y333.47;
S0;( end pass 1 of 1 )


( start pass 1 of 1 )
G0 X136.58 Y333.31;
S950;
G1 X136.56 Y333.79 F1000;
G1 X136.47 Y334.22;
G1 X136.34 Y334.6;
G1 X136.25 Y334.77;
G1 X136.03 Y335.11;
G1 X135.78 Y335.39;
G1 X135.5 Y335.61;
G1 X135.44 Y335.64;
G1 X135.04 Y335.84;
G1 X134.62 Y335.97;
G1 X134.44 Y336.0;
G1 X133.78 Y336.07;
G1 X133.46 Y336.08;
G1 X131.71 Y336.08;
G1 X131.71 Y330.36;
G1 X133.41 Y330.36;
G1 X133.93 Y330.38;
G1 X134.38 Y330.45;
G1 X134.78 Y330.55;
G1 X134.84 Y330.58;
G1 X135.25 Y330.77;
G1 X135.61 Y331.01;
G1 X135.8 Y331.18;
G1 X136.07 Y331.51;
G1 X136.28 Y331.87;
G1 X136.38 Y332.12;
G1 X136.52 Y332.6;
G1 X136.58 Y333.11;
G1 X136.58 Y333.31;
G1 X136.58 Y333.31;
S0;( end pass 1 of 1 )


( start pass 1 of 1 )
G0 X148.26 Y323.64;
S950;
G1 X148.22 Y323.52 F1000;
G1 X148.16 Y323.45;
G1 X148.02 Y323.37;
G1 X147.93 Y323.35;
G1 X147.72 Y323.32;
G1 X147.47 Y323.31;
G1 X147.19 Y323.32;
G1 X147.01 Y323.35;
G1 X146.84 Y323.39;
G1 X146.77 Y323.45;
G1 X146.69 Y323.55;
G1 X146.69 Y323.64;
G1 X146.69 Y324.64;
G1 X146.27 Y324.23;
G1 X145.81 Y323.88;
G1 X145.32 Y323.6;
G1 X145.24 Y323.56;
G1 X144.72 Y323.35;
G1 X144.19 Y323.22;
G1 X143.65 Y323.17;
G1 X143.55 Y323.17;
G1 X142.97 Y323.2;
G1 X142.44 Y323.29;
G1 X142.13 Y323.38;
G1 X141.66 Y323.56;
G1 X141.27 Y323.79;
G1 X141.05 Y323.95;
G1 X140.74 Y324.27;
G1 X140.47 Y324.64;
G1 X140.35 Y324.91;
G1 X140.21 Y325.32;
G1 X140.13 Y325.77;
G1 X140.11 Y326.19;
G1 X140.13 Y326.64;
G1 X140.22 Y327.08;
G1 X140.36 Y327.47;
G1 X140.44 Y327.64;
G1 X140.69 Y328.01;
G1 X141.0 Y328.34;
G1 X141.36 Y328.63;
G1 X141.43 Y328.67;
G1 X141.86 Y328.91;
G1 X142.35 Y329.1;
G1 X142.9 Y329.26;
G1 X143.0 Y329.28;
G1 X143.66 Y329.4;
G1 X144.38 Y329.47;
G1 X145.08 Y329.49;
G1 X146.44 Y329.49;
G1 X146.44 Y330.26;
G1 X146.41 Y330.76;
G1 X146.35 Y331.2;
G1 X146.33 Y331.27;
G1 X146.19 Y331.62;
G1 X146.02 Y331.9;
G1 X145.93 Y332.0;
G1 X145.68 Y332.22;
G1 X145.37 Y332.39;
G1 X145.24 Y332.44;
G1 X144.88 Y332.54;
G1 X144.47 Y332.59;
G1 X144.18 Y332.6;
G1 X143.63 Y332.57;
G1 X143.13 Y332.48;
G1 X142.97 Y332.43;
G1 X142.46 Y332.26;
G1 X142.03 Y332.08;
G1 X141.62 Y331.87;
G1 X141.36 Y331.72;
G1 X141.16 Y331.62;
G1 X141.01 Y331.57;
G1 X140.96 Y331.57;
G1 X140.82 Y331.61;
G1 X140.8 Y331.61;
G1 X140.69 Y331.73;
G1 X140.68 Y331.75;
G1 X140.62 Y331.94;
G1 X140.62 Y331.97;
G1 X140.6 Y332.28;
G1 X140.61 Y332.55;
G1 X140.63 Y332.71;
G1 X140.72 Y332.9;
G1 X140.82 Y333.01;
G1 X140.97 Y333.14;
G1 X141.22 Y333.29;
G1 X141.33 Y333.35;
G1 X141.77 Y333.55;
G1 X142.16 Y333.7;
G1 X142.72 Y333.86;
G1 X143.21 Y333.96;
G1 X143.84 Y334.05;
G1 X144.34 Y334.07;
G1 X144.99 Y334.05;
G1 X145.56 Y333.98;
G1 X146.08 Y333.86;
G1 X146.16 Y333.83;
G1 X146.61 Y333.65;
G1 X146.99 Y333.43;
G1 X147.32 Y333.16;
G1 X147.38 Y333.11;
G1 X147.63 Y332.8;
G1 X147.86 Y332.44;
G1 X148.02 Y332.03;
G1 X148.05 Y331.96;
G1 X148.16 Y331.45;
G1 X148.24 Y330.88;
G1 X148.26 Y330.34;
G1 X148.26 Y323.64;
S0;( end pass 1 of 1 )


( start pass 1 of 1 )
G0 X146.44 Y328.17;
S950;
G1 X144.88 Y328.17 F1000;
G1 X144.35 Y328.16;
G1 X143.87 Y328.1;
G1 X143.59 Y328.04;
G1 X143.19 Y327.93;
G1 X142.86 Y327.78;
G1 X142.68 Y327.67;
G1 X142.41 Y327.44;
G1 X142.19 Y327.18;
G1 X142.13 Y327.07;
G1 X142.03 Y326.77;
G1 X141.97 Y326.42;
G1 X141.97 Y326.27;
G1 X142.01 Y325.89;
G1 X142.11 Y325.56;
G1 X142.27 Y325.26;
G1 X142.46 Y325.04;
G1 X142.72 Y324.86;
G1 X143.02 Y324.72;
G1 X143.36 Y324.63;
G1 X143.74 Y324.58;
G1 X143.84 Y324.58;
G1 X144.28 Y324.63;
G1 X144.69 Y324.74;
G1 X145.09 Y324.92;
G1 X145.16 Y324.95;
G1 X145.55 Y325.22;
G1 X145.96 Y325.57;
G1 X146.38 Y325.99;
G1 X146.44 Y326.07;
G1 X146.44 Y328.17;
S0;( end pass 1 of 1 )


( start pass 1 of 1 )
G0 X159.88 Y333.12;
S950;
G1 X159.87 Y332.86 F1000;
G1 X159.82 Y332.66;
G1 X159.78 Y332.56;
G1 X159.66 Y332.45;
G1 X159.54 Y332.4;
G1 X159.51 Y332.4;
G1 X158.09 Y332.4;
G1 X158.35 Y332.08;
G1 X158.55 Y331.74;
G1 X158.63 Y331.52;
G1 X158.74 Y331.07;
G1 X158.78 Y330.6;
G1 X158.79 Y330.52;
G1 X158.76 Y330.0;
G1 X158.68 Y329.52;
G1 X158.54 Y329.07;
G1 X158.51 Y329.0;
G1 X158.29 Y328.57;
G1 X158.01 Y328.18;
G1 X157.72 Y327.88;
G1 X157.34 Y327.58;
G1 X156.91 Y327.35;
G1 X156.5 Y327.18;
G1 X156.0 Y327.04;
G1 X155.44 Y326.95;
G1 X154.94 Y326.94;
G1 X154.38 Y326.97;
G1 X153.87 Y327.07;
G1 X153.78 Y327.08;
G1 X153.4 Y327.23;
G1 X153.1 Y327.39;
G1 X152.94 Y327.5;
G1 X152.69 Y327.2;
G1 X152.61 Y327.05;
G1 X152.52 Y326.77;
G1 X152.49 Y326.47;
G1 X152.53 Y326.24;
G1 X152.63 Y326.02;
G1 X152.81 Y325.85;
G1 X152.84 Y325.83;
G1 X153.12 Y325.68;
G1 X153.46 Y325.58;
G1 X153.8 Y325.55;
G1 X156.38 Y325.44;
G1 X156.99 Y325.39;
G1 X157.55 Y325.29;
G1 X157.75 Y325.23;
G1 X158.19 Y325.07;
G1 X158.59 Y324.87;
G1 X158.82 Y324.7;
G1 X159.13 Y324.44;
G1 X159.38 Y324.11;
G1 X159.52 Y323.89;
G1 X159.66 Y323.52;
G1 X159.75 Y323.13;
G1 X159.78 Y322.75;
G1 X159.74 Y322.27;
G1 X159.63 Y321.83;
G1 X159.49 Y321.45;
G1 X159.28 Y321.08;
G1 X159.01 Y320.73;
G1 X158.66 Y320.42;
G1 X158.61 Y320.37;
G1 X158.21 Y320.08;
G1 X157.74 Y319.86;
G1 X157.21 Y319.66;
G1 X157.11 Y319.63;
G1 X156.56 Y319.5;
G1 X155.94 Y319.41;
G1 X155.29 Y319.36;
G1 X154.94 Y319.36;
G1 X154.29 Y319.37;
G1 X153.69 Y319.42;
G1 X153.13 Y319.51;
G1 X152.9 Y319.56;
G1 X152.4 Y319.7;
G1 X151.96 Y319.88;
G1 X151.58 Y320.08;
G1 X151.52 Y320.12;
G1 X151.18 Y320.38;
G1 X150.91 Y320.67;
G1 X150.74 Y320.95;
G1 X150.59 Y321.35;
G1 X150.51 Y321.76;
G1 X150.5 Y322.02;
G1 X150.53 Y322.45;
G1 X150.58 Y322.73;
G1 X150.72 Y323.14;
G1 X150.85 Y323.38;
G1 X151.13 Y323.77;
G1 X151.3 Y323.95;
G1 X151.71 Y324.35;
G1 X151.93 Y324.52;
G1 X151.59 Y324.73;
G1 X151.31 Y324.98;
G1 X151.12 Y325.22;
G1 X150.97 Y325.55;
G1 X150.88 Y325.89;
G1 X150.87 Y326.12;
G1 X150.9 Y326.57;
G1 X151.0 Y326.99;
G1 X151.15 Y327.33;
G1 X151.43 Y327.79;
G1 X151.77 Y328.21;
G1 X151.83 Y328.27;
G1 X151.54 Y328.67;
G1 X151.32 Y329.11;
G1 X151.29 Y329.19;
G1 X151.18 Y329.57;
G1 X151.11 Y330.01;
G1 X151.09 Y330.43;
G1 X151.12 Y330.95;
G1 X151.19 Y331.43;
G1 X151.35 Y331.88;
G1 X151.38 Y331.96;
G1 X151.6 Y332.4;
G1 X151.88 Y332.79;
G1 X152.16 Y333.09;
G1 X152.55 Y333.39;
G1 X152.97 Y333.63;
G1 X153.38 Y333.8;
G1 X153.9 Y333.94;
G1 X154.44 Y334.03;
G1 X154.94 Y334.05;
G1 X155.52 Y334.03;
G1 X155.78 Y334.0;
G1 X156.34 Y333.91;
G1 X156.51 Y333.86;
G1 X159.51 Y333.86;
G1 X159.65 Y333.83;
G1 X159.76 Y333.73;
G1 X159.79 Y333.68;
G1 X159.85 Y333.49;
G1 X159.88 Y333.24;
G1 X159.88 Y333.12;
G1 X159.88 Y333.12;
S0;( end pass 1 of 1 )


( start pass 1 of 1 )
G0 X157.04 Y330.51;
S950;
G1 X157.02 Y330.93 F1000;
G1 X156.94 Y331.3;
G1 X156.81 Y331.63;
G1 X156.63 Y331.92;
G1 X156.47 Y332.09;
G1 X156.22 Y332.31;
G1 X155.91 Y332.48;
G1 X155.57 Y332.59;
G1 X155.18 Y332.65;
G1 X154.91 Y332.66;
G1 X154.47 Y332.63;
G1 X154.11 Y332.54;
G1 X153.97 Y332.49;
G1 X153.65 Y332.29;
G1 X153.37 Y332.05;
G1 X153.33 Y332.0;
G1 X153.12 Y331.69;
G1 X152.96 Y331.35;
G1 X152.94 Y331.28;
G1 X152.85 Y330.87;
G1 X152.82 Y330.45;
G1 X152.85 Y330.0;
G1 X152.94 Y329.61;
G1 X153.1 Y329.26;
G1 X153.32 Y328.96;
G1 X153.37 Y328.9;
G1 X153.63 Y328.69;
G1 X153.94 Y328.52;
G1 X154.28 Y328.41;
G1 X154.66 Y328.35;
G1 X154.94 Y328.34;
G1 X155.37 Y328.37;
G1 X155.74 Y328.46;
G1 X155.88 Y328.51;
G1 X156.21 Y328.69;
G1 X156.49 Y328.93;
G1 X156.53 Y328.98;
G1 X156.74 Y329.28;
G1 X156.88 Y329.62;
G1 X156.91 Y329.69;
G1 X157.01 Y330.1;
G1 X157.04 Y330.51;
G1 X157.04 Y330.51;
S0;( end pass 1 of 1 )


( start pass 1 of 1 )
G0 X157.96 Y322.64;
S950;
G1 X157.93 Y322.94 F1000;
G1 X157.84 Y323.19;
G1 X157.69 Y323.41;
G1 X157.47 Y323.6;
G1 X157.43 Y323.63;
G1 X157.13 Y323.79;
G1 X156.79 Y323.91;
G1 X156.38 Y323.98;
G1 X156.02 Y324.01;
G1 X153.44 Y324.1;
G1 X153.09 Y323.79;
G1 X152.87 Y323.57;
G1 X152.63 Y323.27;
G1 X152.51 Y323.1;
G1 X152.37 Y322.8;
G1 X152.33 Y322.64;
G1 X152.28 Y322.25;
G1 X152.28 Y322.2;
G1 X152.31 Y321.91;
G1 X152.41 Y321.64;
G1 X152.58 Y321.42;
G1 X152.82 Y321.23;
G1 X153.01 Y321.12;
G1 X153.38 Y320.95;
G1 X153.83 Y320.85;
G1 X154.33 Y320.77;
G1 X154.9 Y320.75;
G1 X155.04 Y320.74;
G1 X155.58 Y320.76;
G1 X156.05 Y320.82;
G1 X156.41 Y320.91;
G1 X156.81 Y321.04;
G1 X157.13 Y321.2;
G1 X157.32 Y321.33;
G1 X157.57 Y321.56;
G1 X157.75 Y321.83;
G1 X157.8 Y321.94;
G1 X157.91 Y322.26;
G1 X157.96 Y322.58;
G1 X157.96 Y322.64;
G1 X157.96 Y322.64;
S0;( end pass 1 of 1 )


( start pass 1 of 1 )
G0 X170.5 Y329.05;
S950;
G1 X170.48 Y328.78 F1000;
G1 X170.4 Y328.57;
G1 X170.28 Y328.43;
G1 X170.1 Y328.31;
G1 X169.89 Y328.26;
G1 X169.8 Y328.25;
G1 X163.29 Y328.25;
G1 X163.32 Y327.64;
G1 X163.38 Y327.08;
G1 X163.46 Y326.76;
G1 X163.6 Y326.33;
G1 X163.8 Y325.94;
G1 X164.01 Y325.63;
G1 X164.31 Y325.33;
G1 X164.66 Y325.08;
G1 X165.01 Y324.89;
G1 X165.43 Y324.77;
G1 X165.9 Y324.68;
G1 X166.43 Y324.64;
G1 X166.52 Y324.64;
G1 X167.09 Y324.67;
G1 X167.6 Y324.72;
G1 X167.78 Y324.76;
G1 X168.26 Y324.87;
G1 X168.67 Y325.0;
G1 X168.73 Y325.02;
G1 X169.07 Y325.14;
G1 X169.35 Y325.26;
G1 X169.39 Y325.27;
G1 X169.61 Y325.36;
G1 X169.77 Y325.39;
G1 X169.79 Y325.39;
G1 X169.91 Y325.36;
G1 X169.92 Y325.35;
G1 X170.01 Y325.27;
G1 X170.02 Y325.24;
G1 X170.06 Y325.08;
G1 X170.06 Y325.02;
G1 X170.08 Y324.79;
G1 X170.09 Y324.69;
G1 X170.07 Y324.44;
G1 X170.04 Y324.25;
G1 X169.99 Y324.11;
G1 X169.89 Y323.97;
G1 X169.81 Y323.92;
G1 X169.66 Y323.83;
G1 X169.53 Y323.77;
G1 X169.22 Y323.64;
G1 X168.83 Y323.52;
G1 X168.76 Y323.51;
G1 X168.29 Y323.39;
G1 X167.76 Y323.3;
G1 X167.66 Y323.27;
G1 X167.01 Y323.2;
G1 X166.34 Y323.17;
G1 X165.66 Y323.2;
G1 X165.03 Y323.27;
G1 X164.45 Y323.42;
G1 X164.19 Y323.51;
G1 X163.69 Y323.73;
G1 X163.22 Y324.01;
G1 X162.83 Y324.33;
G1 X162.63 Y324.52;
G1 X162.31 Y324.94;
G1 X162.03 Y325.41;
G1 X161.79 Y325.93;
G1 X161.69 Y326.2;
G1 X161.54 Y326.82;
G1 X161.43 Y327.48;
G1 X161.38 Y328.2;
G1 X161.38 Y328.57;
G1 X161.4 Y329.28;
G1 X161.49 Y329.95;
G1 X161.62 Y330.57;
G1 X161.71 Y330.86;
G1 X161.91 Y331.43;
G1 X162.18 Y331.93;
G1 X162.49 Y332.39;
G1 X162.66 Y332.6;
G1 X163.04 Y332.98;
G1 X163.46 Y333.3;
G1 X163.92 Y333.57;
G1 X164.17 Y333.69;
G1 X164.69 Y333.88;
G1 X165.25 Y334.0;
G1 X165.84 Y334.07;
G1 X166.14 Y334.07;
G1 X166.72 Y334.05;
G1 X167.26 Y333.97;
G1 X167.75 Y333.84;
G1 X168.12 Y333.7;
G1 X168.61 Y333.44;
G1 X169.05 Y333.12;
G1 X169.42 Y332.75;
G1 X169.48 Y332.68;
G1 X169.78 Y332.26;
G1 X170.03 Y331.8;
G1 X170.22 Y331.29;
G1 X170.25 Y331.2;
G1 X170.4 Y330.59;
G1 X170.48 Y329.96;
G1 X170.5 Y329.38;
G1 X170.5 Y329.05;
S0;( end pass 1 of 1 )


( start pass 1 of 1 )
G0 X168.67 Y329.59;
S950;
G1 X168.66 Y330.12 F1000;
G1 X168.59 Y330.61;
G1 X168.47 Y331.06;
G1 X168.29 Y331.45;
G1 X168.06 Y331.8;
G1 X168.04 Y331.83;
G1 X167.75 Y332.12;
G1 X167.42 Y332.35;
G1 X167.03 Y332.51;
G1 X166.6 Y332.61;
G1 X166.12 Y332.65;
G1 X166.06 Y332.65;
G1 X165.62 Y332.62;
G1 X165.21 Y332.53;
G1 X164.88 Y332.4;
G1 X164.52 Y332.18;
G1 X164.2 Y331.91;
G1 X164.03 Y331.72;
G1 X163.77 Y331.35;
G1 X163.57 Y330.92;
G1 X163.5 Y330.74;
G1 X163.37 Y330.22;
G1 X163.3 Y329.68;
G1 X163.29 Y329.59;
G1 X168.67 Y329.59;
S0;( end pass 1 of 1 )


( start pass 1 of 1 )
G0 X187.35 Y330.55;
S950;
G1 X187.32 Y329.54 F1000;
G1 X187.24 Y328.59;
G1 X187.11 Y327.69;
G1 X187.09 Y327.55;
G1 X186.93 Y326.87;
G1 X186.73 Y326.24;
G1 X186.47 Y325.66;
G1 X186.23 Y325.2;
G1 X185.89 Y324.73;
G1 X185.5 Y324.32;
G1 X185.07 Y323.95;
G1 X184.66 Y323.7;
G1 X184.17 Y323.48;
G1 X183.64 Y323.32;
G1 X183.05 Y323.2;
G1 X182.42 Y323.17;
G1 X182.27 Y323.17;
G1 X181.65 Y323.2;
G1 X181.09 Y323.27;
G1 X180.57 Y323.41;
G1 X180.1 Y323.6;
G1 X180.0 Y323.64;
G1 X179.54 Y323.93;
G1 X179.14 Y324.27;
G1 X178.78 Y324.67;
G1 X178.52 Y325.05;
G1 X178.25 Y325.57;
G1 X178.02 Y326.14;
G1 X177.84 Y326.77;
G1 X177.71 Y327.35;
G1 X177.6 Y328.16;
G1 X177.53 Y329.05;
G1 X177.49 Y329.99;
G1 X177.48 Y330.48;
G1 X177.51 Y331.48;
G1 X177.59 Y332.43;
G1 X177.72 Y333.32;
G1 X177.75 Y333.47;
G1 X177.91 Y334.15;
G1 X178.11 Y334.78;
G1 X178.36 Y335.36;
G1 X178.61 Y335.8;
G1 X178.94 Y336.28;
G1 X179.33 Y336.7;
G1 X179.77 Y337.06;
G1 X180.17 Y337.31;
G1 X180.66 Y337.54;
G1 X181.19 Y337.7;
G1 X181.77 Y337.81;
G1 X182.41 Y337.85;
G1 X182.55 Y337.85;
G1 X183.17 Y337.83;
G1 X183.74 Y337.75;
G1 X184.26 Y337.61;
G1 X184.73 Y337.42;
G1 X184.83 Y337.37;
G1 X185.28 Y337.09;
G1 X185.69 Y336.75;
G1 X186.05 Y336.35;
G1 X186.31 Y335.96;
G1 X186.58 Y335.45;
G1 X186.81 Y334.87;
G1 X186.99 Y334.24;
G1 X187.11 Y333.66;
G1 X187.23 Y332.85;
G1 X187.31 Y331.98;
G1 X187.34 Y331.03;
G1 X187.35 Y330.55;
G1 X187.35 Y330.55;
S0;( end pass 1 of 1 )


( start pass 1 of 1 )
G0 X185.41 Y330.41;
S950;
G1 X185.4 Y331.2 F1000;
G1 X185.36 Y331.92;
G1 X185.33 Y332.33;
G1 X185.25 Y333.01;
G1 X185.15 Y333.62;
G1 X185.1 Y333.83;
G1 X184.96 Y334.34;
G1 X184.79 Y334.79;
G1 X184.71 Y334.94;
G1 X184.5 Y335.31;
G1 X184.26 Y335.62;
G1 X184.15 Y335.72;
G1 X183.86 Y335.94;
G1 X183.53 Y336.11;
G1 X183.39 Y336.16;
G1 X182.98 Y336.26;
G1 X182.52 Y336.3;
G1 X182.44 Y336.3;
G1 X181.98 Y336.27;
G1 X181.56 Y336.18;
G1 X181.19 Y336.03;
G1 X180.92 Y335.86;
G1 X180.61 Y335.58;
G1 X180.33 Y335.24;
G1 X180.1 Y334.86;
G1 X180.0 Y334.65;
G1 X179.81 Y334.13;
G1 X179.66 Y333.57;
G1 X179.56 Y332.95;
G1 X179.54 Y332.84;
G1 X179.46 Y331.94;
G1 X179.43 Y330.99;
G1 X179.42 Y330.61;
G1 X179.43 Y329.81;
G1 X179.47 Y329.07;
G1 X179.52 Y328.4;
G1 X179.59 Y327.89;
G1 X179.7 Y327.27;
G1 X179.84 Y326.75;
G1 X180.01 Y326.27;
G1 X180.11 Y326.07;
G1 X180.33 Y325.7;
G1 X180.59 Y325.39;
G1 X180.87 Y325.14;
G1 X181.02 Y325.04;
G1 X181.4 Y324.87;
G1 X181.82 Y324.77;
G1 X182.29 Y324.73;
G1 X182.38 Y324.72;
G1 X182.83 Y324.75;
G1 X183.23 Y324.83;
G1 X183.46 Y324.92;
G1 X183.83 Y325.12;
G1 X184.15 Y325.37;
G1 X184.26 Y325.48;
G1 X184.55 Y325.86;
G1 X184.79 Y326.3;
G1 X184.83 Y326.38;
G1 X185.03 Y326.93;
G1 X185.18 Y327.52;
G1 X185.29 Y328.19;
G1 X185.35 Y328.88;
G1 X185.4 Y329.9;
G1 X185.41 Y330.41;
G1 X185.41 Y330.41;
S0;( end pass 1 of 1 )


( start pass 1 of 1 )
G0 X198.32 Y324.2;
S950;
G1 X198.3 Y323.89 F1000;
G1 X198.29 Y323.83;
G1 X198.23 Y323.62;
G1 X198.21 Y323.58;
G1 X198.12 Y323.45;
G1 X198.08 Y323.42;
G1 X197.92 Y323.38;
G1 X197.9 Y323.38;
G1 X190.02 Y323.38;
G1 X189.77 Y323.41;
G1 X189.74 Y323.41;
G1 X189.56 Y323.52;
G1 X189.54 Y323.54;
G1 X189.45 Y323.7;
G1 X189.42 Y323.8;
G1 X189.39 Y324.06;
G1 X189.39 Y324.2;
G1 X189.4 Y324.52;
G1 X189.4 Y324.58;
G1 X189.46 Y324.83;
G1 X189.48 Y324.88;
G1 X189.61 Y325.13;
G1 X189.8 Y325.38;
G1 X189.83 Y325.41;
G1 X192.6 Y328.34;
G1 X193.12 Y328.9;
G1 X193.57 Y329.43;
G1 X193.96 Y329.93;
G1 X194.13 Y330.16;
G1 X194.5 Y330.7;
G1 X194.81 Y331.21;
G1 X195.02 Y331.63;
G1 X195.23 Y332.11;
G1 X195.38 Y332.56;
G1 X195.44 Y332.83;
G1 X195.52 Y333.41;
G1 X195.54 Y333.84;
G1 X195.51 Y334.27;
G1 X195.41 Y334.67;
G1 X195.39 Y334.73;
G1 X195.21 Y335.11;
G1 X194.98 Y335.43;
G1 X194.93 Y335.48;
G1 X194.67 Y335.73;
G1 X194.34 Y335.93;
G1 X194.21 Y335.99;
G1 X193.85 Y336.11;
G1 X193.46 Y336.17;
G1 X193.19 Y336.18;
G1 X192.7 Y336.15;
G1 X192.24 Y336.07;
G1 X191.98 Y335.99;
G1 X191.43 Y335.77;
G1 X191.04 Y335.58;
G1 X190.64 Y335.35;
G1 X190.37 Y335.18;
G1 X190.19 Y335.06;
G1 X190.04 Y335.0;
G1 X189.97 Y334.99;
G1 X189.84 Y335.02;
G1 X189.83 Y335.03;
G1 X189.75 Y335.14;
G1 X189.73 Y335.18;
G1 X189.69 Y335.36;
G1 X189.68 Y335.44;
G1 X189.66 Y335.72;
G1 X189.65 Y335.84;
G1 X189.66 Y336.1;
G1 X189.66 Y336.12;
G1 X189.7 Y336.33;
G1 X189.77 Y336.5;
G1 X189.86 Y336.61;
G1 X189.95 Y336.69;
G1 X190.1 Y336.8;
G1 X190.31 Y336.94;
G1 X190.4 Y337.01;
G1 X190.78 Y337.2;
G1 X191.22 Y337.39;
G1 X191.8 Y337.59;
G1 X192.3 Y337.72;
G1 X192.92 Y337.82;
G1 X193.55 Y337.85;
G1 X194.17 Y337.82;
G1 X194.75 Y337.74;
G1 X195.27 Y337.59;
G1 X195.35 Y337.56;
G1 X195.82 Y337.35;
G1 X196.23 Y337.11;
G1 X196.59 Y336.82;
G1 X196.64 Y336.76;
G1 X196.97 Y336.39;
G1 X197.23 Y335.98;
G1 X197.41 Y335.58;
G1 X197.57 Y335.06;
G1 X197.65 Y334.51;
G1 X197.67 Y334.15;
G1 X197.63 Y333.39;
G1 X197.55 Y332.78;
G1 X197.43 Y332.3;
G1 X197.25 Y331.79;
G1 X197.03 Y331.32;
G1 X196.75 Y330.8;
G1 X196.4 Y330.26;
G1 X195.98 Y329.67;
G1 X195.9 Y329.56;
G1 X195.49 Y329.04;
G1 X195.0 Y328.48;
G1 X194.45 Y327.88;
G1 X193.94 Y327.35;
G1 X191.68 Y324.99;
G1 X197.89 Y324.99;
G1 X198.03 Y324.95;
G1 X198.05 Y324.93;
G1 X198.17 Y324.83;
G1 X198.2 Y324.79;
G1 X198.27 Y324.61;
G1 X198.29 Y324.54;
G1 X198.32 Y324.29;
G1 X198.32 Y324.2;
G1 X198.32 Y324.2;
S0;( end pass 1 of 1 )

M5 S0;
( file end tmp/split/toy.Wood1mm.02.Engrave.svg)
( file start tmp/split/toy.Wood1mm.02.Cut.svg)
( speed:300, strength:950 codestyle='laserGRBL', passes:1 support:yes, {'support_gap': 1.0, 'support_strength': 0}' )
M3 S0;

S0;
S0;


( start pass 1 of 1 )
G0 X140.03 Y170.31;
S950;
G1 X140.0 Y168.42 F300;
G1 X139.88 Y166.53;
G1 X139.71 Y164.65;
G1 X139.46 Y162.78;
G1 X139.13 Y160.91;
G1 X138.75 Y159.07;
G1 X138.3 Y157.24;
G1 X137.77 Y155.43;
G1 X137.16 Y153.63;
G1 X136.51 Y151.87;
G1 X135.78 Y150.13;
G1 X134.99 Y148.41;
G1 X134.13 Y146.72;
G1 X133.21 Y145.09;
G1 X132.22 Y143.47;
G1 X131.18 Y141.9;
G1 X130.08 Y140.37;
G1 X128.91 Y138.88;
G1 X127.7 Y137.43;
G1 X126.44 Y136.03;
(addedSwitchblock start)
S0;
G1 X125.12 Y134.68;
G1 X123.75 Y133.38;
(addedSwitchblock end)
S950;
G1 X122.33 Y132.13;
G1 X120.86 Y130.94;
G1 X119.35 Y129.81;
G1 X117.8 Y128.72;
G1 X116.21 Y127.71;
G1 X114.59 Y126.75;
G1 X112.93 Y125.86;
G1 X111.23 Y125.02;
G1 X109.51 Y124.26;
G1 X107.75 Y123.55;
G1 X105.98 Y122.92;
G1 X104.17 Y122.35;
G1 X102.35 Y121.85;
G1 X100.52 Y121.42;
G1 X98.66 Y121.06;
G1 X96.8 Y120.77;
G1 X94.92 Y120.55;
G1 X93.04 Y120.4;
G1 X91.15 Y120.32;
G1 X90.03 Y120.31;
G1 X88.14 Y120.34;
G1 X86.26 Y120.45;
G1 X84.38 Y120.63;
G1 X82.51 Y120.88;
G1 X80.65 Y121.2;
G1 X78.8 Y121.59;
G1 X76.97 Y122.04;
G1 X75.16 Y122.57;
G1 X73.36 Y123.17;
G1 X71.59 Y123.83;
G1 X69.84 Y124.56;
G1 X68.14 Y125.35;
G1 X66.45 Y126.21;
G1 X64.81 Y127.14;
G1 X63.2 Y128.12;
G1 X61.63 Y129.16;
G1 X60.09 Y130.26;
G1 X58.6 Y131.41;
G1 X57.16 Y132.63;
G1 X55.76 Y133.9;
G1 X54.41 Y135.22;
G1 X53.11 Y136.6;
G1 X51.86 Y138.01;
G1 X50.67 Y139.47;
G1 X49.53 Y140.99;
G1 X48.45 Y142.54;
G1 X47.44 Y144.13;
G1 X46.48 Y145.75;
G1 X45.58 Y147.41;
G1 X44.75 Y149.11;
G1 X43.98 Y150.83;
G1 X43.28 Y152.59;
G1 X42.64 Y154.36;
G1 X42.07 Y156.16;
G1 X41.57 Y157.99;
G1 X41.14 Y159.82;
G1 X40.78 Y161.68;
G1 X40.49 Y163.54;
G1 X40.27 Y165.42;
G1 X40.11 Y167.3;
G1 X40.04 Y169.19;
G1 X40.03 Y170.31;
G1 X40.07 Y172.2;
G1 X40.18 Y174.08;
G1 X40.35 Y175.96;
G1 X40.6 Y177.83;
G1 X40.92 Y179.69;
G1 X41.31 Y181.54;
G1 X41.77 Y183.37;
G1 X42.3 Y185.19;
G1 X42.89 Y186.98;
G1 X43.56 Y188.74;
G1 X44.29 Y190.49;
G1 X45.08 Y192.2;
G1 X45.94 Y193.88;
G1 X46.86 Y195.53;
G1 X47.84 Y197.14;
G1 X48.89 Y198.72;
G1 X49.99 Y200.25;
G1 X51.15 Y201.74;
G1 X52.36 Y203.18;
G1 X53.63 Y204.58;
G1 X54.95 Y205.93;
G1 X56.32 Y207.23;
G1 X57.74 Y208.48;
G1 X59.2 Y209.67;
G1 X60.71 Y210.81;
G1 X62.26 Y211.89;
G1 X63.85 Y212.9;
G1 X65.48 Y213.86;
G1 X67.14 Y214.76;
G1 X68.83 Y215.59;
G1 X70.56 Y216.36;
G1 X72.31 Y217.06;
G1 X74.09 Y217.7;
G1 X75.89 Y218.27;
G1 X77.7 Y218.77;
G1 X79.55 Y219.2;
G1 X81.4 Y219.56;
G1 X83.27 Y219.85;
G1 X85.14 Y220.07;
G1 X87.03 Y220.22;
G1 X88.91 Y220.3;
G1 X90.03 Y220.31;
G1 X91.92 Y220.27;
G1 X93.81 Y220.17;
G1 X95.69 Y219.99;
G1 X97.56 Y219.74;
G1 X99.42 Y219.42;
G1 X101.27 Y219.03;
G1 X103.1 Y218.57;
G1 X104.91 Y218.04;
G1 X106.7 Y217.45;
G1 X108.47 Y216.78;
G1 X110.21 Y216.05;
G1 X111.92 Y215.26;
G1 X113.61 Y214.4;
G1 X115.25 Y213.48;
G1 X116.87 Y212.5;
G1 X118.44 Y211.45;
G1 X119.97 Y210.35;
G1 X121.46 Y209.19;
G1 X122.91 Y207.98;
G1 X124.31 Y206.71;
G1 X125.66 Y205.39;
G1 X126.96 Y204.02;
G1 X128.19 Y202.6;
G1 X129.4 Y201.14;
G1 X130.53 Y199.63;
G1 X131.61 Y198.08;
G1 X132.63 Y196.49;
G1 X133.59 Y194.86;
G1 X134.47 Y193.2;
G1 X135.32 Y191.51;
G1 X136.08 Y189.78;
G1 X136.79 Y188.03;
G1 X137.41 Y186.25;
G1 X137.99 Y184.45;
G1 X138.49 Y182.63;
G1 X138.91 Y180.79;
G1 X139.28 Y178.94;
G1 X139.57 Y177.07;
G1 X139.79 Y175.2;
G1 X139.94 Y173.31;
G1 X140.02 Y171.43;
G1 X140.03 Y170.31;
G1 X140.03 Y170.31;
S0;
( end pass 1 of 1 )


( start pass 1 of 1 )
G0 X114.82 Y5.36;
S950;
G1 X63.98 Y17.54 F300;
G1 X12.27 Y25.26;
(addedblock start)
X29.91594205540645 Y43.86719959928073
S0
X30.604057944593553 Y44.59280040071927
S950
(added block end)
G1 X48.25 Y63.2;
G1 X80.79 Y104.12;
G1 X95.65 Y54.0;
G1 X114.82 Y5.36;
S0;
( end pass 1 of 1 )

M5 S0;
( file end tmp/split/toy.Wood1mm.02.Cut.svg)
