( file start tmp/split/toy.Glas.01.Engrave.svg)
( speed:700, strength:300 codestyle='laserGRBL', passes:1 support:no )
M3 S0;

S0;
S0;


( start pass 1 of 1 )
G0 X16.86 Y345.21;
S300;
G1 X16.84 Y344.87 F700;
G1 X16.84 Y344.84;
G1 X16.78 Y344.59;
G1 X16.77 Y344.57;
G1 X16.68 Y344.45;
G1 X16.66 Y344.43;
G1 X16.54 Y344.38;
G1 X16.52 Y344.38;
G1 X16.39 Y344.41;
G1 X16.21 Y344.51;
G1 X16.07 Y344.59;
G1 X15.78 Y344.78;
G1 X15.41 Y344.98;
G1 X15.25 Y345.06;
G1 X14.78 Y345.26;
G1 X14.23 Y345.45;
G1 X14.0 Y345.52;
G1 X13.53 Y345.63;
G1 X12.99 Y345.7;
G1 X12.4 Y345.73;
G1 X12.29 Y345.73;
G1 X11.64 Y345.69;
G1 X11.08 Y345.6;
G1 X10.55 Y345.45;
G1 X10.18 Y345.3;
G1 X9.66 Y345.02;
G1 X9.19 Y344.7;
G1 X8.77 Y344.32;
G1 X8.59 Y344.11;
G1 X8.21 Y343.6;
G1 X7.92 Y343.09;
G1 X7.67 Y342.53;
G1 X7.59 Y342.3;
G1 X7.41 Y341.62;
G1 X7.3 Y340.91;
G1 X7.25 Y340.16;
G1 X7.25 Y340.03;
G1 X7.28 Y339.27;
G1 X7.37 Y338.56;
G1 X7.51 Y337.96;
G1 X7.62 Y337.6;
G1 X7.87 Y337.02;
G1 X8.16 Y336.5;
G1 X8.5 Y336.03;
G1 X8.68 Y335.82;
G1 X9.09 Y335.43;
G1 X9.52 Y335.1;
G1 X10.02 Y334.83;
G1 X10.28 Y334.72;
G1 X10.83 Y334.53;
G1 X11.41 Y334.41;
G1 X12.02 Y334.35;
G1 X12.33 Y334.34;
G1 X12.94 Y334.37;
G1 X13.56 Y334.47;
G1 X13.66 Y334.5;
G1 X14.22 Y334.66;
G1 X14.74 Y334.88;
G1 X14.93 Y334.98;
G1 X14.93 Y339.14;
G1 X11.62 Y339.14;
G1 X11.48 Y339.17;
G1 X11.37 Y339.27;
G1 X11.34 Y339.32;
G1 X11.28 Y339.5;
G1 X11.26 Y339.73;
G1 X11.25 Y339.91;
G1 X11.26 Y340.18;
G1 X11.27 Y340.26;
G1 X11.31 Y340.44;
G1 X11.34 Y340.5;
G1 X11.42 Y340.62;
G1 X11.46 Y340.65;
G1 X11.59 Y340.69;
G1 X11.62 Y340.69;
G1 X16.14 Y340.69;
G1 X16.38 Y340.65;
G1 X16.39 Y340.65;
G1 X16.6 Y340.53;
G1 X16.62 Y340.51;
G1 X16.73 Y340.36;
G1 X16.77 Y340.27;
G1 X16.82 Y340.04;
G1 X16.82 Y339.92;
G1 X16.82 Y334.48;
G1 X16.8 Y334.19;
G1 X16.73 Y333.99;
G1 X16.6 Y333.82;
G1 X16.41 Y333.67;
G1 X16.3 Y333.61;
G1 X15.97 Y333.46;
G1 X15.6 Y333.32;
G1 X15.48 Y333.27;
G1 X14.71 Y333.02;
G1 X14.43 Y332.95;
G1 X13.62 Y332.79;
G1 X13.34 Y332.75;
G1 X12.53 Y332.69;
G1 X12.25 Y332.69;
G1 X11.49 Y332.72;
G1 X10.76 Y332.8;
G1 X10.08 Y332.94;
G1 X9.44 Y333.14;
G1 X9.3 Y333.19;
G1 X8.65 Y333.49;
G1 X8.05 Y333.85;
G1 X7.55 Y334.23;
G1 X7.1 Y334.65;
G1 X7.09 Y334.66;
G1 X6.66 Y335.18;
G1 X6.28 Y335.75;
G1 X5.95 Y336.37;
G1 X5.72 Y336.93;
G1 X5.51 Y337.64;
G1 X5.36 Y338.39;
G1 X5.27 Y339.19;
G1 X5.25 Y339.89;
G1 X5.28 Y340.67;
G1 X5.36 Y341.42;
G1 X5.51 Y342.14;
G1 X5.71 Y342.81;
G1 X5.76 Y342.96;
G1 X6.05 Y343.65;
G1 X6.41 Y344.29;
G1 X6.81 Y344.87;
G1 X7.2 Y345.31;
G1 X7.72 Y345.79;
G1 X8.27 Y346.2;
G1 X8.89 Y346.56;
G1 X9.44 Y346.81;
G1 X10.07 Y347.03;
G1 X10.74 Y347.2;
G1 X11.44 Y347.3;
G1 X12.17 Y347.35;
G1 X12.34 Y347.35;
G1 X13.07 Y347.32;
G1 X13.76 Y347.23;
G1 X13.87 Y347.21;
G1 X14.5 Y347.06;
G1 X15.05 Y346.89;
G1 X15.14 Y346.86;
G1 X15.62 Y346.68;
G1 X15.99 Y346.5;
G1 X16.07 Y346.45;
G1 X16.32 Y346.29;
G1 X16.53 Y346.15;
G1 X16.61 Y346.08;
G1 X16.75 Y345.89;
G1 X16.8 Y345.75;
G1 X16.84 Y345.54;
G1 X16.86 Y345.26;
G1 X16.86 Y345.21;
G1 X16.86 Y345.21;
S0;( end pass 1 of 1 )


( start pass 1 of 1 )
G0 X22.0 Y333.16;
S300;
G1 X21.97 Y333.03 F700;
G1 X21.95 Y333.01;
G1 X21.83 Y332.92;
G1 X21.81 Y332.91;
G1 X21.64 Y332.86;
G1 X21.53 Y332.84;
G1 X21.3 Y332.82;
G1 X21.08 Y332.82;
G1 X20.79 Y332.83;
G1 X20.64 Y332.84;
G1 X20.41 Y332.89;
G1 X20.35 Y332.91;
G1 X20.22 Y333.0;
G1 X20.21 Y333.01;
G1 X20.18 Y333.16;
G1 X20.18 Y347.89;
G1 X20.21 Y348.04;
G1 X20.32 Y348.14;
G1 X20.35 Y348.15;
G1 X20.58 Y348.21;
G1 X20.64 Y348.22;
G1 X20.92 Y348.24;
G1 X21.08 Y348.24;
G1 X21.38 Y348.23;
G1 X21.53 Y348.22;
G1 X21.74 Y348.18;
G1 X21.81 Y348.15;
G1 X21.94 Y348.06;
G1 X21.95 Y348.04;
G1 X22.0 Y347.91;
G1 X22.0 Y347.89;
G1 X22.0 Y333.16;
S0;( end pass 1 of 1 )


( start pass 1 of 1 )
G0 X32.83 Y333.15;
S300;
G1 X32.79 Y333.02 F700;
G1 X32.74 Y332.95;
G1 X32.61 Y332.88;
G1 X32.5 Y332.85;
G1 X32.31 Y332.83;
G1 X32.04 Y332.82;
G1 X31.77 Y332.83;
G1 X31.59 Y332.85;
G1 X31.41 Y332.91;
G1 X31.34 Y332.95;
G1 X31.28 Y333.06;
G1 X31.27 Y333.15;
G1 X31.27 Y334.14;
G1 X30.84 Y333.73;
G1 X30.39 Y333.39;
G1 X29.9 Y333.1;
G1 X29.81 Y333.06;
G1 X29.3 Y332.86;
G1 X28.77 Y332.73;
G1 X28.23 Y332.68;
G1 X28.13 Y332.68;
G1 X27.55 Y332.71;
G1 X27.01 Y332.8;
G1 X26.7 Y332.89;
G1 X26.25 Y333.06;
G1 X25.84 Y333.3;
G1 X25.62 Y333.47;
G1 X25.31 Y333.79;
G1 X25.06 Y334.16;
G1 X24.93 Y334.42;
G1 X24.79 Y334.83;
G1 X24.71 Y335.27;
G1 X24.69 Y335.7;
G1 X24.72 Y336.2;
G1 X24.81 Y336.62;
G1 X24.96 Y337.01;
G1 X25.03 Y337.15;
G1 X25.27 Y337.52;
G1 X25.58 Y337.85;
G1 X25.94 Y338.13;
G1 X26.01 Y338.18;
G1 X26.44 Y338.41;
G1 X26.93 Y338.61;
G1 X27.47 Y338.76;
G1 X27.57 Y338.78;
G1 X28.24 Y338.9;
G1 X28.97 Y338.97;
G1 X29.66 Y338.99;
G1 X31.03 Y338.99;
G1 X31.03 Y339.76;
G1 X31.01 Y340.22;
G1 X30.94 Y340.63;
G1 X30.9 Y340.78;
G1 X30.77 Y341.12;
G1 X30.59 Y341.41;
G1 X30.51 Y341.51;
G1 X30.26 Y341.73;
G1 X29.98 Y341.88;
G1 X29.81 Y341.95;
G1 X29.49 Y342.04;
G1 X29.12 Y342.09;
G1 X28.75 Y342.1;
G1 X28.21 Y342.07;
G1 X27.72 Y341.98;
G1 X27.54 Y341.94;
G1 X26.99 Y341.75;
G1 X26.6 Y341.58;
G1 X26.2 Y341.38;
G1 X25.93 Y341.23;
G1 X25.72 Y341.12;
G1 X25.57 Y341.08;
G1 X25.54 Y341.08;
G1 X25.4 Y341.11;
G1 X25.38 Y341.12;
G1 X25.27 Y341.24;
G1 X25.26 Y341.25;
G1 X25.2 Y341.45;
G1 X25.19 Y341.47;
G1 X25.17 Y341.78;
G1 X25.18 Y342.05;
G1 X25.2 Y342.21;
G1 X25.3 Y342.41;
G1 X25.39 Y342.52;
G1 X25.54 Y342.64;
G1 X25.75 Y342.76;
G1 X25.91 Y342.85;
G1 X26.35 Y343.06;
G1 X26.75 Y343.2;
G1 X27.3 Y343.37;
G1 X27.78 Y343.47;
G1 X28.42 Y343.56;
G1 X28.92 Y343.58;
G1 X29.56 Y343.55;
G1 X30.14 Y343.48;
G1 X30.61 Y343.37;
G1 X30.74 Y343.34;
G1 X31.18 Y343.16;
G1 X31.57 Y342.94;
G1 X31.9 Y342.67;
G1 X31.95 Y342.62;
G1 X32.22 Y342.3;
G1 X32.43 Y341.94;
G1 X32.6 Y341.54;
G1 X32.61 Y341.46;
G1 X32.74 Y340.95;
G1 X32.81 Y340.39;
G1 X32.83 Y339.84;
G1 X32.83 Y333.15;
S0;( end pass 1 of 1 )


( start pass 1 of 1 )
G0 X31.02 Y337.68;
S300;
G1 X29.47 Y337.68 F700;
G1 X28.93 Y337.66;
G1 X28.44 Y337.6;
G1 X28.17 Y337.55;
G1 X27.78 Y337.44;
G1 X27.44 Y337.29;
G1 X27.25 Y337.17;
G1 X26.98 Y336.95;
G1 X26.77 Y336.69;
G1 X26.71 Y336.58;
G1 X26.6 Y336.27;
G1 X26.55 Y335.93;
G1 X26.55 Y335.78;
G1 X26.58 Y335.4;
G1 X26.68 Y335.06;
G1 X26.84 Y334.77;
G1 X27.03 Y334.55;
G1 X27.29 Y334.36;
G1 X27.59 Y334.22;
G1 X27.93 Y334.14;
G1 X28.32 Y334.1;
G1 X28.41 Y334.1;
G1 X28.85 Y334.13;
G1 X29.27 Y334.24;
G1 X29.67 Y334.42;
G1 X29.74 Y334.46;
G1 X30.13 Y334.73;
G1 X30.54 Y335.07;
G1 X30.95 Y335.49;
G1 X31.02 Y335.58;
G1 X31.02 Y337.68;
S0;( end pass 1 of 1 )


( start pass 1 of 1 )
G0 X42.4 Y335.86;
S300;
G1 X42.37 Y335.35 F700;
G1 X42.27 Y334.89;
G1 X42.12 Y334.51;
G1 X41.9 Y334.12;
G1 X41.62 Y333.77;
G1 X41.32 Y333.5;
G1 X40.94 Y333.24;
G1 X40.51 Y333.03;
G1 X40.09 Y332.89;
G1 X39.52 Y332.76;
G1 X38.9 Y332.69;
G1 X38.51 Y332.68;
G1 X37.88 Y332.71;
G1 X37.5 Y332.76;
G1 X36.99 Y332.86;
G1 X36.64 Y332.96;
G1 X36.25 Y333.11;
G1 X36.0 Y333.23;
G1 X35.76 Y333.36;
G1 X35.61 Y333.48;
G1 X35.49 Y333.65;
G1 X35.43 Y333.79;
G1 X35.39 Y334.03;
G1 X35.38 Y334.33;
G1 X35.39 Y334.6;
G1 X35.4 Y334.68;
G1 X35.45 Y334.88;
G1 X35.46 Y334.91;
G1 X35.52 Y335.02;
G1 X35.54 Y335.03;
G1 X35.67 Y335.08;
G1 X35.69 Y335.08;
G1 X35.81 Y335.05;
G1 X35.97 Y334.97;
G1 X36.04 Y334.92;
G1 X36.34 Y334.75;
G1 X36.63 Y334.61;
G1 X37.02 Y334.43;
G1 X37.45 Y334.27;
G1 X37.86 Y334.18;
G1 X38.35 Y334.13;
G1 X38.54 Y334.13;
G1 X38.99 Y334.16;
G1 X39.38 Y334.23;
G1 X39.74 Y334.35;
G1 X40.03 Y334.52;
G1 X40.26 Y334.72;
G1 X40.43 Y334.97;
G1 X40.45 Y335.01;
G1 X40.56 Y335.31;
G1 X40.6 Y335.66;
G1 X40.6 Y335.72;
G1 X40.57 Y336.02;
G1 X40.47 Y336.28;
G1 X40.38 Y336.42;
G1 X40.13 Y336.7;
G1 X39.84 Y336.92;
G1 X39.82 Y336.93;
G1 X39.4 Y337.16;
G1 X39.03 Y337.32;
G1 X38.11 Y337.68;
G1 X37.29 Y338.05;
G1 X37.2 Y338.1;
G1 X36.77 Y338.37;
G1 X36.4 Y338.68;
G1 X36.11 Y339.03;
G1 X35.86 Y339.43;
G1 X35.83 Y339.5;
G1 X35.71 Y339.85;
G1 X35.64 Y340.25;
G1 X35.61 Y340.64;
G1 X35.65 Y341.07;
G1 X35.75 Y341.49;
G1 X35.84 Y341.75;
G1 X36.04 Y342.14;
G1 X36.32 Y342.49;
G1 X36.53 Y342.69;
G1 X36.9 Y342.97;
G1 X37.29 Y343.19;
G1 X37.65 Y343.34;
G1 X38.15 Y343.47;
G1 X38.71 Y343.56;
G1 X39.24 Y343.58;
G1 X39.83 Y343.54;
G1 X40.03 Y343.51;
G1 X40.49 Y343.42;
G1 X40.75 Y343.35;
G1 X41.1 Y343.22;
G1 X41.29 Y343.13;
G1 X41.51 Y343.01;
G1 X41.63 Y342.93;
G1 X41.74 Y342.83;
G1 X41.78 Y342.77;
G1 X41.84 Y342.62;
G1 X41.87 Y342.45;
G1 X41.87 Y342.42;
G1 X41.89 Y342.21;
G1 X41.89 Y342.12;
G1 X41.88 Y341.85;
G1 X41.87 Y341.79;
G1 X41.84 Y341.62;
G1 X41.82 Y341.57;
G1 X41.75 Y341.46;
G1 X41.73 Y341.44;
G1 X41.61 Y341.41;
G1 X41.49 Y341.44;
G1 X41.32 Y341.53;
G1 X41.08 Y341.67;
G1 X40.84 Y341.78;
G1 X40.47 Y341.93;
G1 X40.13 Y342.05;
G1 X39.74 Y342.13;
G1 X39.29 Y342.17;
G1 X39.22 Y342.17;
G1 X38.82 Y342.14;
G1 X38.46 Y342.07;
G1 X38.4 Y342.06;
G1 X38.08 Y341.93;
G1 X37.83 Y341.77;
G1 X37.82 Y341.76;
G1 X37.61 Y341.55;
G1 X37.47 Y341.31;
G1 X37.38 Y341.0;
G1 X37.36 Y340.73;
G1 X37.39 Y340.43;
G1 X37.49 Y340.16;
G1 X37.58 Y340.01;
G1 X37.84 Y339.73;
G1 X38.15 Y339.5;
G1 X38.58 Y339.27;
G1 X38.96 Y339.1;
G1 X39.88 Y338.74;
G1 X40.71 Y338.37;
G1 X40.79 Y338.32;
G1 X41.24 Y338.06;
G1 X41.62 Y337.76;
G1 X41.91 Y337.42;
G1 X42.13 Y337.07;
G1 X42.18 Y336.96;
G1 X42.31 Y336.62;
G1 X42.38 Y336.24;
G1 X42.4 Y335.86;
G1 X42.4 Y335.86;
S0;( end pass 1 of 1 )


( start pass 1 of 1 )
G0 X47.35 Y334.09;
S300;
G1 X47.33 Y333.71 F700;
G1 X47.28 Y333.41;
G1 X47.19 Y333.18;
G1 X47.09 Y333.04;
G1 X46.93 Y332.92;
G1 X46.71 Y332.84;
G1 X46.43 Y332.8;
G1 X46.15 Y332.79;
G1 X45.8 Y332.81;
G1 X45.53 Y332.87;
G1 X45.33 Y332.96;
G1 X45.24 Y333.04;
G1 X45.12 Y333.21;
G1 X45.04 Y333.44;
G1 X44.99 Y333.75;
G1 X44.98 Y334.05;
G1 X45.0 Y334.43;
G1 X45.05 Y334.73;
G1 X45.14 Y334.95;
G1 X45.24 Y335.09;
G1 X45.4 Y335.21;
G1 X45.63 Y335.29;
G1 X45.9 Y335.34;
G1 X46.18 Y335.35;
G1 X46.53 Y335.33;
G1 X46.81 Y335.27;
G1 X47.02 Y335.17;
G1 X47.1 Y335.1;
G1 X47.21 Y334.93;
G1 X47.29 Y334.7;
G1 X47.34 Y334.4;
G1 X47.35 Y334.09;
G1 X47.35 Y334.09;
S0;( end pass 1 of 1 )


( start pass 1 of 1 )
G0 X64.78 Y342.97;
S300;
G1 X64.75 Y342.38 F700;
G1 X64.66 Y341.82;
G1 X64.52 Y341.29;
G1 X64.43 Y341.04;
G1 X64.18 Y340.53;
G1 X63.86 Y340.06;
G1 X63.52 Y339.68;
G1 X63.41 Y339.58;
G1 X63.01 Y339.25;
G1 X62.56 Y338.97;
G1 X62.06 Y338.74;
G1 X61.8 Y338.64;
G1 X61.28 Y338.49;
G1 X60.71 Y338.38;
G1 X60.09 Y338.32;
G1 X59.53 Y338.31;
G1 X57.91 Y338.31;
G1 X57.91 Y333.17;
G1 X57.88 Y333.04;
G1 X57.86 Y333.02;
G1 X57.77 Y332.94;
G1 X57.7 Y332.91;
G1 X57.55 Y332.87;
G1 X57.42 Y332.85;
G1 X57.16 Y332.82;
G1 X56.97 Y332.82;
G1 X56.69 Y332.83;
G1 X56.5 Y332.85;
G1 X56.29 Y332.89;
G1 X56.22 Y332.91;
G1 X56.1 Y332.98;
G1 X56.06 Y333.02;
G1 X56.02 Y333.14;
G1 X56.02 Y333.17;
G1 X56.02 Y346.34;
G1 X56.04 Y346.59;
G1 X56.11 Y346.79;
G1 X56.22 Y346.94;
G1 X56.25 Y346.96;
G1 X56.45 Y347.09;
G1 X56.68 Y347.15;
G1 X56.77 Y347.15;
G1 X59.82 Y347.15;
G1 X60.48 Y347.13;
G1 X60.7 Y347.11;
G1 X61.13 Y347.05;
G1 X61.57 Y346.97;
G1 X61.71 Y346.94;
G1 X62.16 Y346.81;
G1 X62.61 Y346.62;
G1 X62.89 Y346.47;
G1 X63.32 Y346.18;
G1 X63.7 Y345.85;
G1 X63.91 Y345.62;
G1 X64.2 Y345.21;
G1 X64.43 Y344.75;
G1 X64.55 Y344.44;
G1 X64.69 Y343.91;
G1 X64.77 Y343.35;
G1 X64.78 Y342.97;
G1 X64.78 Y342.97;
S0;( end pass 1 of 1 )


( start pass 1 of 1 )
G0 X62.79 Y342.82;
S300;
G1 X62.76 Y343.29 F700;
G1 X62.68 Y343.72;
G1 X62.55 Y344.1;
G1 X62.46 Y344.27;
G1 X62.24 Y344.61;
G1 X61.98 Y344.89;
G1 X61.7 Y345.11;
G1 X61.65 Y345.14;
G1 X61.24 Y345.35;
G1 X60.82 Y345.48;
G1 X60.66 Y345.51;
G1 X59.98 Y345.58;
G1 X59.67 Y345.59;
G1 X57.91 Y345.59;
G1 X57.91 Y339.86;
G1 X59.62 Y339.86;
G1 X60.14 Y339.89;
G1 X60.59 Y339.95;
G1 X60.98 Y340.06;
G1 X61.04 Y340.08;
G1 X61.46 Y340.28;
G1 X61.81 Y340.52;
G1 X62.0 Y340.69;
G1 X62.27 Y341.01;
G1 X62.49 Y341.38;
G1 X62.59 Y341.63;
G1 X62.72 Y342.11;
G1 X62.78 Y342.61;
G1 X62.79 Y342.82;
G1 X62.79 Y342.82;
S0;( end pass 1 of 1 )


( start pass 1 of 1 )
G0 X74.45 Y333.15;
S300;
G1 X74.43 Y333.02 F700;
G1 X74.37 Y332.95;
G1 X74.2 Y332.87;
G1 X74.13 Y332.85;
G1 X73.94 Y332.83;
G1 X73.68 Y332.82;
G1 X73.39 Y332.83;
G1 X73.22 Y332.85;
G1 X73.03 Y332.91;
G1 X72.97 Y332.95;
G1 X72.91 Y333.06;
G1 X72.9 Y333.15;
G1 X72.9 Y334.14;
G1 X72.47 Y333.73;
G1 X72.02 Y333.39;
G1 X71.53 Y333.1;
G1 X71.44 Y333.06;
G1 X70.93 Y332.86;
G1 X70.4 Y332.73;
G1 X69.9 Y332.68;
G1 X69.75 Y332.68;
G1 X69.18 Y332.71;
G1 X68.64 Y332.8;
G1 X68.33 Y332.89;
G1 X67.88 Y333.06;
G1 X67.47 Y333.3;
G1 X67.25 Y333.47;
G1 X66.94 Y333.79;
G1 X66.69 Y334.16;
G1 X66.56 Y334.42;
G1 X66.41 Y334.87;
G1 X66.33 Y335.32;
G1 X66.31 Y335.7;
G1 X66.34 Y336.16;
G1 X66.43 Y336.58;
G1 X66.56 Y336.97;
G1 X66.66 Y337.15;
G1 X66.9 Y337.52;
G1 X67.2 Y337.85;
G1 X67.56 Y338.13;
G1 X67.64 Y338.18;
G1 X68.06 Y338.41;
G1 X68.56 Y338.61;
G1 X69.09 Y338.76;
G1 X69.2 Y338.78;
G1 X69.87 Y338.9;
G1 X70.59 Y338.97;
G1 X71.29 Y338.99;
G1 X72.65 Y338.99;
G1 X72.65 Y339.76;
G1 X72.62 Y340.26;
G1 X72.55 Y340.71;
G1 X72.53 Y340.78;
G1 X72.4 Y341.12;
G1 X72.22 Y341.41;
G1 X72.14 Y341.51;
G1 X71.89 Y341.73;
G1 X71.61 Y341.88;
G1 X71.44 Y341.95;
G1 X71.08 Y342.04;
G1 X70.67 Y342.09;
G1 X70.38 Y342.1;
G1 X69.84 Y342.07;
G1 X69.34 Y341.98;
G1 X69.17 Y341.94;
G1 X68.62 Y341.75;
G1 X68.23 Y341.58;
G1 X67.83 Y341.38;
G1 X67.56 Y341.23;
G1 X67.36 Y341.13;
G1 X67.2 Y341.08;
G1 X67.16 Y341.08;
G1 X67.03 Y341.11;
G1 X67.01 Y341.12;
G1 X66.91 Y341.22;
G1 X66.89 Y341.25;
G1 X66.83 Y341.45;
G1 X66.81 Y341.47;
G1 X66.8 Y341.78;
G1 X66.81 Y342.05;
G1 X66.83 Y342.21;
G1 X66.92 Y342.41;
G1 X67.02 Y342.52;
G1 X67.17 Y342.64;
G1 X67.38 Y342.76;
G1 X67.54 Y342.85;
G1 X67.98 Y343.06;
G1 X68.38 Y343.2;
G1 X68.93 Y343.37;
G1 X69.41 Y343.47;
G1 X70.05 Y343.56;
G1 X70.55 Y343.58;
G1 X71.19 Y343.55;
G1 X71.77 Y343.48;
G1 X72.23 Y343.37;
G1 X72.37 Y343.34;
G1 X72.81 Y343.16;
G1 X73.2 Y342.94;
G1 X73.53 Y342.67;
G1 X73.58 Y342.62;
G1 X73.84 Y342.3;
G1 X74.06 Y341.94;
G1 X74.23 Y341.54;
G1 X74.25 Y341.46;
G1 X74.37 Y340.95;
G1 X74.44 Y340.39;
G1 X74.45 Y339.84;
G1 X74.45 Y333.15;
S0;( end pass 1 of 1 )


( start pass 1 of 1 )
G0 X72.65 Y337.68;
S300;
G1 X71.09 Y337.68 F700;
G1 X70.56 Y337.66;
G1 X70.06 Y337.6;
G1 X69.8 Y337.55;
G1 X69.41 Y337.44;
G1 X69.06 Y337.29;
G1 X68.88 Y337.17;
G1 X68.61 Y336.95;
G1 X68.4 Y336.69;
G1 X68.34 Y336.58;
G1 X68.23 Y336.27;
G1 X68.18 Y335.93;
G1 X68.18 Y335.78;
G1 X68.2 Y335.4;
G1 X68.31 Y335.06;
G1 X68.47 Y334.77;
G1 X68.66 Y334.55;
G1 X68.92 Y334.36;
G1 X69.22 Y334.22;
G1 X69.56 Y334.14;
G1 X69.95 Y334.1;
G1 X70.04 Y334.1;
G1 X70.48 Y334.13;
G1 X70.9 Y334.24;
G1 X71.29 Y334.42;
G1 X71.36 Y334.46;
G1 X71.75 Y334.73;
G1 X72.16 Y335.07;
G1 X72.58 Y335.49;
G1 X72.65 Y335.58;
G1 X72.65 Y337.68;
S0;( end pass 1 of 1 )


( start pass 1 of 1 )
G0 X86.09 Y342.63;
S300;
G1 X86.07 Y342.37 F700;
G1 X86.02 Y342.16;
G1 X85.98 Y342.07;
G1 X85.88 Y341.95;
G1 X85.75 Y341.9;
G1 X85.72 Y341.9;
G1 X84.29 Y341.9;
G1 X84.55 Y341.59;
G1 X84.75 Y341.25;
G1 X84.83 Y341.02;
G1 X84.94 Y340.57;
G1 X84.99 Y340.11;
G1 X84.99 Y340.03;
G1 X84.96 Y339.51;
G1 X84.88 Y339.02;
G1 X84.74 Y338.58;
G1 X84.71 Y338.51;
G1 X84.49 Y338.07;
G1 X84.22 Y337.69;
G1 X83.92 Y337.38;
G1 X83.54 Y337.09;
G1 X83.12 Y336.86;
G1 X82.71 Y336.69;
G1 X82.2 Y336.55;
G1 X81.65 Y336.47;
G1 X81.14 Y336.45;
G1 X80.59 Y336.48;
G1 X80.06 Y336.58;
G1 X79.98 Y336.6;
G1 X79.59 Y336.74;
G1 X79.3 Y336.9;
G1 X79.15 Y337.01;
G1 X78.94 Y336.77;
G1 X78.81 Y336.56;
G1 X78.73 Y336.31;
G1 X78.69 Y336.02;
G1 X78.69 Y335.97;
G1 X78.73 Y335.74;
G1 X78.83 Y335.54;
G1 X79.01 Y335.36;
G1 X79.05 Y335.33;
G1 X79.3 Y335.2;
G1 X79.59 Y335.1;
G1 X79.95 Y335.06;
G1 X80.01 Y335.06;
G1 X82.6 Y334.95;
G1 X83.2 Y334.9;
G1 X83.75 Y334.79;
G1 X83.95 Y334.74;
G1 X84.44 Y334.56;
G1 X84.83 Y334.35;
G1 X85.02 Y334.22;
G1 X85.34 Y333.94;
G1 X85.6 Y333.62;
G1 X85.73 Y333.39;
G1 X85.87 Y333.04;
G1 X85.96 Y332.64;
G1 X85.98 Y332.26;
G1 X85.95 Y331.79;
G1 X85.84 Y331.34;
G1 X85.69 Y330.96;
G1 X85.48 Y330.58;
G1 X85.21 Y330.24;
G1 X84.87 Y329.93;
G1 X84.81 Y329.88;
G1 X84.41 Y329.6;
G1 X83.94 Y329.36;
G1 X83.41 Y329.17;
G1 X83.31 Y329.14;
G1 X82.76 Y329.0;
G1 X82.15 Y328.91;
G1 X81.48 Y328.87;
G1 X81.15 Y328.86;
G1 X80.48 Y328.88;
G1 X79.89 Y328.93;
G1 X79.34 Y329.02;
G1 X79.09 Y329.07;
G1 X78.59 Y329.21;
G1 X78.16 Y329.38;
G1 X77.78 Y329.58;
G1 X77.72 Y329.62;
G1 X77.41 Y329.86;
G1 X77.16 Y330.12;
G1 X76.97 Y330.42;
G1 X76.94 Y330.47;
G1 X76.79 Y330.85;
G1 X76.7 Y331.26;
G1 X76.7 Y331.53;
G1 X76.73 Y331.97;
G1 X76.79 Y332.24;
G1 X76.95 Y332.68;
G1 X77.05 Y332.89;
G1 X77.37 Y333.33;
G1 X77.5 Y333.47;
G1 X77.95 Y333.89;
G1 X78.13 Y334.03;
G1 X77.79 Y334.24;
G1 X77.51 Y334.48;
G1 X77.33 Y334.73;
G1 X77.17 Y335.06;
G1 X77.09 Y335.4;
G1 X77.06 Y335.63;
G1 X77.11 Y336.08;
G1 X77.2 Y336.49;
G1 X77.34 Y336.83;
G1 X77.63 Y337.3;
G1 X77.97 Y337.71;
G1 X78.03 Y337.78;
G1 X77.73 Y338.18;
G1 X77.52 Y338.62;
G1 X77.48 Y338.7;
G1 X77.38 Y339.08;
G1 X77.31 Y339.51;
G1 X77.29 Y339.94;
G1 X77.31 Y340.46;
G1 X77.41 Y340.94;
G1 X77.55 Y341.39;
G1 X77.58 Y341.46;
G1 X77.81 Y341.9;
G1 X78.08 Y342.29;
G1 X78.37 Y342.6;
G1 X78.75 Y342.89;
G1 X79.17 Y343.13;
G1 X79.59 Y343.3;
G1 X80.09 Y343.45;
G1 X80.64 Y343.53;
G1 X81.14 Y343.56;
G1 X81.72 Y343.53;
G1 X81.98 Y343.5;
G1 X82.54 Y343.41;
G1 X82.72 Y343.37;
G1 X85.72 Y343.37;
G1 X85.86 Y343.34;
G1 X85.96 Y343.24;
G1 X85.99 Y343.18;
G1 X86.05 Y343.02;
G1 X86.08 Y342.8;
G1 X86.09 Y342.63;
G1 X86.09 Y342.63;
S0;( end pass 1 of 1 )


( start pass 1 of 1 )
G0 X83.25 Y340.02;
S300;
G1 X83.22 Y340.43 F700;
G1 X83.14 Y340.81;
G1 X83.01 Y341.14;
G1 X82.83 Y341.43;
G1 X82.68 Y341.59;
G1 X82.42 Y341.81;
G1 X82.12 Y341.98;
G1 X81.78 Y342.1;
G1 X81.38 Y342.16;
G1 X81.11 Y342.17;
G1 X80.69 Y342.14;
G1 X80.31 Y342.04;
G1 X80.18 Y341.99;
G1 X79.84 Y341.8;
G1 X79.56 Y341.55;
G1 X79.53 Y341.51;
G1 X79.31 Y341.2;
G1 X79.17 Y340.85;
G1 X79.15 Y340.79;
G1 X79.05 Y340.33;
G1 X79.02 Y339.95;
G1 X79.05 Y339.51;
G1 X79.15 Y339.12;
G1 X79.3 Y338.77;
G1 X79.52 Y338.47;
G1 X79.58 Y338.41;
G1 X79.84 Y338.19;
G1 X80.14 Y338.03;
G1 X80.48 Y337.92;
G1 X80.87 Y337.86;
G1 X81.14 Y337.85;
G1 X81.56 Y337.88;
G1 X81.95 Y337.96;
G1 X82.08 Y338.01;
G1 X82.41 Y338.2;
G1 X82.69 Y338.44;
G1 X82.73 Y338.49;
G1 X82.93 Y338.76;
G1 X83.07 Y339.07;
G1 X83.11 Y339.19;
G1 X83.21 Y339.6;
G1 X83.25 Y340.02;
G1 X83.25 Y340.02;
S0;( end pass 1 of 1 )


( start pass 1 of 1 )
G0 X84.16 Y332.16;
S300;
G1 X84.13 Y332.44 F700;
G1 X84.04 Y332.7;
G1 X83.9 Y332.92;
G1 X83.69 Y333.1;
G1 X83.63 Y333.14;
G1 X83.34 Y333.3;
G1 X82.99 Y333.42;
G1 X82.59 Y333.49;
G1 X82.22 Y333.51;
G1 X79.65 Y333.6;
G1 X79.3 Y333.3;
G1 X79.06 Y333.07;
G1 X78.83 Y332.78;
G1 X78.72 Y332.61;
G1 X78.58 Y332.3;
G1 X78.53 Y332.16;
G1 X78.48 Y331.75;
G1 X78.48 Y331.71;
G1 X78.51 Y331.41;
G1 X78.62 Y331.15;
G1 X78.79 Y330.93;
G1 X79.02 Y330.73;
G1 X79.2 Y330.63;
G1 X79.59 Y330.47;
G1 X80.03 Y330.35;
G1 X80.53 Y330.28;
G1 X81.09 Y330.25;
G1 X81.23 Y330.25;
G1 X81.78 Y330.27;
G1 X82.25 Y330.33;
G1 X82.62 Y330.42;
G1 X83.02 Y330.55;
G1 X83.35 Y330.71;
G1 X83.52 Y330.83;
G1 X83.77 Y331.07;
G1 X83.96 Y331.33;
G1 X84.01 Y331.44;
G1 X84.12 Y331.8;
G1 X84.16 Y332.16;
G1 X84.16 Y332.16;
S0;( end pass 1 of 1 )


( start pass 1 of 1 )
G0 X96.71 Y338.55;
S300;
G1 X96.69 Y338.3 F700;
G1 X96.62 Y338.11;
G1 X96.51 Y337.96;
G1 X96.49 Y337.93;
G1 X96.3 Y337.82;
G1 X96.09 Y337.76;
G1 X96.0 Y337.76;
G1 X89.5 Y337.76;
G1 X89.53 Y337.09;
G1 X89.6 Y336.54;
G1 X89.66 Y336.27;
G1 X89.8 Y335.83;
G1 X90.0 Y335.44;
G1 X90.21 Y335.13;
G1 X90.51 Y334.83;
G1 X90.86 Y334.58;
G1 X91.22 Y334.41;
G1 X91.63 Y334.27;
G1 X92.11 Y334.19;
G1 X92.63 Y334.15;
G1 X92.73 Y334.15;
G1 X93.29 Y334.17;
G1 X93.8 Y334.23;
G1 X93.98 Y334.26;
G1 X94.46 Y334.38;
G1 X94.87 Y334.51;
G1 X94.93 Y334.53;
G1 X95.31 Y334.66;
G1 X95.55 Y334.76;
G1 X95.59 Y334.78;
G1 X95.79 Y334.86;
G1 X95.94 Y334.9;
G1 X95.99 Y334.9;
G1 X96.1 Y334.87;
G1 X96.12 Y334.86;
G1 X96.2 Y334.79;
G1 X96.22 Y334.75;
G1 X96.26 Y334.6;
G1 X96.27 Y334.53;
G1 X96.29 Y334.29;
G1 X96.29 Y334.2;
G1 X96.28 Y333.94;
G1 X96.24 Y333.76;
G1 X96.2 Y333.63;
G1 X96.19 Y333.61;
G1 X96.09 Y333.48;
G1 X96.01 Y333.43;
G1 X95.87 Y333.35;
G1 X95.74 Y333.28;
G1 X95.43 Y333.16;
G1 X95.04 Y333.04;
G1 X94.97 Y333.02;
G1 X94.44 Y332.89;
G1 X93.86 Y332.79;
G1 X93.21 Y332.7;
G1 X92.54 Y332.68;
G1 X91.86 Y332.7;
G1 X91.23 Y332.79;
G1 X90.66 Y332.93;
G1 X90.39 Y333.02;
G1 X89.89 Y333.24;
G1 X89.44 Y333.52;
G1 X89.03 Y333.85;
G1 X88.85 Y334.03;
G1 X88.51 Y334.45;
G1 X88.23 Y334.91;
G1 X87.99 Y335.44;
G1 X87.9 Y335.72;
G1 X87.74 Y336.33;
G1 X87.64 Y336.99;
G1 X87.59 Y337.71;
G1 X87.58 Y338.08;
G1 X87.61 Y338.79;
G1 X87.69 Y339.46;
G1 X87.82 Y340.08;
G1 X87.91 Y340.37;
G1 X88.12 Y340.93;
G1 X88.38 Y341.44;
G1 X88.69 Y341.9;
G1 X88.86 Y342.1;
G1 X89.24 Y342.48;
G1 X89.66 Y342.81;
G1 X90.13 Y343.08;
G1 X90.37 Y343.19;
G1 X90.89 Y343.38;
G1 X91.45 Y343.51;
G1 X92.04 Y343.57;
G1 X92.34 Y343.58;
G1 X92.93 Y343.55;
G1 X93.46 Y343.48;
G1 X93.95 Y343.35;
G1 X94.33 Y343.2;
G1 X94.82 Y342.94;
G1 X95.25 Y342.63;
G1 X95.62 Y342.26;
G1 X95.68 Y342.19;
G1 X95.99 Y341.77;
G1 X96.23 Y341.31;
G1 X96.42 Y340.79;
G1 X96.45 Y340.7;
G1 X96.61 Y340.04;
G1 X96.69 Y339.4;
G1 X96.71 Y338.88;
G1 X96.71 Y338.55;
S0;( end pass 1 of 1 )


( start pass 1 of 1 )
G0 X94.88 Y339.09;
S300;
G1 X94.87 Y339.63 F700;
G1 X94.8 Y340.12;
G1 X94.68 Y340.56;
G1 X94.5 Y340.96;
G1 X94.27 Y341.31;
G1 X94.24 Y341.34;
G1 X93.98 Y341.61;
G1 X93.69 Y341.82;
G1 X93.35 Y341.98;
G1 X92.97 Y342.09;
G1 X92.55 Y342.15;
G1 X92.27 Y342.16;
G1 X91.82 Y342.13;
G1 X91.41 Y342.03;
G1 X91.09 Y341.9;
G1 X90.72 Y341.69;
G1 X90.41 Y341.42;
G1 X90.24 Y341.23;
G1 X89.98 Y340.85;
G1 X89.77 Y340.43;
G1 X89.71 Y340.25;
G1 X89.58 Y339.78;
G1 X89.51 Y339.29;
G1 X89.5 Y339.09;
G1 X94.88 Y339.09;
S0;( end pass 1 of 1 )


( start pass 1 of 1 )
G0 X113.55 Y340.05;
S300;
G1 X113.52 Y339.04 F700;
G1 X113.45 Y338.09;
G1 X113.32 Y337.2;
G1 X113.29 Y337.05;
G1 X113.13 Y336.37;
G1 X112.93 Y335.74;
G1 X112.68 Y335.16;
G1 X112.43 Y334.72;
G1 X112.09 Y334.24;
G1 X111.71 Y333.82;
G1 X111.27 Y333.46;
G1 X110.86 Y333.21;
G1 X110.38 Y332.98;
G1 X109.84 Y332.82;
G1 X109.26 Y332.72;
G1 X108.62 Y332.68;
G1 X108.47 Y332.68;
G1 X107.86 Y332.7;
G1 X107.29 Y332.78;
G1 X106.77 Y332.92;
G1 X106.3 Y333.1;
G1 X106.2 Y333.15;
G1 X105.75 Y333.43;
G1 X105.34 Y333.77;
G1 X104.98 Y334.18;
G1 X104.72 Y334.56;
G1 X104.45 Y335.08;
G1 X104.22 Y335.65;
G1 X104.04 Y336.28;
G1 X103.92 Y336.85;
G1 X103.8 Y337.67;
G1 X103.73 Y338.55;
G1 X103.69 Y339.5;
G1 X103.69 Y339.99;
G1 X103.71 Y340.99;
G1 X103.79 Y341.93;
G1 X103.92 Y342.82;
G1 X103.95 Y342.97;
G1 X104.11 Y343.66;
G1 X104.32 Y344.29;
G1 X104.56 Y344.87;
G1 X104.81 Y345.31;
G1 X105.15 Y345.79;
G1 X105.53 Y346.21;
G1 X105.93 Y346.54;
G1 X106.37 Y346.81;
G1 X106.38 Y346.82;
G1 X106.82 Y347.03;
G1 X107.29 Y347.19;
G1 X107.81 Y347.29;
G1 X108.38 Y347.35;
G1 X108.76 Y347.36;
G1 X109.38 Y347.33;
G1 X109.94 Y347.25;
G1 X110.46 Y347.12;
G1 X110.93 Y346.92;
G1 X111.03 Y346.88;
G1 X111.45 Y346.62;
G1 X111.83 Y346.32;
G1 X112.16 Y345.97;
G1 X112.46 Y345.56;
G1 X112.52 Y345.46;
G1 X112.79 Y344.95;
G1 X113.01 Y344.38;
G1 X113.19 Y343.75;
G1 X113.31 Y343.17;
G1 X113.43 Y342.36;
G1 X113.51 Y341.48;
G1 X113.55 Y340.54;
G1 X113.55 Y340.05;
G1 X113.55 Y340.05;
S0;( end pass 1 of 1 )


( start pass 1 of 1 )
G0 X111.61 Y339.92;
S300;
G1 X111.6 Y340.7 F700;
G1 X111.57 Y341.42;
G1 X111.54 Y341.84;
G1 X111.46 Y342.51;
G1 X111.35 Y343.12;
G1 X111.3 Y343.34;
G1 X111.17 Y343.85;
G1 X110.99 Y344.3;
G1 X110.92 Y344.45;
G1 X110.71 Y344.82;
G1 X110.46 Y345.12;
G1 X110.36 Y345.22;
G1 X110.06 Y345.45;
G1 X109.73 Y345.62;
G1 X109.6 Y345.66;
G1 X109.19 Y345.76;
G1 X108.73 Y345.8;
G1 X108.65 Y345.81;
G1 X108.18 Y345.78;
G1 X107.77 Y345.69;
G1 X107.4 Y345.54;
G1 X107.13 Y345.36;
G1 X106.81 Y345.08;
G1 X106.54 Y344.75;
G1 X106.3 Y344.36;
G1 X106.2 Y344.15;
G1 X106.01 Y343.64;
G1 X105.87 Y343.07;
G1 X105.76 Y342.46;
G1 X105.75 Y342.34;
G1 X105.67 Y341.45;
G1 X105.63 Y340.5;
G1 X105.63 Y340.12;
G1 X105.64 Y339.32;
G1 X105.67 Y338.58;
G1 X105.73 Y337.91;
G1 X105.79 Y337.39;
G1 X105.9 Y336.79;
G1 X106.04 Y336.25;
G1 X106.22 Y335.78;
G1 X106.31 Y335.58;
G1 X106.53 Y335.2;
G1 X106.79 Y334.89;
G1 X107.08 Y334.65;
G1 X107.23 Y334.55;
G1 X107.6 Y334.38;
G1 X108.03 Y334.27;
G1 X108.49 Y334.23;
G1 X108.58 Y334.23;
G1 X109.03 Y334.26;
G1 X109.43 Y334.35;
G1 X109.66 Y334.43;
G1 X110.04 Y334.62;
G1 X110.36 Y334.88;
G1 X110.47 Y334.99;
G1 X110.75 Y335.37;
G1 X110.99 Y335.81;
G1 X111.03 Y335.88;
G1 X111.23 Y336.44;
G1 X111.38 Y337.03;
G1 X111.49 Y337.69;
G1 X111.56 Y338.39;
G1 X111.61 Y339.51;
G1 X111.61 Y339.92;
G1 X111.61 Y339.92;
S0;( end pass 1 of 1 )


( start pass 1 of 1 )
G0 X124.56 Y333.64;
S300;
G1 X124.54 Y333.38 F700;
G1 X124.52 Y333.28;
G1 X124.46 Y333.1;
G1 X124.43 Y333.05;
G1 X124.33 Y332.94;
G1 X124.3 Y332.92;
G1 X124.16 Y332.89;
G1 X116.71 Y332.89;
G1 X116.56 Y332.92;
G1 X116.44 Y333.03;
G1 X116.43 Y333.05;
G1 X116.36 Y333.21;
G1 X116.34 Y333.28;
G1 X116.31 Y333.51;
G1 X116.31 Y333.64;
G1 X116.33 Y333.9;
G1 X116.34 Y333.98;
G1 X116.4 Y334.17;
G1 X116.42 Y334.21;
G1 X116.52 Y334.33;
G1 X116.54 Y334.35;
G1 X116.68 Y334.4;
G1 X116.71 Y334.41;
G1 X119.68 Y334.41;
G1 X119.68 Y345.25;
G1 X116.93 Y343.61;
G1 X116.72 Y343.52;
G1 X116.58 Y343.48;
G1 X116.45 Y343.49;
G1 X116.39 Y343.52;
G1 X116.31 Y343.65;
G1 X116.28 Y343.77;
G1 X116.25 Y344.0;
G1 X116.25 Y344.19;
G1 X116.26 Y344.45;
G1 X116.27 Y344.5;
G1 X116.31 Y344.71;
G1 X116.32 Y344.73;
G1 X116.41 Y344.88;
G1 X116.57 Y345.01;
G1 X119.86 Y347.12;
G1 X119.97 Y347.17;
G1 X120.13 Y347.22;
G1 X120.37 Y347.24;
G1 X120.55 Y347.25;
G1 X120.7 Y347.25;
G1 X121.01 Y347.24;
G1 X121.14 Y347.23;
G1 X121.33 Y347.19;
G1 X121.41 Y347.16;
G1 X121.52 Y347.1;
G1 X121.55 Y347.06;
G1 X121.58 Y346.94;
G1 X121.58 Y334.41;
G1 X124.16 Y334.41;
G1 X124.29 Y334.37;
G1 X124.32 Y334.35;
G1 X124.42 Y334.26;
G1 X124.44 Y334.21;
G1 X124.51 Y334.05;
G1 X124.52 Y333.98;
G1 X124.55 Y333.73;
G1 X124.55 Y333.64;
G1 X124.56 Y333.64;
S0;( end pass 1 of 1 )


( start pass 1 of 1 )
G0 X61.54 Y151.31;
S300;
G1 X124.24 Y151.31 F700;
S0;( end pass 1 of 1 )

M5 S0;
( file end tmp/split/toy.Glas.01.Engrave.svg)
( file start tmp/split/toy.Glas.01.Cut.svg)
( speed:20, strength:950 codestyle='laserGRBL', passes:2 support:yes, {'support_gap': 1.0, 'support_strength': 0}' )
M3 S0;

S0;
S0;


( start pass 1 of 2 )
G0 X61.26 Y298.11;
S950;
G1 X124.59 Y298.11 F20;
(addedblock start)
X124.59 Y152.18
S0
X124.59 Y151.18
S950
(added block end)
G1 X124.59 Y5.25;
G1 X61.26 Y5.25;
G1 X61.26 Y298.11;
S0;
( end pass 1 of 2 )
( start pass 2 of 2 )
G0 X61.26 Y298.11;
S950;
G1 X124.59 Y298.11 F20;
(addedblock start)
X124.59 Y152.18
S0
X124.59 Y151.18
S950
(added block end)
G1 X124.59 Y5.25;
G1 X61.26 Y5.25;
G1 X61.26 Y298.11;
S0;
( end pass 2 of 2 )


( start pass 1 of 2 )
G0 X73.84 Y285.22;
S950;
G1 X110.74 Y285.22 F20;
G1 X110.74 Y248.66;
(addedblock start)
X92.78999999999999 Y248.66
S0
X91.78999999999999 Y248.66
S950
(added block end)
G1 X73.84 Y248.66;
G1 X73.84 Y285.22;
S0;
( end pass 1 of 2 )
( start pass 2 of 2 )
G0 X73.84 Y285.22;
S950;
G1 X110.74 Y285.22 F20;
G1 X110.74 Y248.66;
(addedblock start)
X92.78999999999999 Y248.66
S0
X91.78999999999999 Y248.66
S950
(added block end)
G1 X73.84 Y248.66;
G1 X73.84 Y285.22;
S0;
( end pass 2 of 2 )


( start pass 1 of 2 )
G0 X73.84 Y54.15;
S950;
G1 X110.74 Y54.15 F20;
G1 X110.74 Y17.59;
(addedblock start)
X92.78999999999999 Y17.59
S0
X91.78999999999999 Y17.59
S950
(added block end)
G1 X73.84 Y17.59;
G1 X73.84 Y54.15;
S0;
( end pass 1 of 2 )
( start pass 2 of 2 )
G0 X73.84 Y54.15;
S950;
G1 X110.74 Y54.15 F20;
G1 X110.74 Y17.59;
(addedblock start)
X92.78999999999999 Y17.59
S0
X91.78999999999999 Y17.59
S950
(added block end)
G1 X73.84 Y17.59;
G1 X73.84 Y54.15;
S0;
( end pass 2 of 2 )


( start pass 1 of 2 )
G0 X73.84 Y124.24;
S950;
G1 X110.74 Y124.24 F20;
G1 X110.74 Y87.67;
(addedblock start)
X92.78999999999999 Y87.67
S0
X91.78999999999999 Y87.67
S950
(added block end)
G1 X73.84 Y87.67;
G1 X73.84 Y124.24;
S0;
( end pass 1 of 2 )
( start pass 2 of 2 )
G0 X73.84 Y124.24;
S950;
G1 X110.74 Y124.24 F20;
G1 X110.74 Y87.67;
(addedblock start)
X92.78999999999999 Y87.67
S0
X91.78999999999999 Y87.67
S950
(added block end)
G1 X73.84 Y87.67;
G1 X73.84 Y124.24;
S0;
( end pass 2 of 2 )


( start pass 1 of 2 )
G0 X73.84 Y224.79;
S950;
G1 X110.74 Y224.79 F20;
G1 X110.74 Y188.23;
(addedblock start)
X92.78999999999999 Y188.23
S0
X91.78999999999999 Y188.23
S950
(added block end)
G1 X73.84 Y188.23;
G1 X73.84 Y224.79;
S0;
( end pass 1 of 2 )
( start pass 2 of 2 )
G0 X73.84 Y224.79;
S950;
G1 X110.74 Y224.79 F20;
G1 X110.74 Y188.23;
(addedblock start)
X92.78999999999999 Y188.23
S0
X91.78999999999999 Y188.23
S950
(added block end)
G1 X73.84 Y188.23;
G1 X73.84 Y224.79;
S0;
( end pass 2 of 2 )

M5 S0;
( file end tmp/split/toy.Glas.01.Cut.svg)
