( file start tmp/split/toy.Wood3mm.02.Engrave.svg)
( speed:700, strength:300 codestyle='laserGRBL', passes:1 support:no )
M3 S0;

S0;
S0;


( start pass 1 of 1 )
G0 X119.88 Y191.83;
S300;
G1 X119.84 Y191.32 F700;
G1 X119.73 Y190.83;
G1 X119.55 Y190.37;
G1 X119.32 Y189.95;
G1 X119.02 Y189.56;
G1 X118.68 Y189.22;
G1 X118.3 Y188.93;
G1 X117.87 Y188.7;
G1 X117.41 Y188.53;
G1 X116.92 Y188.42;
G1 X116.44 Y188.39;
G1 X115.93 Y188.42;
G1 X115.44 Y188.53;
G1 X114.98 Y188.71;
G1 X114.56 Y188.95;
G1 X114.17 Y189.24;
G1 X113.83 Y189.58;
G1 X113.54 Y189.97;
G1 X113.31 Y190.39;
G1 X113.14 Y190.85;
G1 X113.03 Y191.34;
G1 X113.0 Y191.83;
G1 X113.03 Y192.34;
G1 X113.14 Y192.82;
G1 X113.32 Y193.28;
G1 X113.55 Y193.71;
G1 X113.85 Y194.09;
G1 X114.19 Y194.43;
G1 X114.58 Y194.72;
G1 X115.0 Y194.95;
G1 X115.46 Y195.13;
G1 X115.95 Y195.23;
G1 X116.44 Y195.27;
G1 X116.95 Y195.23;
G1 X117.43 Y195.12;
G1 X117.89 Y194.94;
G1 X118.31 Y194.71;
G1 X118.7 Y194.42;
G1 X119.04 Y194.07;
G1 X119.33 Y193.69;
G1 X119.56 Y193.26;
G1 X119.74 Y192.8;
G1 X119.84 Y192.31;
G1 X119.88 Y191.83;
G1 X119.88 Y191.83;
S0;( end pass 1 of 1 )


( start pass 1 of 1 )
G0 X118.37 Y178.14;
S300;
G1 X118.37 Y178.14 F700;
G1 X117.55 Y178.22;
G1 X116.67 Y178.33;
G1 X115.75 Y178.49;
G1 X114.78 Y178.68;
G1 X113.77 Y178.91;
G1 X112.72 Y179.17;
G1 X111.64 Y179.47;
G1 X110.52 Y179.79;
G1 X109.38 Y180.13;
G1 X108.21 Y180.5;
G1 X107.03 Y180.9;
G1 X105.82 Y181.31;
G1 X104.61 Y181.74;
G1 X103.38 Y182.19;
G1 X102.14 Y182.65;
G1 X100.9 Y183.13;
G1 X99.66 Y183.61;
G1 X98.43 Y184.1;
G1 X97.2 Y184.6;
G1 X95.98 Y185.1;
G1 X94.77 Y185.61;
G1 X93.58 Y186.11;
G1 X92.41 Y186.61;
G1 X91.27 Y187.11;
G1 X90.15 Y187.6;
G1 X89.06 Y188.08;
G1 X88.01 Y188.55;
G1 X86.99 Y189.01;
G1 X86.02 Y189.45;
G1 X85.09 Y189.88;
G1 X84.2 Y190.29;
G1 X83.37 Y190.67;
G1 X82.6 Y191.04;
G1 X81.88 Y191.38;
G1 X81.62 Y191.5;
G1 X83.04 Y192.77;
G1 X84.55 Y193.11;
G1 X85.99 Y193.5;
G1 X86.55 Y192.96;
G1 X87.16 Y192.48;
G1 X87.82 Y192.06;
G1 X88.51 Y191.7;
G1 X89.24 Y191.41;
G1 X89.94 Y191.21;
G1 X90.66 Y191.07;
G1 X91.4 Y191.0;
G1 X91.82 Y190.99;
G1 X92.56 Y191.02;
G1 X93.29 Y191.12;
G1 X93.99 Y191.28;
G1 X94.67 Y191.51;
G1 X95.32 Y191.79;
G1 X95.94 Y192.13;
G1 X96.52 Y192.51;
G1 X97.07 Y192.95;
G1 X97.58 Y193.43;
G1 X98.04 Y193.95;
G1 X98.46 Y194.51;
G1 X98.83 Y195.11;
G1 X99.15 Y195.74;
G1 X99.41 Y196.4;
G1 X99.61 Y197.09;
G1 X99.75 Y197.8;
G1 X99.83 Y198.54;
G1 X99.84 Y199.01;
G1 X99.81 Y199.76;
G1 X99.71 Y200.47;
G1 X101.02 Y201.47;
G1 X102.26 Y202.49;
G1 X103.44 Y203.51;
G1 X104.54 Y204.53;
G1 X105.58 Y205.54;
G1 X106.55 Y206.53;
G1 X107.45 Y207.49;
G1 X108.21 Y208.33;
G1 X108.91 Y209.14;
G1 X109.55 Y209.9;
G1 X110.13 Y210.62;
G1 X110.6 Y211.23;
G1 X110.91 Y211.63;
G1 X125.01 Y197.19;
G1 X122.41 Y197.19;
G1 X121.84 Y197.76;
G1 X121.22 Y198.27;
G1 X120.62 Y198.68;
G1 X119.97 Y199.03;
G1 X119.3 Y199.33;
G1 X118.59 Y199.56;
G1 X117.86 Y199.73;
G1 X117.1 Y199.83;
G1 X116.44 Y199.85;
G1 X115.69 Y199.82;
G1 X114.97 Y199.72;
G1 X114.26 Y199.56;
G1 X113.58 Y199.33;
G1 X112.93 Y199.05;
G1 X112.31 Y198.71;
G1 X111.73 Y198.33;
G1 X111.18 Y197.89;
G1 X110.67 Y197.41;
G1 X110.21 Y196.89;
G1 X109.79 Y196.33;
G1 X109.42 Y195.73;
G1 X109.11 Y195.1;
G1 X108.84 Y194.44;
G1 X108.64 Y193.75;
G1 X108.5 Y193.04;
G1 X108.42 Y192.3;
G1 X108.41 Y191.83;
G1 X108.44 Y191.08;
G1 X108.54 Y190.36;
G1 X108.71 Y189.65;
G1 X108.93 Y188.98;
G1 X109.21 Y188.32;
G1 X109.55 Y187.71;
G1 X109.94 Y187.12;
G1 X110.37 Y186.57;
G1 X110.85 Y186.06;
G1 X111.37 Y185.6;
G1 X111.94 Y185.18;
G1 X112.53 Y184.81;
G1 X113.17 Y184.5;
G1 X113.83 Y184.23;
G1 X114.51 Y184.03;
G1 X115.23 Y183.89;
G1 X115.96 Y183.81;
G1 X116.44 Y183.8;
G1 X117.19 Y183.83;
G1 X117.93 Y183.94;
G1 X118.64 Y184.11;
G1 X119.32 Y184.34;
G1 X119.98 Y184.63;
G1 X120.61 Y184.97;
G1 X121.2 Y185.37;
G1 X121.75 Y185.81;
G1 X122.26 Y186.31;
G1 X122.28 Y186.33;
G1 X131.4 Y178.14;
G1 X118.37 Y178.14;
S0;( end pass 1 of 1 )


( start pass 1 of 1 )
G0 X106.53 Y166.71;
S300;
G1 X91.63 Y166.71 F700;
G1 X91.63 Y173.55;
G1 X106.53 Y173.55;
G1 X106.53 Y166.71;
S0;( end pass 1 of 1 )


( start pass 1 of 1 )
G0 X66.76 Y178.14;
S300;
G1 X77.93 Y188.17 F700;
G1 X78.42 Y187.94;
G1 X78.98 Y187.67;
G1 X79.59 Y187.37;
G1 X80.29 Y187.05;
G1 X81.03 Y186.7;
G1 X81.81 Y186.33;
G1 X82.66 Y185.94;
G1 X83.55 Y185.53;
G1 X84.49 Y185.1;
G1 X85.46 Y184.66;
G1 X86.48 Y184.2;
G1 X87.53 Y183.73;
G1 X88.61 Y183.26;
G1 X89.72 Y182.77;
G1 X90.86 Y182.28;
G1 X92.02 Y181.78;
G1 X93.2 Y181.29;
G1 X94.4 Y180.79;
G1 X95.61 Y180.29;
G1 X96.83 Y179.8;
G1 X98.06 Y179.31;
G1 X99.3 Y178.83;
G1 X100.54 Y178.36;
G1 X101.13 Y178.14;
G1 X66.76 Y178.14;
S0;( end pass 1 of 1 )


( start pass 1 of 1 )
G0 X95.26 Y199.01;
S300;
G1 X95.22 Y198.5 F700;
G1 X95.11 Y198.02;
G1 X94.93 Y197.56;
G1 X94.7 Y197.13;
G1 X94.41 Y196.75;
G1 X94.06 Y196.41;
G1 X93.68 Y196.12;
G1 X93.25 Y195.89;
G1 X92.79 Y195.71;
G1 X92.3 Y195.61;
G1 X91.82 Y195.57;
G1 X91.31 Y195.61;
G1 X90.82 Y195.72;
G1 X90.36 Y195.9;
G1 X89.94 Y196.13;
G1 X89.55 Y196.43;
G1 X89.21 Y196.77;
G1 X88.92 Y197.15;
G1 X88.69 Y197.58;
G1 X88.52 Y198.04;
G1 X88.41 Y198.53;
G1 X88.38 Y199.01;
G1 X88.41 Y199.52;
G1 X88.52 Y200.01;
G1 X88.7 Y200.47;
G1 X88.94 Y200.89;
G1 X89.23 Y201.28;
G1 X89.57 Y201.62;
G1 X89.96 Y201.91;
G1 X90.38 Y202.14;
G1 X90.84 Y202.31;
G1 X91.33 Y202.42;
G1 X91.82 Y202.45;
G1 X92.33 Y202.42;
G1 X92.81 Y202.31;
G1 X93.27 Y202.13;
G1 X93.7 Y201.89;
G1 X94.08 Y201.6;
G1 X94.42 Y201.26;
G1 X94.71 Y200.87;
G1 X94.94 Y200.45;
G1 X95.12 Y199.99;
G1 X95.22 Y199.5;
G1 X95.26 Y199.01;
G1 X95.26 Y199.01;
S0;( end pass 1 of 1 )


( start pass 1 of 1 )
G0 X73.15 Y197.19;
S300;
G1 X73.15 Y197.19 F700;
G1 X89.18 Y213.61;
G1 X89.44 Y213.92;
G1 X89.63 Y214.27;
G1 X89.76 Y214.63;
G1 X89.83 Y215.02;
G1 X89.83 Y215.41;
G1 X89.76 Y215.8;
G1 X89.66 Y216.1;
G1 X89.47 Y216.46;
G1 X89.23 Y216.77;
G1 X88.94 Y217.03;
G1 X88.61 Y217.24;
G1 X88.25 Y217.4;
G1 X87.86 Y217.48;
G1 X87.54 Y217.51;
G1 X83.21 Y217.51;
G1 X85.98 Y221.33;
G1 X86.32 Y221.32;
G1 X86.64 Y221.32;
G1 X87.11 Y221.32;
G1 X87.66 Y221.33;
G1 X88.27 Y221.35;
G1 X88.94 Y221.38;
G1 X89.68 Y221.42;
G1 X89.76 Y221.42;
G1 X89.75 Y221.19;
G1 X89.78 Y220.44;
G1 X89.88 Y219.72;
G1 X90.05 Y219.01;
G1 X90.27 Y218.33;
G1 X90.55 Y217.68;
G1 X90.89 Y217.06;
G1 X91.28 Y216.48;
G1 X91.71 Y215.93;
G1 X92.19 Y215.42;
G1 X92.72 Y214.96;
G1 X93.28 Y214.54;
G1 X93.87 Y214.17;
G1 X94.51 Y213.85;
G1 X95.17 Y213.59;
G1 X95.85 Y213.39;
G1 X96.57 Y213.25;
G1 X97.3 Y213.17;
G1 X97.78 Y213.16;
G1 X98.52 Y213.19;
G1 X99.25 Y213.29;
G1 X99.95 Y213.46;
G1 X100.63 Y213.68;
G1 X101.28 Y213.96;
G1 X101.9 Y214.3;
G1 X102.48 Y214.69;
G1 X103.03 Y215.12;
G1 X103.54 Y215.6;
G1 X104.0 Y216.12;
G1 X104.42 Y216.69;
G1 X104.79 Y217.28;
G1 X105.11 Y217.91;
G1 X105.37 Y218.58;
G1 X105.57 Y219.26;
G1 X105.71 Y219.97;
G1 X105.79 Y220.71;
G1 X105.8 Y221.19;
G1 X105.77 Y221.92;
G1 X105.67 Y222.64;
G1 X105.51 Y223.34;
G1 X105.29 Y224.02;
G1 X105.01 Y224.66;
G1 X104.98 Y224.73;
G1 X106.46 Y225.39;
G1 X107.79 Y226.05;
G1 X108.48 Y226.43;
G1 X114.95 Y217.51;
G1 X110.61 Y217.51;
G1 X110.2 Y217.47;
G1 X109.8 Y217.36;
G1 X109.43 Y217.18;
G1 X109.1 Y216.94;
G1 X108.82 Y216.64;
G1 X108.67 Y216.43;
G1 X108.67 Y216.43;
G1 X108.64 Y216.38;
G1 X108.57 Y216.27;
G1 X108.46 Y216.1;
G1 X108.3 Y215.88;
G1 X108.11 Y215.59;
G1 X107.87 Y215.26;
G1 X107.59 Y214.88;
G1 X107.28 Y214.46;
G1 X106.92 Y213.99;
G1 X106.52 Y213.49;
G1 X106.09 Y212.95;
G1 X105.61 Y212.38;
G1 X105.1 Y211.78;
G1 X104.55 Y211.16;
G1 X103.97 Y210.51;
G1 X103.34 Y209.85;
G1 X102.68 Y209.17;
G1 X101.99 Y208.48;
G1 X101.26 Y207.78;
G1 X100.49 Y207.07;
G1 X99.69 Y206.37;
G1 X98.85 Y205.66;
G1 X97.98 Y204.95;
G1 X97.55 Y204.62;
G1 X96.99 Y205.14;
G1 X96.39 Y205.6;
G1 X95.74 Y206.01;
G1 X95.06 Y206.35;
G1 X94.34 Y206.63;
G1 X93.59 Y206.84;
G1 X92.81 Y206.98;
G1 X92.08 Y207.04;
G1 X91.81 Y207.04;
G1 X91.07 Y207.01;
G1 X90.34 Y206.91;
G1 X89.64 Y206.74;
G1 X88.96 Y206.52;
G1 X88.31 Y206.24;
G1 X87.69 Y205.9;
G1 X87.11 Y205.51;
G1 X86.56 Y205.08;
G1 X86.05 Y204.6;
G1 X85.59 Y204.07;
G1 X85.17 Y203.51;
G1 X84.8 Y202.91;
G1 X84.48 Y202.28;
G1 X84.22 Y201.62;
G1 X84.02 Y200.94;
G1 X83.88 Y200.22;
G1 X83.8 Y199.49;
G1 X83.79 Y199.01;
G1 X83.82 Y198.26;
G1 X83.9 Y197.68;
G1 X82.45 Y197.33;
G1 X81.73 Y197.19;
G1 X73.14 Y197.19;
G1 X73.15 Y197.19;
S0;( end pass 1 of 1 )


( start pass 1 of 1 )
G0 X101.22 Y221.19;
S300;
G1 X101.18 Y220.68 F700;
G1 X101.07 Y220.19;
G1 X100.9 Y219.73;
G1 X100.66 Y219.31;
G1 X100.37 Y218.92;
G1 X100.03 Y218.58;
G1 X99.64 Y218.29;
G1 X99.21 Y218.06;
G1 X98.75 Y217.89;
G1 X98.27 Y217.78;
G1 X97.78 Y217.75;
G1 X97.27 Y217.78;
G1 X96.78 Y217.89;
G1 X96.33 Y218.07;
G1 X95.9 Y218.3;
G1 X95.52 Y218.6;
G1 X95.18 Y218.94;
G1 X94.89 Y219.33;
G1 X94.65 Y219.75;
G1 X94.48 Y220.21;
G1 X94.37 Y220.7;
G1 X94.34 Y221.19;
G1 X94.38 Y221.7;
G1 X94.49 Y222.18;
G1 X94.66 Y222.64;
G1 X94.9 Y223.06;
G1 X95.19 Y223.45;
G1 X95.53 Y223.79;
G1 X95.92 Y224.08;
G1 X96.35 Y224.31;
G1 X96.81 Y224.49;
G1 X97.29 Y224.59;
G1 X97.78 Y224.63;
G1 X98.29 Y224.59;
G1 X98.78 Y224.48;
G1 X99.24 Y224.3;
G1 X99.66 Y224.07;
G1 X100.04 Y223.77;
G1 X100.38 Y223.43;
G1 X100.67 Y223.05;
G1 X100.91 Y222.62;
G1 X101.08 Y222.16;
G1 X101.19 Y221.67;
G1 X101.22 Y221.19;
G1 X101.22 Y221.19;
S0;( end pass 1 of 1 )


( start pass 1 of 1 )
G0 X99.08 Y239.38;
S300;
G1 X105.77 Y230.17 F700;
G1 X104.56 Y229.56;
G1 X103.34 Y229.02;
G1 X102.09 Y228.53;
G1 X101.48 Y228.31;
G1 X100.81 Y228.62;
G1 X100.11 Y228.87;
G1 X99.39 Y229.05;
G1 X98.64 Y229.17;
G1 X97.87 Y229.21;
G1 X97.78 Y229.21;
G1 X97.02 Y229.18;
G1 X96.29 Y229.07;
G1 X95.57 Y228.91;
G1 X94.89 Y228.67;
G1 X94.23 Y228.38;
G1 X93.6 Y228.04;
G1 X93.01 Y227.64;
G1 X92.46 Y227.19;
G1 X91.95 Y226.7;
G1 X91.5 Y226.18;
G1 X90.48 Y226.09;
G1 X89.61 Y226.02;
G1 X89.38 Y226.01;
G1 X99.08 Y239.38;
S0;( end pass 1 of 1 )


( start pass 1 of 1 )
G0 X93.56 Y246.99;
S300;
G1 X94.57 Y251.93 F700;
G1 X94.61 Y252.35;
G1 X94.58 Y252.77;
G1 X94.47 Y253.17;
G1 X94.3 Y253.55;
G1 X94.05 Y253.89;
G1 X93.87 Y254.08;
G1 X90.15 Y257.49;
G1 X95.16 Y258.06;
G1 X95.58 Y258.14;
G1 X95.96 Y258.3;
G1 X96.31 Y258.52;
G1 X96.62 Y258.81;
G1 X96.86 Y259.14;
G1 X96.99 Y259.39;
G1 X99.08 Y263.98;
G1 X101.17 Y259.39;
G1 X101.38 Y259.02;
G1 X101.65 Y258.7;
G1 X101.98 Y258.44;
G1 X102.34 Y258.24;
G1 X102.74 Y258.1;
G1 X103.0 Y258.06;
G1 X108.01 Y257.49;
G1 X104.29 Y254.08;
G1 X104.01 Y253.76;
G1 X103.79 Y253.41;
G1 X103.64 Y253.02;
G1 X103.56 Y252.61;
G1 X103.56 Y252.19;
G1 X103.59 Y251.93;
G1 X104.6 Y246.99;
G1 X100.21 Y249.47;
G1 X99.83 Y249.64;
G1 X99.44 Y249.74;
G1 X99.08 Y249.77;
G1 X98.68 Y249.73;
G1 X98.28 Y249.63;
G1 X97.95 Y249.47;
G1 X93.56 Y246.99;
S0;( end pass 1 of 1 )


( start pass 1 of 1 )
G0 X174.52 Y5.82;
S300;
G1 X174.5 Y5.56 F700;
G1 X174.49 Y5.46;
G1 X174.42 Y5.27;
G1 X174.4 Y5.23;
G1 X174.28 Y5.11;
G1 X174.27 Y5.09;
G1 X174.12 Y5.07;
G1 X166.67 Y5.07;
G1 X166.53 Y5.09;
G1 X166.41 Y5.21;
G1 X166.39 Y5.23;
G1 X166.32 Y5.41;
G1 X166.31 Y5.46;
G1 X166.28 Y5.69;
G1 X166.27 Y5.82;
G1 X166.29 Y6.08;
G1 X166.31 Y6.16;
G1 X166.37 Y6.36;
G1 X166.38 Y6.39;
G1 X166.48 Y6.51;
G1 X166.5 Y6.53;
G1 X166.64 Y6.59;
G1 X166.67 Y6.59;
G1 X169.65 Y6.59;
G1 X169.65 Y17.44;
G1 X166.89 Y15.79;
G1 X166.68 Y15.7;
G1 X166.55 Y15.66;
G1 X166.42 Y15.67;
G1 X166.35 Y15.7;
G1 X166.27 Y15.83;
G1 X166.24 Y15.95;
G1 X166.22 Y16.18;
G1 X166.22 Y16.37;
G1 X166.22 Y16.64;
G1 X166.23 Y16.69;
G1 X166.28 Y16.89;
G1 X166.28 Y16.91;
G1 X166.37 Y17.05;
G1 X166.54 Y17.19;
G1 X169.82 Y19.3;
G1 X169.93 Y19.35;
G1 X170.1 Y19.39;
G1 X170.33 Y19.42;
G1 X170.56 Y19.43;
G1 X170.66 Y19.43;
G1 X170.95 Y19.42;
G1 X171.1 Y19.41;
G1 X171.3 Y19.37;
G1 X171.38 Y19.34;
G1 X171.48 Y19.28;
G1 X171.51 Y19.23;
G1 X171.54 Y19.12;
G1 X171.54 Y6.59;
G1 X174.12 Y6.59;
G1 X174.26 Y6.55;
G1 X174.29 Y6.53;
G1 X174.38 Y6.44;
G1 X174.41 Y6.39;
G1 X174.47 Y6.23;
G1 X174.49 Y6.16;
G1 X174.52 Y5.91;
G1 X174.52 Y5.82;
G1 X174.52 Y5.82;
S0;( end pass 1 of 1 )


( start pass 1 of 1 )
G0 X138.91 Y177.55;
S300;
G1 X124.37 Y190.62 F700;
G1 X124.45 Y191.36;
G1 X124.46 Y191.83;
G1 X124.43 Y192.6;
G1 X130.46 Y192.6;
G1 X130.86 Y192.64;
G1 X131.24 Y192.74;
G1 X131.6 Y192.9;
G1 X131.91 Y193.12;
G1 X132.19 Y193.4;
G1 X132.43 Y193.72;
G1 X132.57 Y194.0;
G1 X132.69 Y194.39;
G1 X132.75 Y194.78;
G1 X132.74 Y195.17;
G1 X132.66 Y195.55;
G1 X132.52 Y195.91;
G1 X132.31 Y196.25;
G1 X132.1 Y196.5;
G1 X116.06 Y212.92;
G1 X119.45 Y212.92;
G1 X119.86 Y212.96;
G1 X120.25 Y213.07;
G1 X120.62 Y213.24;
G1 X120.94 Y213.47;
G1 X121.23 Y213.76;
G1 X121.46 Y214.1;
G1 X121.49 Y214.17;
G1 X121.65 Y214.56;
G1 X121.73 Y214.95;
G1 X121.74 Y215.36;
G1 X121.68 Y215.75;
G1 X121.55 Y216.14;
G1 X121.35 Y216.5;
G1 X121.31 Y216.56;
G1 X101.97 Y243.2;
G1 X106.72 Y240.52;
G1 X107.1 Y240.35;
G1 X107.49 Y240.25;
G1 X107.85 Y240.22;
G1 X108.26 Y240.26;
G1 X108.65 Y240.37;
G1 X109.03 Y240.55;
G1 X109.2 Y240.66;
G1 X109.49 Y240.92;
G1 X109.74 Y241.21;
G1 X109.93 Y241.54;
G1 X110.06 Y241.9;
G1 X110.13 Y242.28;
G1 X110.14 Y242.66;
G1 X110.1 Y242.97;
G1 X108.35 Y251.57;
G1 X114.82 Y257.51;
G1 X115.08 Y257.79;
G1 X115.29 Y258.12;
G1 X115.44 Y258.47;
G1 X115.54 Y258.83;
G1 X115.56 Y259.22;
G1 X115.53 Y259.6;
G1 X115.45 Y259.89;
G1 X115.3 Y260.27;
G1 X115.09 Y260.58;
G1 X114.84 Y260.87;
G1 X114.54 Y261.11;
G1 X114.2 Y261.29;
G1 X113.84 Y261.42;
G1 X113.53 Y261.47;
G1 X104.81 Y262.47;
G1 X101.17 Y270.45;
G1 X100.98 Y270.8;
G1 X100.73 Y271.1;
G1 X100.45 Y271.35;
G1 X100.12 Y271.55;
G1 X99.77 Y271.69;
G1 X99.39 Y271.77;
G1 X99.08 Y271.8;
G1 X98.69 Y271.77;
G1 X98.32 Y271.67;
G1 X97.97 Y271.51;
G1 X97.65 Y271.3;
G1 X97.38 Y271.04;
G1 X97.14 Y270.73;
G1 X96.99 Y270.45;
G1 X93.35 Y262.47;
G1 X84.63 Y261.48;
G1 X84.25 Y261.39;
G1 X83.89 Y261.26;
G1 X83.56 Y261.06;
G1 X83.27 Y260.82;
G1 X83.02 Y260.52;
G1 X82.83 Y260.2;
G1 X82.71 Y259.91;
G1 X82.62 Y259.52;
G1 X82.6 Y259.14;
G1 X82.64 Y258.76;
G1 X82.74 Y258.39;
G1 X82.9 Y258.05;
G1 X83.12 Y257.73;
G1 X83.34 Y257.51;
G1 X89.81 Y251.57;
G1 X88.06 Y242.97;
G1 X88.02 Y242.58;
G1 X88.04 Y242.2;
G1 X88.12 Y241.83;
G1 X88.27 Y241.48;
G1 X88.47 Y241.15;
G1 X88.72 Y240.86;
G1 X88.96 Y240.66;
G1 X89.3 Y240.46;
G1 X89.66 Y240.32;
G1 X90.03 Y240.24;
G1 X90.41 Y240.22;
G1 X90.79 Y240.27;
G1 X91.16 Y240.38;
G1 X91.44 Y240.52;
G1 X96.19 Y243.2;
G1 X76.84 Y216.56;
G1 X76.64 Y216.21;
G1 X76.5 Y215.83;
G1 X76.43 Y215.43;
G1 X76.42 Y215.03;
G1 X76.48 Y214.63;
G1 X76.63 Y214.24;
G1 X76.67 Y214.17;
G1 X76.89 Y213.82;
G1 X77.16 Y213.52;
G1 X77.48 Y213.28;
G1 X77.84 Y213.09;
G1 X78.23 Y212.97;
G1 X78.63 Y212.92;
G1 X78.7 Y212.92;
G1 X82.1 Y212.92;
G1 X66.06 Y196.5;
G1 X65.81 Y196.19;
G1 X65.61 Y195.84;
G1 X65.48 Y195.47;
G1 X65.42 Y195.09;
G1 X65.42 Y194.7;
G1 X65.48 Y194.31;
G1 X65.59 Y194.0;
G1 X65.77 Y193.65;
G1 X66.02 Y193.34;
G1 X66.3 Y193.07;
G1 X66.63 Y192.86;
G1 X66.98 Y192.71;
G1 X67.38 Y192.62;
G1 X67.7 Y192.6;
G1 X75.98 Y192.6;
G1 X59.24 Y177.55;
G1 X58.96 Y177.25;
G1 X58.74 Y176.91;
G1 X58.59 Y176.54;
G1 X58.5 Y176.15;
G1 X58.48 Y175.74;
G1 X58.54 Y175.34;
G1 X58.63 Y175.02;
G1 X58.82 Y174.65;
G1 X59.06 Y174.33;
G1 X59.35 Y174.05;
G1 X59.68 Y173.83;
G1 X60.05 Y173.67;
G1 X60.45 Y173.58;
G1 X60.78 Y173.55;
G1 X87.04 Y173.55;
G1 X87.04 Y164.42;
G1 X87.08 Y164.01;
G1 X87.18 Y163.62;
G1 X87.35 Y163.26;
G1 X87.57 Y162.94;
G1 X87.85 Y162.66;
G1 X88.16 Y162.44;
G1 X88.52 Y162.27;
G1 X88.9 Y162.16;
G1 X89.31 Y162.12;
G1 X89.33 Y162.12;
G1 X108.83 Y162.12;
G1 X109.24 Y162.16;
G1 X109.62 Y162.26;
G1 X109.98 Y162.43;
G1 X110.3 Y162.66;
G1 X110.58 Y162.93;
G1 X110.8 Y163.25;
G1 X110.97 Y163.6;
G1 X111.08 Y163.99;
G1 X111.12 Y164.39;
G1 X111.12 Y164.42;
G1 X111.12 Y173.55;
G1 X137.38 Y173.55;
G1 X137.8 Y173.59;
G1 X138.19 Y173.7;
G1 X138.55 Y173.87;
G1 X138.88 Y174.1;
G1 X139.16 Y174.39;
G1 X139.38 Y174.72;
G1 X139.53 Y175.02;
G1 X139.63 Y175.42;
G1 X139.68 Y175.83;
G1 X139.65 Y176.23;
G1 X139.55 Y176.61;
G1 X139.38 Y176.98;
G1 X139.15 Y177.31;
G1 X138.91 Y177.55;
G1 X138.91 Y177.55;
S0;( end pass 1 of 1 )


( start pass 1 of 1 )
G0 X20.95 Y379.38;
S300;
G1 X20.86 Y379.18 F700;
G1 X20.82 Y379.13;
G1 X20.67 Y379.03;
G1 X20.58 Y378.99;
G1 X20.34 Y378.94;
G1 X20.19 Y378.92;
G1 X19.91 Y378.9;
G1 X19.64 Y378.9;
G1 X19.26 Y378.91;
G1 X19.05 Y378.92;
G1 X18.78 Y378.96;
G1 X18.67 Y378.99;
G1 X18.5 Y379.08;
G1 X18.44 Y379.13;
G1 X18.34 Y379.31;
G1 X18.32 Y379.38;
G1 X15.33 Y390.15;
G1 X15.31 Y390.15;
G1 X12.55 Y379.38;
G1 X12.48 Y379.18;
G1 X12.44 Y379.13;
G1 X12.31 Y379.03;
G1 X12.22 Y378.99;
G1 X12.01 Y378.94;
G1 X11.85 Y378.92;
G1 X11.59 Y378.9;
G1 X11.28 Y378.9;
G1 X10.91 Y378.9;
G1 X10.67 Y378.92;
G1 X10.4 Y378.96;
G1 X10.27 Y378.99;
G1 X10.09 Y379.08;
G1 X10.02 Y379.13;
G1 X9.94 Y379.31;
G1 X9.92 Y379.38;
G1 X6.15 Y392.56;
G1 X6.09 Y392.81;
G1 X6.07 Y392.95;
G1 X6.1 Y393.09;
G1 X6.16 Y393.17;
G1 X6.31 Y393.24;
G1 X6.47 Y393.27;
G1 X6.72 Y393.29;
G1 X7.03 Y393.3;
G1 X7.34 Y393.29;
G1 X7.57 Y393.27;
G1 X7.78 Y393.25;
G1 X7.87 Y393.22;
G1 X7.98 Y393.14;
G1 X8.01 Y393.1;
G1 X8.07 Y392.92;
G1 X8.08 Y392.9;
G1 X11.29 Y380.95;
G1 X11.3 Y380.95;
G1 X14.34 Y392.88;
G1 X14.41 Y393.06;
G1 X14.42 Y393.08;
G1 X14.53 Y393.18;
G1 X14.58 Y393.21;
G1 X14.75 Y393.25;
G1 X14.89 Y393.27;
G1 X15.16 Y393.29;
G1 X15.43 Y393.3;
G1 X15.71 Y393.29;
G1 X15.92 Y393.27;
G1 X16.13 Y393.23;
G1 X16.21 Y393.21;
G1 X16.32 Y393.13;
G1 X16.37 Y393.08;
G1 X16.45 Y392.9;
G1 X16.46 Y392.88;
G1 X19.73 Y380.95;
G1 X19.75 Y380.95;
G1 X22.89 Y392.89;
G1 X22.96 Y393.08;
G1 X23.04 Y393.17;
G1 X23.09 Y393.21;
G1 X23.28 Y393.26;
G1 X23.39 Y393.27;
G1 X23.65 Y393.29;
G1 X23.91 Y393.3;
G1 X24.21 Y393.29;
G1 X24.43 Y393.26;
G1 X24.61 Y393.22;
G1 X24.71 Y393.16;
G1 X24.78 Y393.06;
G1 X24.79 Y392.94;
G1 X24.77 Y392.75;
G1 X24.74 Y392.55;
G1 X20.95 Y379.38;
S0;( end pass 1 of 1 )


( start pass 1 of 1 )
G0 X35.45 Y384.31;
S300;
G1 X35.42 Y383.57 F700;
G1 X35.32 Y382.86;
G1 X35.17 Y382.19;
G1 X35.13 Y382.07;
G1 X34.92 Y381.51;
G1 X34.65 Y381.0;
G1 X34.35 Y380.53;
G1 X34.17 Y380.32;
G1 X33.79 Y379.92;
G1 X33.34 Y379.58;
G1 X32.85 Y379.29;
G1 X32.59 Y379.16;
G1 X32.07 Y378.98;
G1 X31.51 Y378.85;
G1 X30.92 Y378.77;
G1 X30.38 Y378.75;
G1 X29.7 Y378.78;
G1 X29.08 Y378.87;
G1 X28.5 Y379.02;
G1 X28.24 Y379.12;
G1 X27.75 Y379.35;
G1 X27.3 Y379.64;
G1 X26.91 Y379.99;
G1 X26.73 Y380.18;
G1 X26.41 Y380.6;
G1 X26.14 Y381.07;
G1 X25.92 Y381.59;
G1 X25.83 Y381.86;
G1 X25.67 Y382.52;
G1 X25.57 Y383.22;
G1 X25.53 Y383.98;
G1 X25.53 Y384.11;
G1 X25.56 Y384.86;
G1 X25.65 Y385.56;
G1 X25.81 Y386.23;
G1 X25.84 Y386.34;
G1 X26.05 Y386.9;
G1 X26.31 Y387.42;
G1 X26.62 Y387.89;
G1 X26.79 Y388.1;
G1 X27.18 Y388.5;
G1 X27.62 Y388.84;
G1 X28.11 Y389.13;
G1 X28.37 Y389.25;
G1 X28.89 Y389.43;
G1 X29.45 Y389.56;
G1 X30.05 Y389.64;
G1 X30.59 Y389.66;
G1 X31.27 Y389.63;
G1 X31.89 Y389.54;
G1 X32.46 Y389.39;
G1 X32.72 Y389.29;
G1 X33.22 Y389.06;
G1 X33.67 Y388.77;
G1 X34.06 Y388.42;
G1 X34.24 Y388.24;
G1 X34.56 Y387.81;
G1 X34.83 Y387.34;
G1 X35.04 Y386.82;
G1 X35.14 Y386.55;
G1 X35.31 Y385.9;
G1 X35.4 Y385.2;
G1 X35.45 Y384.45;
G1 X35.45 Y384.31;
G1 X35.45 Y384.31;
S0;( end pass 1 of 1 )


( start pass 1 of 1 )
G0 X33.53 Y384.19;
S300;
G1 X33.5 Y384.91 F700;
G1 X33.4 Y385.6;
G1 X33.38 Y385.71;
G1 X33.24 Y386.23;
G1 X33.04 Y386.7;
G1 X32.89 Y386.97;
G1 X32.65 Y387.29;
G1 X32.36 Y387.56;
G1 X32.03 Y387.78;
G1 X31.97 Y387.82;
G1 X31.61 Y387.97;
G1 X31.2 Y388.08;
G1 X30.75 Y388.13;
G1 X30.51 Y388.14;
G1 X30.03 Y388.11;
G1 X29.59 Y388.02;
G1 X29.19 Y387.88;
G1 X29.12 Y387.85;
G1 X28.75 Y387.62;
G1 X28.42 Y387.34;
G1 X28.18 Y387.03;
G1 X27.92 Y386.61;
G1 X27.71 Y386.13;
G1 X27.61 Y385.8;
G1 X27.5 Y385.17;
G1 X27.44 Y384.5;
G1 X27.44 Y384.23;
G1 X27.47 Y383.5;
G1 X27.56 Y382.81;
G1 X27.58 Y382.7;
G1 X27.73 Y382.18;
G1 X27.92 Y381.71;
G1 X28.08 Y381.44;
G1 X28.35 Y381.1;
G1 X28.68 Y380.81;
G1 X29.01 Y380.6;
G1 X29.37 Y380.44;
G1 X29.78 Y380.34;
G1 X30.23 Y380.29;
G1 X30.47 Y380.29;
G1 X30.95 Y380.32;
G1 X31.39 Y380.4;
G1 X31.78 Y380.54;
G1 X31.85 Y380.57;
G1 X32.22 Y380.8;
G1 X32.56 Y381.08;
G1 X32.81 Y381.38;
G1 X33.04 Y381.76;
G1 X33.22 Y382.19;
G1 X33.36 Y382.61;
G1 X33.47 Y383.18;
G1 X33.52 Y383.79;
G1 X33.53 Y384.19;
G1 X33.53 Y384.19;
S0;( end pass 1 of 1 )


( start pass 1 of 1 )
G0 X47.36 Y384.31;
S300;
G1 X47.33 Y383.57 F700;
G1 X47.23 Y382.86;
G1 X47.07 Y382.19;
G1 X47.04 Y382.07;
G1 X46.83 Y381.51;
G1 X46.57 Y381.0;
G1 X46.25 Y380.53;
G1 X46.08 Y380.32;
G1 X45.69 Y379.92;
G1 X45.25 Y379.58;
G1 X44.75 Y379.29;
G1 X44.49 Y379.16;
G1 X43.98 Y378.98;
G1 X43.42 Y378.85;
G1 X42.82 Y378.77;
G1 X42.29 Y378.75;
G1 X41.61 Y378.78;
G1 X40.99 Y378.87;
G1 X40.4 Y379.02;
G1 X40.15 Y379.12;
G1 X39.65 Y379.35;
G1 X39.21 Y379.64;
G1 X38.81 Y379.99;
G1 X38.64 Y380.18;
G1 X38.32 Y380.6;
G1 X38.04 Y381.07;
G1 X37.82 Y381.59;
G1 X37.72 Y381.86;
G1 X37.58 Y382.52;
G1 X37.47 Y383.22;
G1 X37.44 Y383.98;
G1 X37.44 Y384.11;
G1 X37.47 Y384.86;
G1 X37.56 Y385.56;
G1 X37.71 Y386.23;
G1 X37.74 Y386.34;
G1 X37.95 Y386.9;
G1 X38.21 Y387.42;
G1 X38.52 Y387.89;
G1 X38.69 Y388.1;
G1 X39.08 Y388.5;
G1 X39.53 Y388.84;
G1 X40.02 Y389.13;
G1 X40.28 Y389.25;
G1 X40.79 Y389.43;
G1 X41.36 Y389.56;
G1 X41.96 Y389.64;
G1 X42.5 Y389.66;
G1 X43.17 Y389.63;
G1 X43.79 Y389.54;
G1 X44.36 Y389.39;
G1 X44.62 Y389.29;
G1 X45.12 Y389.06;
G1 X45.57 Y388.77;
G1 X45.97 Y388.42;
G1 X46.15 Y388.24;
G1 X46.47 Y387.81;
G1 X46.74 Y387.34;
G1 X46.96 Y386.82;
G1 X47.05 Y386.55;
G1 X47.21 Y385.9;
G1 X47.32 Y385.2;
G1 X47.36 Y384.45;
G1 X47.36 Y384.31;
G1 X47.36 Y384.31;
S0;( end pass 1 of 1 )


( start pass 1 of 1 )
G0 X45.44 Y384.19;
S300;
G1 X45.41 Y384.91 F700;
G1 X45.31 Y385.6;
G1 X45.29 Y385.71;
G1 X45.15 Y386.23;
G1 X44.95 Y386.7;
G1 X44.8 Y386.97;
G1 X44.56 Y387.29;
G1 X44.27 Y387.56;
G1 X43.94 Y387.78;
G1 X43.87 Y387.82;
G1 X43.52 Y387.97;
G1 X43.11 Y388.08;
G1 X42.66 Y388.13;
G1 X42.42 Y388.14;
G1 X41.93 Y388.11;
G1 X41.49 Y388.02;
G1 X41.09 Y387.88;
G1 X41.03 Y387.85;
G1 X40.65 Y387.62;
G1 X40.33 Y387.34;
G1 X40.08 Y387.03;
G1 X39.82 Y386.61;
G1 X39.61 Y386.13;
G1 X39.52 Y385.8;
G1 X39.4 Y385.17;
G1 X39.35 Y384.5;
G1 X39.34 Y384.23;
G1 X39.36 Y383.5;
G1 X39.47 Y382.81;
G1 X39.49 Y382.7;
G1 X39.63 Y382.18;
G1 X39.83 Y381.71;
G1 X39.97 Y381.44;
G1 X40.26 Y381.1;
G1 X40.58 Y380.81;
G1 X40.92 Y380.6;
G1 X41.28 Y380.44;
G1 X41.68 Y380.34;
G1 X42.14 Y380.29;
G1 X42.38 Y380.29;
G1 X42.85 Y380.32;
G1 X43.29 Y380.4;
G1 X43.69 Y380.54;
G1 X43.75 Y380.57;
G1 X44.13 Y380.8;
G1 X44.46 Y381.08;
G1 X44.71 Y381.38;
G1 X44.95 Y381.76;
G1 X45.14 Y382.19;
G1 X45.26 Y382.61;
G1 X45.37 Y383.18;
G1 X45.43 Y383.79;
G1 X45.44 Y384.19;
G1 X45.44 Y384.19;
S0;( end pass 1 of 1 )


( start pass 1 of 1 )
G0 X58.54 Y379.24;
S300;
G1 X58.5 Y379.1 F700;
G1 X58.49 Y379.09;
G1 X58.41 Y379.0;
G1 X58.36 Y378.98;
G1 X58.19 Y378.93;
G1 X58.12 Y378.92;
G1 X57.85 Y378.9;
G1 X57.74 Y378.9;
G1 X57.47 Y378.91;
G1 X57.36 Y378.92;
G1 X57.14 Y378.96;
G1 X57.1 Y378.98;
G1 X56.98 Y379.06;
G1 X56.96 Y379.09;
G1 X56.92 Y379.22;
G1 X56.92 Y379.24;
G1 X56.92 Y380.55;
G1 X56.42 Y380.05;
G1 X55.9 Y379.63;
G1 X55.38 Y379.28;
G1 X55.28 Y379.23;
G1 X54.84 Y379.01;
G1 X54.37 Y378.86;
G1 X53.87 Y378.78;
G1 X53.44 Y378.75;
G1 X52.9 Y378.78;
G1 X52.39 Y378.87;
G1 X51.93 Y379.01;
G1 X51.58 Y379.17;
G1 X51.16 Y379.44;
G1 X50.79 Y379.76;
G1 X50.47 Y380.12;
G1 X50.32 Y380.32;
G1 X50.05 Y380.8;
G1 X49.83 Y381.33;
G1 X49.65 Y381.91;
G1 X49.63 Y382.02;
G1 X49.49 Y382.78;
G1 X49.42 Y383.57;
G1 X49.41 Y384.08;
G1 X49.44 Y384.86;
G1 X49.52 Y385.59;
G1 X49.66 Y386.27;
G1 X49.68 Y386.38;
G1 X49.86 Y386.95;
G1 X50.09 Y387.47;
G1 X50.35 Y387.94;
G1 X50.5 Y388.15;
G1 X50.83 Y388.54;
G1 X51.2 Y388.87;
G1 X51.62 Y389.15;
G1 X51.83 Y389.26;
G1 X52.32 Y389.46;
G1 X52.84 Y389.59;
G1 X53.4 Y389.65;
G1 X53.69 Y389.66;
G1 X54.17 Y389.63;
G1 X54.63 Y389.53;
G1 X55.07 Y389.37;
G1 X55.27 Y389.27;
G1 X55.73 Y389.0;
G1 X56.18 Y388.65;
G1 X56.63 Y388.24;
G1 X56.71 Y388.16;
G1 X56.71 Y393.92;
G1 X56.74 Y394.07;
G1 X56.83 Y394.15;
G1 X56.89 Y394.18;
G1 X57.11 Y394.24;
G1 X57.17 Y394.24;
G1 X57.42 Y394.27;
G1 X57.61 Y394.28;
G1 X57.91 Y394.26;
G1 X58.06 Y394.24;
G1 X58.27 Y394.2;
G1 X58.34 Y394.18;
G1 X58.46 Y394.1;
G1 X58.48 Y394.07;
G1 X58.53 Y393.95;
G1 X58.54 Y393.92;
G1 X58.54 Y379.24;
S0;( end pass 1 of 1 )


( start pass 1 of 1 )
G0 X56.71 Y386.22;
S300;
G1 X56.29 Y386.71 F700;
G1 X55.87 Y387.12;
G1 X55.47 Y387.47;
G1 X55.27 Y387.61;
G1 X54.91 Y387.83;
G1 X54.54 Y387.98;
G1 X54.16 Y388.07;
G1 X53.84 Y388.09;
G1 X53.42 Y388.06;
G1 X53.05 Y387.96;
G1 X52.71 Y387.8;
G1 X52.66 Y387.76;
G1 X52.32 Y387.48;
G1 X52.02 Y387.14;
G1 X51.87 Y386.89;
G1 X51.64 Y386.41;
G1 X51.48 Y385.88;
G1 X51.43 Y385.67;
G1 X51.33 Y384.97;
G1 X51.29 Y384.28;
G1 X51.33 Y383.45;
G1 X51.4 Y382.81;
G1 X51.53 Y382.24;
G1 X51.72 Y381.72;
G1 X51.81 Y381.53;
G1 X52.03 Y381.18;
G1 X52.3 Y380.87;
G1 X52.57 Y380.64;
G1 X52.86 Y380.48;
G1 X53.2 Y380.37;
G1 X53.57 Y380.32;
G1 X53.76 Y380.31;
G1 X54.2 Y380.35;
G1 X54.46 Y380.41;
G1 X54.81 Y380.54;
G1 X55.15 Y380.74;
G1 X55.52 Y381.01;
G1 X55.89 Y381.33;
G1 X56.26 Y381.72;
G1 X56.64 Y382.17;
G1 X56.71 Y382.25;
G1 X56.71 Y386.22;
S0;( end pass 1 of 1 )


( start pass 1 of 1 )
G0 X75.39 Y383.04;
S300;
G1 X75.36 Y382.44 F700;
G1 X75.26 Y381.88;
G1 X75.09 Y381.36;
G1 X75.05 Y381.27;
G1 X74.81 Y380.8;
G1 X74.5 Y380.37;
G1 X74.14 Y379.99;
G1 X74.06 Y379.92;
G1 X73.64 Y379.59;
G1 X73.15 Y379.32;
G1 X72.59 Y379.09;
G1 X72.48 Y379.05;
G1 X71.88 Y378.89;
G1 X71.22 Y378.8;
G1 X70.5 Y378.76;
G1 X70.38 Y378.75;
G1 X69.67 Y378.79;
G1 X69.03 Y378.88;
G1 X68.44 Y379.0;
G1 X67.93 Y379.14;
G1 X67.52 Y379.29;
G1 X67.17 Y379.45;
G1 X67.12 Y379.47;
G1 X66.91 Y379.59;
G1 X66.77 Y379.68;
G1 X66.72 Y379.72;
G1 X66.59 Y379.88;
G1 X66.52 Y380.07;
G1 X66.47 Y380.3;
G1 X66.45 Y380.33;
G1 X66.45 Y380.61;
G1 X66.45 Y380.73;
G1 X66.45 Y381.0;
G1 X66.5 Y381.19;
G1 X66.53 Y381.28;
G1 X66.61 Y381.39;
G1 X66.73 Y381.43;
G1 X66.75 Y381.43;
G1 X66.84 Y381.41;
G1 X67.01 Y381.33;
G1 X67.14 Y381.26;
G1 X67.44 Y381.09;
G1 X67.81 Y380.9;
G1 X67.89 Y380.87;
G1 X68.39 Y380.68;
G1 X68.95 Y380.5;
G1 X69.5 Y380.38;
G1 X70.08 Y380.32;
G1 X70.31 Y380.32;
G1 X70.84 Y380.35;
G1 X71.33 Y380.43;
G1 X71.59 Y380.51;
G1 X72.0 Y380.67;
G1 X72.34 Y380.88;
G1 X72.53 Y381.04;
G1 X72.81 Y381.34;
G1 X73.02 Y381.7;
G1 X73.09 Y381.84;
G1 X73.2 Y382.25;
G1 X73.27 Y382.69;
G1 X73.28 Y382.87;
G1 X73.23 Y383.31;
G1 X73.14 Y383.72;
G1 X73.03 Y383.96;
G1 X72.81 Y384.31;
G1 X72.55 Y384.62;
G1 X72.34 Y384.8;
G1 X72.0 Y385.02;
G1 X71.61 Y385.21;
G1 X71.2 Y385.34;
G1 X70.68 Y385.45;
G1 X70.09 Y385.51;
G1 X69.7 Y385.52;
G1 X68.34 Y385.52;
G1 X68.17 Y385.56;
G1 X68.04 Y385.67;
G1 X68.03 Y385.69;
G1 X67.95 Y385.87;
G1 X67.93 Y385.92;
G1 X67.9 Y386.13;
G1 X67.9 Y386.3;
G1 X67.91 Y386.54;
G1 X67.93 Y386.64;
G1 X67.98 Y386.81;
G1 X68.02 Y386.86;
G1 X68.13 Y386.97;
G1 X68.16 Y386.98;
G1 X68.3 Y387.02;
G1 X68.34 Y387.02;
G1 X69.58 Y387.02;
G1 X70.12 Y387.05;
G1 X70.59 Y387.13;
G1 X70.88 Y387.21;
G1 X71.3 Y387.38;
G1 X71.67 Y387.59;
G1 X71.87 Y387.75;
G1 X72.15 Y388.04;
G1 X72.37 Y388.37;
G1 X72.48 Y388.59;
G1 X72.62 Y388.98;
G1 X72.69 Y389.41;
G1 X72.7 Y389.69;
G1 X72.67 Y390.13;
G1 X72.56 Y390.53;
G1 X72.4 Y390.88;
G1 X72.17 Y391.19;
G1 X72.13 Y391.23;
G1 X71.86 Y391.46;
G1 X71.53 Y391.64;
G1 X71.39 Y391.7;
G1 X71.0 Y391.81;
G1 X70.55 Y391.87;
G1 X70.37 Y391.87;
G1 X69.84 Y391.84;
G1 X69.36 Y391.73;
G1 X69.19 Y391.68;
G1 X68.63 Y391.46;
G1 X68.23 Y391.27;
G1 X67.84 Y391.05;
G1 X67.54 Y390.85;
G1 X67.36 Y390.73;
G1 X67.22 Y390.67;
G1 X67.16 Y390.66;
G1 X67.01 Y390.68;
G1 X66.92 Y390.78;
G1 X66.92 Y390.79;
G1 X66.87 Y390.97;
G1 X66.86 Y391.02;
G1 X66.84 Y391.25;
G1 X66.84 Y391.42;
G1 X66.86 Y391.68;
G1 X66.86 Y391.71;
G1 X66.9 Y391.91;
G1 X66.9 Y391.93;
G1 X66.98 Y392.11;
G1 X67.09 Y392.25;
G1 X67.12 Y392.28;
G1 X67.23 Y392.38;
G1 X67.41 Y392.5;
G1 X67.55 Y392.59;
G1 X67.92 Y392.79;
G1 X68.34 Y392.98;
G1 X68.84 Y393.16;
G1 X69.42 Y393.31;
G1 X70.01 Y393.4;
G1 X70.63 Y393.44;
G1 X70.73 Y393.44;
G1 X71.34 Y393.41;
G1 X71.9 Y393.34;
G1 X72.4 Y393.21;
G1 X72.48 Y393.19;
G1 X72.97 Y392.98;
G1 X73.4 Y392.73;
G1 X73.73 Y392.47;
G1 X74.05 Y392.13;
G1 X74.3 Y391.74;
G1 X74.48 Y391.36;
G1 X74.62 Y390.89;
G1 X74.7 Y390.4;
G1 X74.73 Y389.93;
G1 X74.7 Y389.38;
G1 X74.61 Y388.87;
G1 X74.56 Y388.68;
G1 X74.38 Y388.22;
G1 X74.14 Y387.8;
G1 X74.04 Y387.65;
G1 X73.72 Y387.3;
G1 X73.34 Y387.0;
G1 X73.2 Y386.89;
G1 X72.8 Y386.68;
G1 X72.34 Y386.53;
G1 X72.05 Y386.46;
G1 X72.05 Y386.44;
G1 X72.59 Y386.35;
G1 X73.09 Y386.19;
G1 X73.4 Y386.06;
G1 X73.84 Y385.82;
G1 X74.23 Y385.54;
G1 X74.45 Y385.34;
G1 X74.76 Y384.98;
G1 X75.01 Y384.57;
G1 X75.14 Y384.3;
G1 X75.3 Y383.84;
G1 X75.38 Y383.36;
G1 X75.39 Y383.04;
G1 X75.39 Y383.04;
S0;( end pass 1 of 1 )


( start pass 1 of 1 )
G0 X98.27 Y379.24;
S300;
G1 X98.23 Y379.1 F700;
G1 X98.22 Y379.09;
G1 X98.12 Y379.0;
G1 X98.08 Y378.99;
G1 X97.91 Y378.94;
G1 X97.81 Y378.92;
G1 X97.56 Y378.9;
G1 X97.36 Y378.9;
G1 X97.06 Y378.91;
G1 X96.91 Y378.92;
G1 X96.69 Y378.97;
G1 X96.63 Y378.99;
G1 X96.5 Y379.07;
G1 X96.48 Y379.09;
G1 X96.44 Y379.22;
G1 X96.44 Y379.24;
G1 X96.44 Y385.27;
G1 X96.42 Y385.83;
G1 X96.34 Y386.34;
G1 X96.33 Y386.42;
G1 X96.21 Y386.83;
G1 X96.05 Y387.19;
G1 X95.98 Y387.31;
G1 X95.75 Y387.59;
G1 X95.48 Y387.81;
G1 X95.36 Y387.88;
G1 X95.05 Y388.01;
G1 X94.71 Y388.07;
G1 X94.48 Y388.08;
G1 X94.12 Y388.04;
G1 X93.75 Y387.92;
G1 X93.39 Y387.72;
G1 X93.21 Y387.6;
G1 X92.84 Y387.28;
G1 X92.44 Y386.89;
G1 X92.03 Y386.43;
G1 X91.82 Y386.17;
G1 X91.82 Y379.24;
G1 X91.78 Y379.1;
G1 X91.78 Y379.09;
G1 X91.67 Y379.01;
G1 X91.62 Y378.99;
G1 X91.45 Y378.94;
G1 X91.35 Y378.92;
G1 X91.1 Y378.9;
G1 X90.9 Y378.9;
G1 X90.56 Y378.91;
G1 X90.46 Y378.92;
G1 X90.24 Y378.97;
G1 X90.18 Y378.99;
G1 X90.05 Y379.07;
G1 X90.03 Y379.09;
G1 X90.0 Y379.24;
G1 X90.0 Y385.27;
G1 X89.97 Y385.83;
G1 X89.9 Y386.34;
G1 X89.88 Y386.42;
G1 X89.74 Y386.86;
G1 X89.55 Y387.25;
G1 X89.52 Y387.31;
G1 X89.29 Y387.59;
G1 X89.02 Y387.81;
G1 X88.9 Y387.88;
G1 X88.6 Y388.01;
G1 X88.26 Y388.07;
G1 X88.03 Y388.08;
G1 X87.67 Y388.04;
G1 X87.3 Y387.92;
G1 X86.94 Y387.72;
G1 X86.76 Y387.6;
G1 X86.38 Y387.28;
G1 X85.99 Y386.89;
G1 X85.58 Y386.43;
G1 X85.37 Y386.17;
G1 X85.37 Y379.24;
G1 X85.33 Y379.1;
G1 X85.33 Y379.09;
G1 X85.22 Y379.0;
G1 X85.18 Y378.99;
G1 X85.01 Y378.94;
G1 X84.91 Y378.92;
G1 X84.65 Y378.9;
G1 X84.46 Y378.9;
G1 X84.16 Y378.91;
G1 X84.01 Y378.92;
G1 X83.79 Y378.97;
G1 X83.73 Y378.99;
G1 X83.6 Y379.07;
G1 X83.58 Y379.09;
G1 X83.55 Y379.24;
G1 X83.55 Y389.16;
G1 X83.58 Y389.29;
G1 X83.58 Y389.31;
G1 X83.67 Y389.39;
G1 X83.72 Y389.42;
G1 X83.89 Y389.47;
G1 X83.97 Y389.48;
G1 X84.2 Y389.5;
G1 X84.38 Y389.5;
G1 X84.64 Y389.5;
G1 X84.78 Y389.48;
G1 X84.95 Y389.45;
G1 X85.03 Y389.42;
G1 X85.14 Y389.33;
G1 X85.15 Y389.31;
G1 X85.19 Y389.19;
G1 X85.19 Y389.16;
G1 X85.19 Y387.85;
G1 X85.63 Y388.3;
G1 X86.05 Y388.69;
G1 X86.47 Y389.0;
G1 X86.81 Y389.22;
G1 X87.27 Y389.43;
G1 X87.73 Y389.58;
G1 X88.19 Y389.65;
G1 X88.41 Y389.66;
G1 X88.91 Y389.63;
G1 X89.36 Y389.56;
G1 X89.52 Y389.51;
G1 X89.95 Y389.36;
G1 X90.33 Y389.15;
G1 X90.39 Y389.11;
G1 X90.71 Y388.85;
G1 X90.98 Y388.54;
G1 X91.03 Y388.49;
G1 X91.29 Y388.07;
G1 X91.47 Y387.7;
G1 X91.91 Y388.16;
G1 X92.34 Y388.55;
G1 X92.4 Y388.61;
G1 X92.85 Y388.95;
G1 X93.26 Y389.22;
G1 X93.68 Y389.42;
G1 X94.07 Y389.55;
G1 X94.51 Y389.64;
G1 X94.86 Y389.66;
G1 X95.39 Y389.63;
G1 X95.86 Y389.55;
G1 X96.28 Y389.41;
G1 X96.47 Y389.32;
G1 X96.86 Y389.08;
G1 X97.19 Y388.81;
G1 X97.48 Y388.48;
G1 X97.52 Y388.42;
G1 X97.77 Y388.01;
G1 X97.97 Y387.55;
G1 X98.09 Y387.1;
G1 X98.21 Y386.46;
G1 X98.26 Y385.78;
G1 X98.27 Y385.51;
G1 X98.27 Y379.24;
S0;( end pass 1 of 1 )


( start pass 1 of 1 )
G0 X116.3 Y379.24;
S300;
G1 X116.27 Y379.1 F700;
G1 X116.26 Y379.09;
G1 X116.15 Y379.0;
G1 X116.12 Y378.99;
G1 X115.95 Y378.94;
G1 X115.84 Y378.92;
G1 X115.59 Y378.9;
G1 X115.4 Y378.9;
G1 X115.1 Y378.91;
G1 X114.95 Y378.92;
G1 X114.72 Y378.97;
G1 X114.66 Y378.99;
G1 X114.54 Y379.07;
G1 X114.52 Y379.09;
G1 X114.47 Y379.22;
G1 X114.47 Y379.24;
G1 X114.47 Y385.27;
G1 X114.45 Y385.83;
G1 X114.38 Y386.34;
G1 X114.36 Y386.42;
G1 X114.25 Y386.83;
G1 X114.09 Y387.19;
G1 X114.01 Y387.31;
G1 X113.78 Y387.59;
G1 X113.51 Y387.81;
G1 X113.39 Y387.88;
G1 X113.09 Y388.01;
G1 X112.75 Y388.07;
G1 X112.51 Y388.08;
G1 X112.15 Y388.04;
G1 X111.79 Y387.92;
G1 X111.42 Y387.72;
G1 X111.24 Y387.6;
G1 X110.87 Y387.28;
G1 X110.48 Y386.89;
G1 X110.07 Y386.43;
G1 X109.86 Y386.17;
G1 X109.86 Y379.24;
G1 X109.82 Y379.1;
G1 X109.81 Y379.09;
G1 X109.71 Y379.01;
G1 X109.66 Y378.99;
G1 X109.49 Y378.94;
G1 X109.38 Y378.92;
G1 X109.13 Y378.9;
G1 X108.94 Y378.9;
G1 X108.6 Y378.91;
G1 X108.5 Y378.92;
G1 X108.27 Y378.97;
G1 X108.21 Y378.99;
G1 X108.09 Y379.07;
G1 X108.07 Y379.09;
G1 X108.04 Y379.24;
G1 X108.04 Y385.27;
G1 X108.01 Y385.83;
G1 X107.93 Y386.34;
G1 X107.92 Y386.42;
G1 X107.78 Y386.86;
G1 X107.59 Y387.25;
G1 X107.55 Y387.31;
G1 X107.32 Y387.59;
G1 X107.05 Y387.81;
G1 X106.93 Y387.88;
G1 X106.64 Y388.01;
G1 X106.3 Y388.07;
G1 X106.06 Y388.08;
G1 X105.7 Y388.04;
G1 X105.34 Y387.92;
G1 X104.97 Y387.72;
G1 X104.8 Y387.6;
G1 X104.42 Y387.28;
G1 X104.03 Y386.89;
G1 X103.61 Y386.43;
G1 X103.41 Y386.17;
G1 X103.41 Y379.24;
G1 X103.37 Y379.1;
G1 X103.36 Y379.09;
G1 X103.25 Y379.0;
G1 X103.22 Y378.99;
G1 X103.05 Y378.94;
G1 X102.94 Y378.92;
G1 X102.69 Y378.9;
G1 X102.49 Y378.9;
G1 X102.2 Y378.91;
G1 X102.05 Y378.92;
G1 X101.82 Y378.97;
G1 X101.76 Y378.99;
G1 X101.64 Y379.07;
G1 X101.62 Y379.09;
G1 X101.59 Y379.24;
G1 X101.59 Y389.16;
G1 X101.61 Y389.29;
G1 X101.62 Y389.31;
G1 X101.71 Y389.39;
G1 X101.75 Y389.42;
G1 X101.93 Y389.47;
G1 X102.01 Y389.48;
G1 X102.23 Y389.5;
G1 X102.41 Y389.5;
G1 X102.68 Y389.5;
G1 X102.81 Y389.48;
G1 X102.98 Y389.45;
G1 X103.06 Y389.42;
G1 X103.17 Y389.33;
G1 X103.19 Y389.31;
G1 X103.23 Y389.19;
G1 X103.23 Y389.16;
G1 X103.23 Y387.85;
G1 X103.66 Y388.3;
G1 X104.09 Y388.69;
G1 X104.51 Y389.0;
G1 X104.85 Y389.22;
G1 X105.31 Y389.43;
G1 X105.76 Y389.58;
G1 X106.22 Y389.65;
G1 X106.45 Y389.66;
G1 X106.94 Y389.63;
G1 X107.39 Y389.56;
G1 X107.55 Y389.51;
G1 X107.98 Y389.36;
G1 X108.36 Y389.15;
G1 X108.42 Y389.11;
G1 X108.74 Y388.85;
G1 X109.02 Y388.54;
G1 X109.06 Y388.49;
G1 X109.33 Y388.07;
G1 X109.5 Y387.7;
G1 X109.95 Y388.16;
G1 X110.37 Y388.55;
G1 X110.44 Y388.61;
G1 X110.89 Y388.95;
G1 X111.3 Y389.22;
G1 X111.72 Y389.42;
G1 X112.1 Y389.55;
G1 X112.55 Y389.64;
G1 X112.9 Y389.66;
G1 X113.42 Y389.63;
G1 X113.9 Y389.55;
G1 X114.32 Y389.41;
G1 X114.51 Y389.32;
G1 X114.89 Y389.08;
G1 X115.23 Y388.81;
G1 X115.51 Y388.48;
G1 X115.55 Y388.42;
G1 X115.81 Y388.01;
G1 X116.0 Y387.55;
G1 X116.13 Y387.1;
G1 X116.25 Y386.46;
G1 X116.3 Y385.78;
G1 X116.3 Y385.51;
G1 X116.3 Y379.24;
S0;( end pass 1 of 1 )


( start pass 1 of 1 )
G0 X121.97 Y380.17;
S300;
G1 X121.95 Y379.79 F700;
G1 X121.9 Y379.49;
G1 X121.81 Y379.26;
G1 X121.71 Y379.12;
G1 X121.54 Y379.0;
G1 X121.33 Y378.92;
G1 X121.05 Y378.88;
G1 X120.77 Y378.87;
G1 X120.42 Y378.89;
G1 X120.14 Y378.95;
G1 X119.93 Y379.05;
G1 X119.85 Y379.12;
G1 X119.74 Y379.29;
G1 X119.66 Y379.52;
G1 X119.61 Y379.82;
G1 X119.6 Y380.13;
G1 X119.62 Y380.5;
G1 X119.67 Y380.8;
G1 X119.76 Y381.03;
G1 X119.85 Y381.17;
G1 X120.02 Y381.29;
G1 X120.24 Y381.37;
G1 X120.52 Y381.42;
G1 X120.8 Y381.43;
G1 X121.15 Y381.41;
G1 X121.43 Y381.35;
G1 X121.64 Y381.25;
G1 X121.72 Y381.18;
G1 X121.83 Y381.01;
G1 X121.91 Y380.78;
G1 X121.96 Y380.47;
G1 X121.97 Y380.17;
G1 X121.97 Y380.17;
S0;( end pass 1 of 1 )


( start pass 1 of 1 )
G0 X139.4 Y389.05;
S300;
G1 X139.37 Y388.46 F700;
G1 X139.28 Y387.89;
G1 X139.13 Y387.37;
G1 X139.05 Y387.12;
G1 X138.79 Y386.61;
G1 X138.47 Y386.14;
G1 X138.1 Y385.72;
G1 X138.03 Y385.66;
G1 X137.63 Y385.33;
G1 X137.19 Y385.05;
G1 X136.69 Y384.82;
G1 X136.41 Y384.72;
G1 X135.9 Y384.57;
G1 X135.33 Y384.46;
G1 X134.71 Y384.4;
G1 X134.15 Y384.39;
G1 X132.53 Y384.39;
G1 X132.53 Y379.25;
G1 X132.5 Y379.12;
G1 X132.47 Y379.1;
G1 X132.37 Y379.01;
G1 X132.32 Y378.99;
G1 X132.16 Y378.95;
G1 X132.04 Y378.93;
G1 X131.78 Y378.9;
G1 X131.58 Y378.9;
G1 X131.28 Y378.91;
G1 X131.12 Y378.93;
G1 X130.9 Y378.97;
G1 X130.83 Y378.99;
G1 X130.71 Y379.06;
G1 X130.68 Y379.1;
G1 X130.63 Y379.23;
G1 X130.63 Y379.25;
G1 X130.63 Y392.41;
G1 X130.66 Y392.67;
G1 X130.72 Y392.87;
G1 X130.84 Y393.02;
G1 X130.87 Y393.04;
G1 X131.07 Y393.17;
G1 X131.29 Y393.22;
G1 X131.38 Y393.23;
G1 X134.44 Y393.23;
G1 X135.1 Y393.21;
G1 X135.32 Y393.19;
G1 X135.75 Y393.13;
G1 X136.24 Y393.04;
G1 X136.32 Y393.02;
G1 X136.77 Y392.89;
G1 X137.22 Y392.7;
G1 X137.5 Y392.55;
G1 X137.94 Y392.26;
G1 X138.32 Y391.93;
G1 X138.53 Y391.7;
G1 X138.82 Y391.29;
G1 X139.05 Y390.83;
G1 X139.16 Y390.52;
G1 X139.31 Y389.99;
G1 X139.38 Y389.43;
G1 X139.4 Y389.05;
G1 X139.4 Y389.05;
S0;( end pass 1 of 1 )


( start pass 1 of 1 )
G0 X137.4 Y388.9;
S300;
G1 X137.38 Y389.37 F700;
G1 X137.3 Y389.8;
G1 X137.16 Y390.18;
G1 X137.07 Y390.35;
G1 X136.86 Y390.69;
G1 X136.61 Y390.97;
G1 X136.32 Y391.19;
G1 X136.27 Y391.22;
G1 X135.86 Y391.43;
G1 X135.44 Y391.56;
G1 X135.28 Y391.59;
G1 X134.6 Y391.66;
G1 X134.28 Y391.66;
G1 X132.53 Y391.66;
G1 X132.53 Y385.94;
G1 X134.24 Y385.94;
G1 X134.75 Y385.96;
G1 X135.21 Y386.03;
G1 X135.6 Y386.14;
G1 X135.66 Y386.16;
G1 X136.07 Y386.36;
G1 X136.43 Y386.6;
G1 X136.62 Y386.77;
G1 X136.88 Y387.09;
G1 X137.1 Y387.46;
G1 X137.21 Y387.71;
G1 X137.34 Y388.18;
G1 X137.4 Y388.69;
G1 X137.4 Y388.9;
G1 X137.4 Y388.9;
S0;( end pass 1 of 1 )


( start pass 1 of 1 )
G0 X149.08 Y379.23;
S300;
G1 X149.05 Y379.1 F700;
G1 X148.99 Y379.03;
G1 X148.84 Y378.96;
G1 X148.75 Y378.93;
G1 X148.56 Y378.91;
G1 X148.3 Y378.9;
G1 X148.01 Y378.91;
G1 X147.83 Y378.93;
G1 X147.66 Y378.98;
G1 X147.59 Y379.03;
G1 X147.53 Y379.14;
G1 X147.51 Y379.23;
G1 X147.51 Y380.22;
G1 X147.09 Y379.81;
G1 X146.63 Y379.47;
G1 X146.15 Y379.18;
G1 X146.06 Y379.14;
G1 X145.55 Y378.94;
G1 X145.02 Y378.81;
G1 X144.47 Y378.76;
G1 X144.37 Y378.75;
G1 X143.8 Y378.79;
G1 X143.26 Y378.88;
G1 X142.94 Y378.96;
G1 X142.5 Y379.14;
G1 X142.09 Y379.38;
G1 X141.87 Y379.55;
G1 X141.56 Y379.87;
G1 X141.31 Y380.24;
G1 X141.18 Y380.5;
G1 X141.04 Y380.91;
G1 X140.96 Y381.35;
G1 X140.93 Y381.78;
G1 X140.96 Y382.24;
G1 X141.05 Y382.66;
G1 X141.19 Y383.05;
G1 X141.27 Y383.23;
G1 X141.52 Y383.6;
G1 X141.82 Y383.93;
G1 X142.19 Y384.21;
G1 X142.26 Y384.26;
G1 X142.69 Y384.49;
G1 X143.18 Y384.69;
G1 X143.72 Y384.84;
G1 X143.82 Y384.86;
G1 X144.49 Y384.98;
G1 X145.22 Y385.05;
G1 X145.9 Y385.07;
G1 X147.27 Y385.07;
G1 X147.27 Y385.84;
G1 X147.25 Y386.34;
G1 X147.16 Y386.79;
G1 X147.15 Y386.86;
G1 X147.02 Y387.2;
G1 X146.84 Y387.49;
G1 X146.75 Y387.59;
G1 X146.5 Y387.81;
G1 X146.19 Y387.98;
G1 X146.06 Y388.03;
G1 X145.69 Y388.12;
G1 X145.29 Y388.17;
G1 X145.0 Y388.18;
G1 X144.46 Y388.15;
G1 X143.97 Y388.06;
G1 X143.79 Y388.02;
G1 X143.28 Y387.85;
G1 X142.85 Y387.66;
G1 X142.44 Y387.46;
G1 X142.18 Y387.31;
G1 X141.97 Y387.21;
G1 X141.83 Y387.16;
G1 X141.78 Y387.16;
G1 X141.63 Y387.19;
G1 X141.63 Y387.2;
G1 X141.52 Y387.31;
G1 X141.51 Y387.33;
G1 X141.44 Y387.53;
G1 X141.44 Y387.55;
G1 X141.41 Y387.86;
G1 X141.43 Y388.13;
G1 X141.44 Y388.29;
G1 X141.54 Y388.49;
G1 X141.63 Y388.6;
G1 X141.8 Y388.73;
G1 X142.04 Y388.87;
G1 X142.16 Y388.93;
G1 X142.6 Y389.14;
G1 X142.99 Y389.28;
G1 X143.55 Y389.45;
G1 X144.03 Y389.55;
G1 X144.66 Y389.64;
G1 X145.16 Y389.66;
G1 X145.81 Y389.63;
G1 X146.38 Y389.56;
G1 X146.9 Y389.44;
G1 X146.99 Y389.42;
G1 X147.43 Y389.24;
G1 X147.82 Y389.02;
G1 X148.15 Y388.75;
G1 X148.19 Y388.7;
G1 X148.46 Y388.38;
G1 X148.68 Y388.02;
G1 X148.85 Y387.62;
G1 X148.87 Y387.54;
G1 X148.99 Y387.03;
G1 X149.06 Y386.47;
G1 X149.08 Y385.92;
G1 X149.08 Y379.23;
S0;( end pass 1 of 1 )


( start pass 1 of 1 )
G0 X147.27 Y383.76;
S300;
G1 X145.72 Y383.76 F700;
G1 X145.16 Y383.74;
G1 X144.69 Y383.68;
G1 X144.41 Y383.63;
G1 X144.02 Y383.52;
G1 X143.68 Y383.37;
G1 X143.5 Y383.25;
G1 X143.22 Y383.03;
G1 X143.02 Y382.77;
G1 X142.96 Y382.66;
G1 X142.85 Y382.35;
G1 X142.8 Y382.01;
G1 X142.8 Y381.86;
G1 X142.83 Y381.48;
G1 X142.93 Y381.14;
G1 X143.09 Y380.85;
G1 X143.28 Y380.63;
G1 X143.54 Y380.44;
G1 X143.84 Y380.3;
G1 X144.18 Y380.21;
G1 X144.57 Y380.18;
G1 X144.66 Y380.18;
G1 X145.1 Y380.21;
G1 X145.52 Y380.32;
G1 X145.91 Y380.5;
G1 X145.97 Y380.54;
G1 X146.38 Y380.81;
G1 X146.78 Y381.15;
G1 X147.19 Y381.57;
G1 X147.27 Y381.65;
G1 X147.27 Y383.76;
S0;( end pass 1 of 1 )


( start pass 1 of 1 )
G0 X160.71 Y388.71;
S300;
G1 X160.69 Y388.45 F700;
G1 X160.65 Y388.24;
G1 X160.6 Y388.15;
G1 X160.49 Y388.03;
G1 X160.36 Y387.98;
G1 X160.34 Y387.98;
G1 X158.91 Y387.98;
G1 X159.16 Y387.67;
G1 X159.37 Y387.33;
G1 X159.44 Y387.1;
G1 X159.56 Y386.65;
G1 X159.61 Y386.19;
G1 X159.61 Y386.11;
G1 X159.58 Y385.59;
G1 X159.5 Y385.1;
G1 X159.36 Y384.66;
G1 X159.33 Y384.59;
G1 X159.11 Y384.15;
G1 X158.83 Y383.76;
G1 X158.54 Y383.46;
G1 X158.16 Y383.17;
G1 X157.74 Y382.94;
G1 X157.33 Y382.77;
G1 X156.82 Y382.63;
G1 X156.27 Y382.55;
G1 X155.76 Y382.53;
G1 X155.21 Y382.56;
G1 X154.69 Y382.66;
G1 X154.6 Y382.68;
G1 X154.22 Y382.82;
G1 X153.91 Y382.98;
G1 X153.76 Y383.09;
G1 X153.53 Y382.79;
G1 X153.43 Y382.64;
G1 X153.34 Y382.36;
G1 X153.31 Y382.05;
G1 X153.35 Y381.82;
G1 X153.44 Y381.62;
G1 X153.63 Y381.44;
G1 X153.66 Y381.41;
G1 X153.94 Y381.26;
G1 X154.28 Y381.17;
G1 X154.62 Y381.14;
G1 X157.22 Y381.03;
G1 X157.81 Y380.98;
G1 X158.37 Y380.87;
G1 X158.57 Y380.82;
G1 X159.02 Y380.66;
G1 X159.41 Y380.45;
G1 X159.63 Y380.3;
G1 X159.96 Y380.02;
G1 X160.21 Y379.7;
G1 X160.35 Y379.47;
G1 X160.49 Y379.12;
G1 X160.58 Y378.72;
G1 X160.6 Y378.34;
G1 X160.57 Y377.87;
G1 X160.46 Y377.42;
G1 X160.31 Y377.04;
G1 X160.1 Y376.66;
G1 X159.83 Y376.32;
G1 X159.5 Y376.01;
G1 X159.43 Y375.95;
G1 X159.03 Y375.68;
G1 X158.56 Y375.44;
G1 X158.03 Y375.25;
G1 X157.93 Y375.22;
G1 X157.38 Y375.08;
G1 X156.77 Y374.99;
G1 X156.11 Y374.95;
G1 X155.77 Y374.94;
G1 X155.11 Y374.96;
G1 X154.51 Y375.01;
G1 X153.97 Y375.1;
G1 X153.72 Y375.15;
G1 X153.22 Y375.29;
G1 X152.78 Y375.46;
G1 X152.4 Y375.66;
G1 X152.34 Y375.7;
G1 X152.0 Y375.96;
G1 X151.74 Y376.26;
G1 X151.56 Y376.55;
G1 X151.41 Y376.93;
G1 X151.33 Y377.34;
G1 X151.32 Y377.61;
G1 X151.35 Y378.05;
G1 X151.41 Y378.31;
G1 X151.55 Y378.72;
G1 X151.66 Y378.96;
G1 X151.96 Y379.37;
G1 X152.12 Y379.55;
G1 X152.53 Y379.93;
G1 X152.75 Y380.11;
G1 X152.41 Y380.32;
G1 X152.13 Y380.56;
G1 X151.94 Y380.81;
G1 X151.79 Y381.13;
G1 X151.71 Y381.48;
G1 X151.69 Y381.71;
G1 X151.72 Y382.16;
G1 X151.82 Y382.57;
G1 X151.97 Y382.91;
G1 X152.25 Y383.38;
G1 X152.59 Y383.79;
G1 X152.65 Y383.86;
G1 X152.37 Y384.26;
G1 X152.13 Y384.7;
G1 X152.11 Y384.77;
G1 X152.0 Y385.16;
G1 X151.93 Y385.59;
G1 X151.91 Y386.02;
G1 X151.94 Y386.54;
G1 X152.03 Y387.02;
G1 X152.16 Y387.47;
G1 X152.19 Y387.54;
G1 X152.41 Y387.98;
G1 X152.69 Y388.37;
G1 X152.99 Y388.68;
G1 X153.37 Y388.97;
G1 X153.79 Y389.21;
G1 X154.21 Y389.38;
G1 X154.72 Y389.53;
G1 X155.26 Y389.61;
G1 X155.76 Y389.64;
G1 X156.34 Y389.61;
G1 X156.6 Y389.58;
G1 X157.16 Y389.49;
G1 X157.34 Y389.45;
G1 X160.34 Y389.45;
G1 X160.47 Y389.42;
G1 X160.58 Y389.32;
G1 X160.61 Y389.26;
G1 X160.68 Y389.08;
G1 X160.71 Y388.83;
G1 X160.71 Y388.71;
G1 X160.71 Y388.71;
S0;( end pass 1 of 1 )


( start pass 1 of 1 )
G0 X157.87 Y386.1;
S300;
G1 X157.84 Y386.51 F700;
G1 X157.76 Y386.89;
G1 X157.63 Y387.22;
G1 X157.44 Y387.51;
G1 X157.3 Y387.67;
G1 X157.04 Y387.89;
G1 X156.74 Y388.06;
G1 X156.38 Y388.17;
G1 X156.0 Y388.24;
G1 X155.72 Y388.25;
G1 X155.31 Y388.22;
G1 X154.93 Y388.12;
G1 X154.8 Y388.07;
G1 X154.47 Y387.88;
G1 X154.19 Y387.63;
G1 X154.15 Y387.59;
G1 X153.94 Y387.28;
G1 X153.79 Y386.93;
G1 X153.76 Y386.87;
G1 X153.66 Y386.45;
G1 X153.63 Y386.03;
G1 X153.66 Y385.59;
G1 X153.77 Y385.2;
G1 X153.91 Y384.85;
G1 X154.13 Y384.55;
G1 X154.19 Y384.49;
G1 X154.46 Y384.27;
G1 X154.76 Y384.11;
G1 X155.1 Y384.0;
G1 X155.49 Y383.94;
G1 X155.76 Y383.93;
G1 X156.19 Y383.95;
G1 X156.57 Y384.04;
G1 X156.69 Y384.09;
G1 X157.03 Y384.28;
G1 X157.31 Y384.52;
G1 X157.35 Y384.56;
G1 X157.56 Y384.87;
G1 X157.71 Y385.21;
G1 X157.72 Y385.27;
G1 X157.83 Y385.68;
G1 X157.87 Y386.1;
G1 X157.87 Y386.1;
S0;( end pass 1 of 1 )


( start pass 1 of 1 )
G0 X158.78 Y378.24;
S300;
G1 X158.75 Y378.52 F700;
G1 X158.66 Y378.78;
G1 X158.51 Y378.99;
G1 X158.31 Y379.18;
G1 X158.25 Y379.22;
G1 X157.96 Y379.38;
G1 X157.61 Y379.5;
G1 X157.21 Y379.57;
G1 X156.84 Y379.59;
G1 X154.27 Y379.68;
G1 X153.91 Y379.38;
G1 X153.69 Y379.15;
G1 X153.44 Y378.86;
G1 X153.33 Y378.69;
G1 X153.19 Y378.38;
G1 X153.15 Y378.24;
G1 X153.1 Y377.83;
G1 X153.1 Y377.78;
G1 X153.13 Y377.49;
G1 X153.24 Y377.23;
G1 X153.41 Y377.01;
G1 X153.63 Y376.81;
G1 X153.83 Y376.7;
G1 X154.21 Y376.55;
G1 X154.65 Y376.43;
G1 X155.15 Y376.36;
G1 X155.72 Y376.33;
G1 X155.86 Y376.33;
G1 X156.4 Y376.35;
G1 X156.87 Y376.41;
G1 X157.24 Y376.49;
G1 X157.63 Y376.63;
G1 X157.97 Y376.79;
G1 X158.13 Y376.91;
G1 X158.38 Y377.15;
G1 X158.58 Y377.41;
G1 X158.63 Y377.52;
G1 X158.74 Y377.84;
G1 X158.78 Y378.18;
G1 X158.78 Y378.24;
G1 X158.78 Y378.24;
S0;( end pass 1 of 1 )


( start pass 1 of 1 )
G0 X171.33 Y384.63;
S300;
G1 X171.3 Y384.36 F700;
G1 X171.22 Y384.15;
G1 X171.11 Y384.01;
G1 X170.92 Y383.9;
G1 X170.71 Y383.84;
G1 X170.62 Y383.84;
G1 X164.12 Y383.84;
G1 X164.14 Y383.23;
G1 X164.21 Y382.67;
G1 X164.28 Y382.35;
G1 X164.42 Y381.91;
G1 X164.62 Y381.52;
G1 X164.83 Y381.21;
G1 X165.13 Y380.91;
G1 X165.48 Y380.66;
G1 X165.84 Y380.49;
G1 X166.25 Y380.35;
G1 X166.72 Y380.27;
G1 X167.25 Y380.23;
G1 X167.35 Y380.23;
G1 X167.91 Y380.25;
G1 X168.42 Y380.31;
G1 X168.6 Y380.34;
G1 X169.08 Y380.46;
G1 X169.49 Y380.58;
G1 X169.55 Y380.61;
G1 X169.9 Y380.73;
G1 X170.17 Y380.84;
G1 X170.21 Y380.86;
G1 X170.43 Y380.95;
G1 X170.59 Y380.98;
G1 X170.61 Y380.98;
G1 X170.73 Y380.95;
G1 X170.74 Y380.94;
G1 X170.83 Y380.85;
G1 X170.84 Y380.83;
G1 X170.88 Y380.68;
G1 X170.89 Y380.61;
G1 X170.91 Y380.37;
G1 X170.91 Y380.28;
G1 X170.9 Y380.02;
G1 X170.86 Y379.84;
G1 X170.81 Y379.69;
G1 X170.71 Y379.56;
G1 X170.63 Y379.5;
G1 X170.48 Y379.42;
G1 X170.36 Y379.36;
G1 X170.04 Y379.24;
G1 X169.66 Y379.12;
G1 X169.58 Y379.1;
G1 X169.11 Y378.98;
G1 X168.58 Y378.88;
G1 X168.48 Y378.87;
G1 X167.83 Y378.78;
G1 X167.16 Y378.75;
G1 X166.48 Y378.78;
G1 X165.85 Y378.87;
G1 X165.28 Y379.01;
G1 X165.01 Y379.1;
G1 X164.51 Y379.32;
G1 X164.05 Y379.6;
G1 X163.65 Y379.93;
G1 X163.47 Y380.11;
G1 X163.13 Y380.52;
G1 X162.85 Y380.99;
G1 X162.61 Y381.52;
G1 X162.52 Y381.8;
G1 X162.36 Y382.41;
G1 X162.26 Y383.07;
G1 X162.19 Y383.79;
G1 X162.19 Y384.16;
G1 X162.22 Y384.87;
G1 X162.31 Y385.54;
G1 X162.44 Y386.16;
G1 X162.53 Y386.45;
G1 X162.74 Y387.01;
G1 X163.0 Y387.52;
G1 X163.31 Y387.98;
G1 X163.47 Y388.18;
G1 X163.86 Y388.56;
G1 X164.28 Y388.89;
G1 X164.74 Y389.16;
G1 X164.99 Y389.27;
G1 X165.51 Y389.46;
G1 X166.07 Y389.59;
G1 X166.66 Y389.65;
G1 X166.96 Y389.66;
G1 X167.55 Y389.63;
G1 X168.08 Y389.56;
G1 X168.57 Y389.43;
G1 X168.95 Y389.28;
G1 X169.44 Y389.02;
G1 X169.87 Y388.71;
G1 X170.24 Y388.34;
G1 X170.3 Y388.27;
G1 X170.61 Y387.85;
G1 X170.85 Y387.38;
G1 X171.05 Y386.87;
G1 X171.07 Y386.78;
G1 X171.22 Y386.18;
G1 X171.3 Y385.54;
G1 X171.33 Y384.96;
G1 X171.33 Y384.63;
S0;( end pass 1 of 1 )


( start pass 1 of 1 )
G0 X169.5 Y385.17;
S300;
G1 X169.48 Y385.71 F700;
G1 X169.41 Y386.2;
G1 X169.29 Y386.64;
G1 X169.12 Y387.04;
G1 X168.89 Y387.38;
G1 X168.86 Y387.42;
G1 X168.57 Y387.71;
G1 X168.24 Y387.93;
G1 X167.86 Y388.1;
G1 X167.42 Y388.2;
G1 X166.94 Y388.24;
G1 X166.88 Y388.24;
G1 X166.44 Y388.21;
G1 X166.03 Y388.11;
G1 X165.7 Y387.98;
G1 X165.34 Y387.76;
G1 X165.03 Y387.5;
G1 X164.86 Y387.31;
G1 X164.6 Y386.93;
G1 X164.39 Y386.51;
G1 X164.33 Y386.33;
G1 X164.19 Y385.81;
G1 X164.12 Y385.26;
G1 X164.12 Y385.17;
G1 X169.5 Y385.17;
S0;( end pass 1 of 1 )


( start pass 1 of 1 )
G0 X188.17 Y386.13;
S300;
G1 X188.15 Y385.12 F700;
G1 X188.07 Y384.17;
G1 X187.94 Y383.28;
G1 X187.91 Y383.13;
G1 X187.75 Y382.45;
G1 X187.55 Y381.82;
G1 X187.3 Y381.24;
G1 X187.05 Y380.79;
G1 X186.71 Y380.32;
G1 X186.33 Y379.9;
G1 X185.89 Y379.54;
G1 X185.48 Y379.28;
G1 X185.0 Y379.06;
G1 X184.46 Y378.9;
G1 X183.88 Y378.8;
G1 X183.24 Y378.76;
G1 X183.09 Y378.75;
G1 X182.48 Y378.78;
G1 X181.91 Y378.86;
G1 X181.39 Y378.99;
G1 X180.92 Y379.18;
G1 X180.82 Y379.23;
G1 X180.37 Y379.51;
G1 X179.96 Y379.85;
G1 X179.6 Y380.26;
G1 X179.34 Y380.64;
G1 X179.07 Y381.16;
G1 X178.84 Y381.73;
G1 X178.66 Y382.36;
G1 X178.54 Y382.93;
G1 X178.42 Y383.75;
G1 X178.35 Y384.63;
G1 X178.31 Y385.58;
G1 X178.3 Y386.06;
G1 X178.33 Y387.07;
G1 X178.41 Y388.01;
G1 X178.54 Y388.9;
G1 X178.57 Y389.05;
G1 X178.73 Y389.74;
G1 X178.93 Y390.37;
G1 X179.18 Y390.95;
G1 X179.43 Y391.39;
G1 X179.76 Y391.87;
G1 X180.15 Y392.29;
G1 X180.59 Y392.65;
G1 X180.99 Y392.9;
G1 X181.48 Y393.12;
G1 X182.01 Y393.29;
G1 X182.6 Y393.39;
G1 X183.23 Y393.44;
G1 X183.38 Y393.44;
G1 X183.99 Y393.41;
G1 X184.56 Y393.33;
G1 X185.08 Y393.19;
G1 X185.55 Y393.0;
G1 X185.65 Y392.95;
G1 X186.1 Y392.68;
G1 X186.51 Y392.33;
G1 X186.87 Y391.93;
G1 X187.14 Y391.54;
G1 X187.41 Y391.03;
G1 X187.63 Y390.46;
G1 X187.81 Y389.83;
G1 X187.93 Y389.25;
G1 X188.05 Y388.44;
G1 X188.13 Y387.56;
G1 X188.17 Y386.62;
G1 X188.17 Y386.13;
G1 X188.17 Y386.13;
S0;( end pass 1 of 1 )


( start pass 1 of 1 )
G0 X186.23 Y386.0;
S300;
G1 X186.22 Y386.78 F700;
G1 X186.19 Y387.5;
G1 X186.15 Y387.92;
G1 X186.08 Y388.59;
G1 X185.97 Y389.2;
G1 X185.92 Y389.42;
G1 X185.79 Y389.93;
G1 X185.61 Y390.37;
G1 X185.54 Y390.53;
G1 X185.33 Y390.9;
G1 X185.08 Y391.2;
G1 X184.97 Y391.3;
G1 X184.68 Y391.53;
G1 X184.35 Y391.69;
G1 X184.21 Y391.74;
G1 X183.8 Y391.84;
G1 X183.35 Y391.88;
G1 X183.27 Y391.88;
G1 X182.8 Y391.85;
G1 X182.39 Y391.77;
G1 X182.02 Y391.62;
G1 X181.74 Y391.44;
G1 X181.43 Y391.16;
G1 X181.15 Y390.83;
G1 X180.92 Y390.44;
G1 X180.82 Y390.23;
G1 X180.63 Y389.72;
G1 X180.48 Y389.15;
G1 X180.38 Y388.54;
G1 X180.37 Y388.42;
G1 X180.29 Y387.53;
G1 X180.25 Y386.58;
G1 X180.25 Y386.2;
G1 X180.26 Y385.4;
G1 X180.29 Y384.66;
G1 X180.35 Y383.99;
G1 X180.41 Y383.47;
G1 X180.52 Y382.87;
G1 X180.66 Y382.33;
G1 X180.83 Y381.86;
G1 X180.93 Y381.65;
G1 X181.15 Y381.28;
G1 X181.41 Y380.97;
G1 X181.69 Y380.73;
G1 X181.84 Y380.63;
G1 X182.22 Y380.46;
G1 X182.64 Y380.35;
G1 X183.11 Y380.31;
G1 X183.2 Y380.31;
G1 X183.65 Y380.34;
G1 X184.05 Y380.42;
G1 X184.28 Y380.51;
G1 X184.65 Y380.7;
G1 X184.97 Y380.96;
G1 X185.09 Y381.07;
G1 X185.37 Y381.45;
G1 X185.61 Y381.88;
G1 X185.65 Y381.96;
G1 X185.85 Y382.52;
G1 X186.0 Y383.11;
G1 X186.11 Y383.77;
G1 X186.18 Y384.47;
G1 X186.23 Y385.49;
G1 X186.23 Y386.0;
G1 X186.23 Y386.0;
S0;( end pass 1 of 1 )


( start pass 1 of 1 )
G0 X199.14 Y379.78;
S300;
G1 X199.12 Y379.49 F700;
G1 X199.11 Y379.43;
G1 X199.05 Y379.2;
G1 X199.03 Y379.16;
G1 X198.94 Y379.04;
G1 X198.9 Y379.01;
G1 X198.74 Y378.96;
G1 X198.72 Y378.96;
G1 X190.84 Y378.96;
G1 X190.59 Y378.99;
G1 X190.56 Y379.0;
G1 X190.38 Y379.11;
G1 X190.37 Y379.13;
G1 X190.28 Y379.28;
G1 X190.24 Y379.38;
G1 X190.22 Y379.64;
G1 X190.21 Y379.79;
G1 X190.22 Y380.11;
G1 X190.22 Y380.18;
G1 X190.28 Y380.42;
G1 X190.3 Y380.46;
G1 X190.43 Y380.72;
G1 X190.63 Y380.96;
G1 X190.65 Y380.99;
G1 X193.42 Y383.93;
G1 X193.94 Y384.49;
G1 X194.39 Y385.02;
G1 X194.78 Y385.51;
G1 X194.95 Y385.74;
G1 X195.32 Y386.29;
G1 X195.63 Y386.79;
G1 X195.84 Y387.21;
G1 X196.06 Y387.7;
G1 X196.2 Y388.15;
G1 X196.26 Y388.41;
G1 X196.34 Y388.99;
G1 X196.36 Y389.43;
G1 X196.33 Y389.85;
G1 X196.23 Y390.25;
G1 X196.21 Y390.32;
G1 X196.04 Y390.69;
G1 X195.8 Y391.02;
G1 X195.76 Y391.07;
G1 X195.49 Y391.31;
G1 X195.17 Y391.51;
G1 X195.03 Y391.58;
G1 X194.67 Y391.69;
G1 X194.28 Y391.75;
G1 X194.01 Y391.76;
G1 X193.52 Y391.74;
G1 X193.07 Y391.65;
G1 X192.8 Y391.58;
G1 X192.25 Y391.36;
G1 X191.86 Y391.17;
G1 X191.46 Y390.93;
G1 X191.19 Y390.76;
G1 X191.01 Y390.64;
G1 X190.87 Y390.58;
G1 X190.8 Y390.57;
G1 X190.67 Y390.61;
G1 X190.65 Y390.62;
G1 X190.57 Y390.73;
G1 X190.55 Y390.76;
G1 X190.51 Y390.94;
G1 X190.5 Y391.02;
G1 X190.48 Y391.31;
G1 X190.48 Y391.42;
G1 X190.49 Y391.68;
G1 X190.49 Y391.71;
G1 X190.52 Y391.92;
G1 X190.6 Y392.08;
G1 X190.68 Y392.19;
G1 X190.77 Y392.27;
G1 X190.92 Y392.39;
G1 X191.13 Y392.53;
G1 X191.23 Y392.59;
G1 X191.6 Y392.79;
G1 X192.04 Y392.98;
G1 X192.62 Y393.18;
G1 X193.12 Y393.31;
G1 X193.74 Y393.41;
G1 X194.37 Y393.44;
G1 X194.99 Y393.41;
G1 X195.57 Y393.32;
G1 X196.09 Y393.17;
G1 X196.18 Y393.14;
G1 X196.64 Y392.94;
G1 X197.05 Y392.69;
G1 X197.41 Y392.4;
G1 X197.47 Y392.35;
G1 X197.79 Y391.98;
G1 X198.06 Y391.56;
G1 X198.24 Y391.17;
G1 X198.39 Y390.64;
G1 X198.48 Y390.09;
G1 X198.49 Y389.74;
G1 X198.45 Y388.97;
G1 X198.37 Y388.37;
G1 X198.25 Y387.89;
G1 X198.07 Y387.38;
G1 X197.85 Y386.9;
G1 X197.57 Y386.39;
G1 X197.22 Y385.84;
G1 X196.81 Y385.25;
G1 X196.73 Y385.15;
G1 X196.31 Y384.63;
G1 X195.83 Y384.07;
G1 X195.28 Y383.47;
G1 X194.76 Y382.93;
G1 X192.5 Y380.57;
G1 X198.71 Y380.57;
G1 X198.85 Y380.54;
G1 X198.88 Y380.52;
G1 X198.99 Y380.42;
G1 X199.02 Y380.38;
G1 X199.09 Y380.2;
G1 X199.11 Y380.12;
G1 X199.14 Y379.88;
G1 X199.14 Y379.78;
G1 X199.14 Y379.78;
S0;( end pass 1 of 1 )

M5 S0;
( file end tmp/split/toy.Wood3mm.02.Engrave.svg)
( file start tmp/split/toy.Wood3mm.02.Cut.svg)
( speed:500, strength:950 codestyle='laserGRBL', passes:1 support:yes, {'support_gap': 1.0, 'support_strength': 0}' )
M3 S0;

S0;
S0;


( start pass 1 of 1 )
G0 X45.63 Y310.43;
S950;
G1 X47.5 Y310.89 F500;
G1 X49.4 Y311.3;
G1 X51.32 Y311.64;
G1 X53.26 Y311.91;
G1 X55.22 Y312.12;
G1 X57.19 Y312.26;
G1 X59.18 Y312.33;
G1 X61.17 Y312.33;
G1 X63.16 Y312.27;
G1 X65.15 Y312.14;
G1 X67.13 Y311.94;
G1 X69.09 Y311.68;
G1 X71.06 Y311.33;
G1 X73.01 Y310.93;
G1 X74.93 Y310.45;
G1 X76.83 Y309.89;
G1 X78.7 Y309.27;
G1 X80.37 Y308.64;
G1 X82.01 Y307.95;
G1 X83.61 Y307.2;
G1 X85.19 Y306.39;
G1 X86.72 Y305.52;
G1 X88.21 Y304.58;
G1 X89.66 Y303.6;
G1 X91.06 Y302.54;
G1 X92.29 Y301.52;
G1 X93.48 Y300.45;
G1 X94.62 Y299.33;
G1 X95.71 Y298.17;
G1 X96.76 Y296.94;
G1 X97.75 Y295.66;
G1 X98.69 Y294.33;
G1 X99.57 Y292.95;
G1 X100.31 Y291.64;
G1 X101.01 Y290.3;
G1 X101.66 Y288.89;
G1 X102.25 Y287.45;
G1 X102.61 Y286.51;
G1 X103.17 Y287.98;
G1 X103.78 Y289.39;
G1 X104.45 Y290.77;
G1 X105.16 Y292.11;
G1 X105.93 Y293.39;
G1 X106.74 Y294.64;
G1 X107.6 Y295.85;
(addedSwitchblock start)
S0;
G1 X108.51 Y297.0;
G1 X109.46 Y298.12;
(addedSwitchblock end)
S950;
G1 X110.45 Y299.19;
G1 X111.48 Y300.2;
G1 X112.55 Y301.19;
G1 X113.65 Y302.13;
G1 X114.79 Y303.02;
G1 X115.96 Y303.88;
G1 X117.17 Y304.7;
G1 X118.4 Y305.47;
G1 X119.66 Y306.19;
G1 X120.95 Y306.88;
G1 X122.27 Y307.52;
G1 X123.61 Y308.13;
G1 X124.97 Y308.69;
G1 X126.35 Y309.2;
G1 X127.75 Y309.69;
G1 X129.16 Y310.13;
G1 X130.59 Y310.52;
G1 X132.04 Y310.89;
G1 X133.5 Y311.2;
G1 X134.96 Y311.48;
G1 X136.44 Y311.72;
G1 X137.91 Y311.92;
G1 X139.41 Y312.08;
G1 X140.9 Y312.2;
G1 X142.4 Y312.29;
G1 X143.9 Y312.33;
G1 X145.38 Y312.33;
G1 X146.88 Y312.31;
G1 X148.37 Y312.24;
G1 X149.85 Y312.13;
G1 X151.33 Y311.98;
G1 X152.79 Y311.8;
G1 X154.25 Y311.58;
G1 X155.69 Y311.32;
G1 X157.12 Y311.02;
G1 X158.53 Y310.7;
G1 X159.59 Y310.43;
G1 X161.69 Y309.41;
G1 X163.72 Y308.38;
G1 X165.71 Y307.32;
G1 X167.63 Y306.24;
G1 X169.48 Y305.14;
G1 X171.27 Y304.01;
G1 X173.01 Y302.86;
G1 X174.68 Y301.69;
G1 X176.29 Y300.5;
G1 X177.85 Y299.29;
G1 X179.35 Y298.06;
G1 X180.79 Y296.81;
G1 X182.17 Y295.54;
G1 X183.49 Y294.25;
G1 X184.76 Y292.94;
G1 X185.98 Y291.61;
G1 X187.14 Y290.26;
G1 X188.24 Y288.89;
G1 X189.29 Y287.52;
G1 X190.29 Y286.12;
G1 X191.24 Y284.7;
G1 X192.13 Y283.27;
G1 X192.97 Y281.83;
G1 X193.76 Y280.38;
G1 X194.5 Y278.89;
G1 X195.2 Y277.41;
G1 X195.84 Y275.91;
G1 X196.43 Y274.39;
G1 X196.98 Y272.86;
G1 X197.47 Y271.32;
G1 X197.92 Y269.76;
G1 X198.33 Y268.19;
G1 X198.69 Y266.61;
G1 X199.0 Y265.02;
G1 X199.27 Y263.42;
G1 X199.49 Y261.8;
G1 X199.67 Y260.18;
G1 X199.81 Y258.54;
G1 X199.9 Y256.89;
G1 X199.95 Y255.25;
G1 X199.97 Y253.59;
G1 X199.94 Y251.92;
G1 X199.87 Y250.24;
G1 X199.76 Y248.55;
G1 X199.61 Y246.86;
G1 X199.42 Y245.16;
G1 X199.2 Y243.46;
G1 X198.93 Y241.74;
G1 X198.63 Y240.03;
G1 X198.3 Y238.3;
G1 X197.93 Y236.58;
G1 X197.52 Y234.84;
G1 X197.08 Y233.11;
G1 X196.6 Y231.37;
G1 X196.09 Y229.62;
G1 X195.55 Y227.88;
G1 X194.98 Y226.13;
G1 X194.37 Y224.38;
G1 X193.73 Y222.62;
G1 X193.06 Y220.87;
G1 X192.36 Y219.11;
G1 X191.64 Y217.36;
G1 X190.88 Y215.6;
G1 X190.09 Y213.84;
G1 X189.28 Y212.09;
G1 X188.44 Y210.33;
G1 X187.57 Y208.58;
G1 X186.68 Y206.82;
G1 X185.76 Y205.07;
G1 X184.81 Y203.33;
G1 X183.84 Y201.58;
G1 X182.85 Y199.84;
G1 X181.83 Y198.1;
G1 X180.79 Y196.36;
G1 X179.73 Y194.63;
G1 X178.65 Y192.91;
G1 X177.54 Y191.19;
G1 X176.42 Y189.47;
G1 X175.27 Y187.76;
G1 X174.11 Y186.06;
G1 X172.92 Y184.36;
G1 X171.72 Y182.67;
G1 X170.5 Y180.99;
G1 X169.26 Y179.32;
G1 X168.01 Y177.65;
G1 X166.74 Y175.99;
G1 X165.45 Y174.34;
G1 X164.15 Y172.7;
G1 X162.83 Y171.07;
G1 X161.5 Y169.45;
G1 X160.16 Y167.84;
G1 X158.81 Y166.24;
G1 X157.44 Y164.66;
G1 X156.06 Y163.08;
G1 X154.66 Y161.52;
G1 X153.27 Y159.97;
G1 X151.86 Y158.43;
G1 X150.44 Y156.9;
G1 X149.01 Y155.38;
G1 X147.57 Y153.88;
G1 X146.12 Y152.41;
G1 X144.66 Y150.94;
G1 X143.21 Y149.47;
G1 X141.75 Y148.05;
G1 X140.28 Y146.62;
G1 X138.8 Y145.22;
G1 X137.32 Y143.83;
G1 X135.84 Y142.44;
G1 X134.35 Y141.1;
G1 X132.86 Y139.76;
G1 X131.37 Y138.44;
G1 X129.88 Y137.13;
G1 X128.38 Y135.86;
G1 X126.89 Y134.59;
G1 X125.39 Y133.35;
G1 X123.9 Y132.12;
G1 X122.41 Y130.91;
G1 X120.91 Y129.74;
G1 X119.43 Y128.58;
G1 X117.94 Y127.44;
G1 X116.46 Y126.32;
G1 X114.98 Y125.23;
G1 X113.51 Y124.15;
G1 X112.04 Y123.1;
G1 X110.58 Y122.08;
G1 X109.12 Y121.08;
G1 X107.67 Y120.1;
G1 X106.23 Y119.15;
G1 X104.8 Y118.22;
G1 X103.37 Y117.32;
G1 X102.61 Y116.84;
G1 X100.32 Y118.29;
G1 X98.0 Y119.8;
G1 X95.67 Y121.37;
G1 X93.32 Y123.01;
G1 X90.95 Y124.7;
G1 X88.57 Y126.46;
G1 X86.18 Y128.28;
G1 X83.78 Y130.15;
G1 X81.38 Y132.07;
G1 X78.98 Y134.05;
G1 X76.56 Y136.08;
G1 X74.16 Y138.16;
G1 X71.76 Y140.29;
G1 X69.36 Y142.47;
G1 X66.98 Y144.69;
G1 X64.59 Y146.94;
G1 X62.24 Y149.26;
G1 X59.89 Y151.6;
G1 X57.56 Y153.99;
G1 X55.25 Y156.41;
G1 X52.96 Y158.86;
G1 X50.7 Y161.35;
G1 X48.46 Y163.88;
G1 X46.25 Y166.43;
G1 X44.08 Y169.01;
G1 X41.94 Y171.62;
G1 X39.84 Y174.26;
G1 X37.77 Y176.91;
G1 X35.75 Y179.6;
G1 X33.77 Y182.3;
G1 X31.83 Y185.02;
G1 X29.95 Y187.76;
G1 X28.11 Y190.52;
G1 X26.33 Y193.29;
G1 X24.6 Y196.07;
G1 X22.93 Y198.87;
G1 X21.32 Y201.67;
G1 X19.78 Y204.48;
G1 X18.29 Y207.3;
G1 X16.88 Y210.13;
G1 X15.53 Y212.95;
G1 X14.26 Y215.78;
G1 X13.06 Y218.61;
G1 X11.93 Y221.44;
G1 X10.89 Y224.26;
G1 X10.01 Y226.83;
G1 X9.19 Y229.39;
G1 X8.46 Y231.94;
G1 X7.79 Y234.48;
G1 X7.19 Y237.02;
G1 X6.67 Y239.55;
G1 X6.23 Y242.06;
G1 X5.9 Y244.34;
G1 X5.64 Y246.6;
G1 X5.44 Y248.85;
G1 X5.31 Y251.09;
G1 X5.25 Y253.32;
G1 X5.27 Y255.53;
G1 X5.36 Y257.73;
G1 X5.52 Y259.91;
G1 X5.76 Y262.07;
G1 X6.05 Y264.02;
G1 X6.4 Y265.95;
G1 X6.81 Y267.87;
G1 X7.3 Y269.77;
G1 X7.85 Y271.64;
G1 X8.47 Y273.51;
G1 X9.16 Y275.35;
G1 X9.92 Y277.18;
G1 X10.75 Y278.98;
G1 X11.66 Y280.76;
G1 X12.64 Y282.52;
G1 X13.69 Y284.26;
G1 X14.72 Y285.82;
G1 X15.81 Y287.36;
G1 X16.96 Y288.88;
G1 X18.18 Y290.38;
G1 X19.46 Y291.85;
G1 X20.81 Y293.31;
G1 X22.23 Y294.74;
G1 X23.71 Y296.14;
G1 X25.27 Y297.54;
G1 X26.89 Y298.89;
G1 X28.58 Y300.24;
G1 X30.35 Y301.55;
G1 X32.18 Y302.83;
G1 X34.09 Y304.1;
G1 X36.07 Y305.33;
G1 X38.13 Y306.55;
G1 X40.06 Y307.62;
G1 X42.06 Y308.68;
G1 X44.12 Y309.7;
G1 X45.63 Y310.43;
G1 X45.63 Y310.43;
S0;
( end pass 1 of 1 )

M5 S0;
( file end tmp/split/toy.Wood3mm.02.Cut.svg)
