( file start tmp/split/toy.Wood3mm.01.Engrave.svg)
( speed:700, strength:300 codestyle='laserGRBL', passes:1 support:no )
M3 S0;

S0;
S0;


( start pass 1 of 1 )
G0 X68.52 Y49.75;
S300;
G1 X68.2 Y49.78 F700;
G1 X67.95 Y49.87;
G1 X67.73 Y50.01;
G1 X67.56 Y50.18;
G1 X67.44 Y50.39;
G1 X67.38 Y50.61;
G1 X67.37 Y50.85;
G1 X67.41 Y51.09;
G1 X67.51 Y51.33;
G1 X67.67 Y51.55;
G1 X67.88 Y51.75;
G1 X68.16 Y51.92;
G1 X68.17 Y51.92;
G1 X68.44 Y52.09;
G1 X68.68 Y52.32;
G1 X68.9 Y52.61;
G1 X69.06 Y52.95;
G1 X69.23 Y53.35;
G1 X69.37 Y53.82;
G1 X69.5 Y54.37;
G1 X69.59 Y54.94;
G1 X69.69 Y55.52;
G1 X69.84 Y56.49;
G1 X70.01 Y57.23;
G1 X70.16 Y57.78;
G1 X70.3 Y58.21;
G1 X70.43 Y58.53;
G1 X70.56 Y58.78;
G1 X70.67 Y58.93;
G1 X70.73 Y58.99;
G1 X70.9 Y59.06;
G1 X71.02 Y59.08;
G1 X71.11 Y59.03;
G1 X71.15 Y58.93;
G1 X71.16 Y58.79;
G1 X71.12 Y58.6;
G1 X71.11 Y58.56;
G1 X71.05 Y58.3;
G1 X71.06 Y58.08;
G1 X71.15 Y57.9;
G1 X71.27 Y57.79;
G1 X71.43 Y57.74;
G1 X71.48 Y57.73;
G1 X71.68 Y57.75;
G1 X71.81 Y57.81;
G1 X71.89 Y57.92;
G1 X71.9 Y58.07;
G1 X71.87 Y58.26;
G1 X71.8 Y58.51;
G1 X71.67 Y58.81;
G1 X71.65 Y58.87;
G1 X71.4 Y59.33;
G1 X71.19 Y59.65;
G1 X70.98 Y59.86;
G1 X70.84 Y59.97;
G1 X70.7 Y60.02;
G1 X70.7 Y60.02;
G1 X70.54 Y59.98;
G1 X70.38 Y59.87;
G1 X70.2 Y59.71;
G1 X70.03 Y59.5;
G1 X69.87 Y59.25;
G1 X69.7 Y58.97;
G1 X69.56 Y58.67;
G1 X69.45 Y58.37;
G1 X69.34 Y58.07;
G1 X69.29 Y57.78;
G1 X69.25 Y57.52;
G1 X69.26 Y57.28;
G1 X69.3 Y57.09;
G1 X69.31 Y57.05;
G1 X69.38 Y56.89;
G1 X69.39 Y56.78;
G1 X69.33 Y56.7;
G1 X69.23 Y56.67;
G1 X69.06 Y56.7;
G1 X68.95 Y56.74;
G1 X68.78 Y56.78;
G1 X68.63 Y56.74;
G1 X68.51 Y56.64;
G1 X68.42 Y56.49;
G1 X68.38 Y56.28;
G1 X68.37 Y56.03;
G1 X68.38 Y55.98;
G1 X68.38 Y55.73;
G1 X68.34 Y55.54;
G1 X68.26 Y55.4;
G1 X68.13 Y55.31;
G1 X67.95 Y55.27;
G1 X67.7 Y55.27;
G1 X67.43 Y55.33;
G1 X67.08 Y55.43;
G1 X67.0 Y55.46;
G1 X66.56 Y55.62;
G1 X66.18 Y55.78;
G1 X65.88 Y55.92;
G1 X65.64 Y56.05;
G1 X65.47 Y56.17;
G1 X65.38 Y56.28;
G1 X65.34 Y56.37;
G1 X65.39 Y56.45;
G1 X65.51 Y56.51;
G1 X65.69 Y56.56;
G1 X65.95 Y56.58;
G1 X66.28 Y56.59;
G1 X66.3 Y56.59;
G1 X66.56 Y56.63;
G1 X66.81 Y56.74;
G1 X67.09 Y56.92;
G1 X67.34 Y57.17;
G1 X67.61 Y57.5;
G1 X67.88 Y57.91;
G1 X68.15 Y58.4;
G1 X68.4 Y58.91;
G1 X68.65 Y59.49;
G1 X68.72 Y59.65;
G1 X68.94 Y60.19;
G1 X69.13 Y60.68;
G1 X69.3 Y61.12;
G1 X69.43 Y61.54;
G1 X69.54 Y61.94;
G1 X69.62 Y62.33;
G1 X69.68 Y62.74;
G1 X69.7 Y63.17;
G1 X69.72 Y63.64;
G1 X69.7 Y64.16;
G1 X69.66 Y64.73;
G1 X69.61 Y65.33;
G1 X69.53 Y65.98;
G1 X69.45 Y66.66;
G1 X69.36 Y67.34;
G1 X69.26 Y68.09;
G1 X69.15 Y68.91;
G1 X69.12 Y69.06;
G1 X69.06 Y69.51;
G1 X69.06 Y69.89;
G1 X69.06 Y70.2;
G1 X69.12 Y70.45;
G1 X69.2 Y70.65;
G1 X69.31 Y70.78;
G1 X69.45 Y70.84;
G1 X69.54 Y70.84;
G1 X69.67 Y70.81;
G1 X69.8 Y70.7;
G1 X69.91 Y70.52;
G1 X70.01 Y70.27;
G1 X70.09 Y69.97;
G1 X70.15 Y69.61;
G1 X70.19 Y69.2;
G1 X70.2 Y68.75;
G1 X70.2 Y68.64;
G1 X70.22 Y67.7;
G1 X70.23 Y66.84;
G1 X70.27 Y66.05;
G1 X70.31 Y65.31;
G1 X70.37 Y64.62;
G1 X70.44 Y63.99;
G1 X70.52 Y63.4;
G1 X70.62 Y62.86;
G1 X70.73 Y62.37;
G1 X70.86 Y61.91;
G1 X71.0 Y61.49;
G1 X71.16 Y61.1;
G1 X71.34 Y60.75;
G1 X71.53 Y60.42;
G1 X71.75 Y60.11;
G1 X71.98 Y59.82;
G1 X71.98 Y59.81;
G1 X72.39 Y59.39;
G1 X72.76 Y59.03;
G1 X73.06 Y58.77;
G1 X73.34 Y58.57;
G1 X73.61 Y58.44;
G1 X73.83 Y58.37;
G1 X74.02 Y58.36;
G1 X74.18 Y58.41;
G1 X74.31 Y58.53;
G1 X74.4 Y58.71;
G1 X74.45 Y58.95;
G1 X74.47 Y59.21;
G1 X74.45 Y59.42;
G1 X74.39 Y59.57;
G1 X74.31 Y59.66;
G1 X74.2 Y59.69;
G1 X74.06 Y59.64;
G1 X73.92 Y59.53;
G1 X73.89 Y59.5;
G1 X73.81 Y59.43;
G1 X73.76 Y59.41;
G1 X73.73 Y59.46;
G1 X73.75 Y59.55;
G1 X73.79 Y59.69;
G1 X73.86 Y59.88;
G1 X73.95 Y60.11;
G1 X74.06 Y60.38;
G1 X74.2 Y60.68;
G1 X74.34 Y61.0;
G1 X74.58 Y61.54;
G1 X74.78 Y62.13;
G1 X74.95 Y62.78;
G1 X75.09 Y63.47;
G1 X75.22 Y64.2;
G1 X75.31 Y64.94;
G1 X75.37 Y65.69;
G1 X75.41 Y66.45;
G1 X75.41 Y67.19;
G1 X75.38 Y67.92;
G1 X75.31 Y68.61;
G1 X75.23 Y69.26;
G1 X75.12 Y69.86;
G1 X74.98 Y70.39;
G1 X74.81 Y70.81;
G1 X74.63 Y71.17;
G1 X74.58 Y71.23;
G1 X74.4 Y71.51;
G1 X74.25 Y71.72;
G1 X74.13 Y71.87;
G1 X74.06 Y71.95;
G1 X74.01 Y71.98;
G1 X74.01 Y71.95;
G1 X74.03 Y71.84;
G1 X74.09 Y71.68;
G1 X74.19 Y71.44;
G1 X74.31 Y71.12;
G1 X74.47 Y70.75;
G1 X74.62 Y70.38;
G1 X74.73 Y70.08;
G1 X74.83 Y69.84;
G1 X74.89 Y69.66;
G1 X74.92 Y69.53;
G1 X74.92 Y69.45;
G1 X74.89 Y69.44;
G1 X74.83 Y69.47;
G1 X74.73 Y69.55;
G1 X74.61 Y69.67;
G1 X74.47 Y69.81;
G1 X74.09 Y70.22;
G1 X73.78 Y70.56;
G1 X73.51 Y70.9;
G1 X73.3 Y71.2;
G1 X73.13 Y71.48;
G1 X73.02 Y71.75;
G1 X72.94 Y72.01;
G1 X72.92 Y72.27;
G1 X72.93 Y72.54;
G1 X72.98 Y72.83;
G1 X73.08 Y73.14;
G1 X73.2 Y73.47;
G1 X73.37 Y73.84;
G1 X73.42 Y73.94;
G1 X73.59 Y74.33;
G1 X73.75 Y74.65;
G1 X73.86 Y74.9;
G1 X73.94 Y75.09;
G1 X73.98 Y75.2;
G1 X73.98 Y75.28;
G1 X73.94 Y75.29;
G1 X73.86 Y75.25;
G1 X73.73 Y75.15;
G1 X73.56 Y75.0;
G1 X73.36 Y74.8;
G1 X73.09 Y74.55;
G1 X73.09 Y74.54;
G1 X72.83 Y74.29;
G1 X72.62 Y74.09;
G1 X72.45 Y73.94;
G1 X72.33 Y73.84;
G1 X72.25 Y73.81;
G1 X72.2 Y73.84;
G1 X72.2 Y73.91;
G1 X72.23 Y74.05;
G1 X72.31 Y74.23;
G1 X72.42 Y74.48;
G1 X72.54 Y74.78;
G1 X72.69 Y75.12;
G1 X72.78 Y75.39;
G1 X72.83 Y75.59;
G1 X72.83 Y75.75;
G1 X72.77 Y75.86;
G1 X72.66 Y75.92;
G1 X72.47 Y75.93;
G1 X72.22 Y75.91;
G1 X71.93 Y75.86;
G1 X71.56 Y75.78;
G1 X71.51 Y75.77;
G1 X71.08 Y75.7;
G1 X70.73 Y75.69;
G1 X70.42 Y75.73;
G1 X70.18 Y75.81;
G1 X70.01 Y75.93;
G1 X69.91 Y76.08;
G1 X69.87 Y76.25;
G1 X69.86 Y76.52;
G1 X69.81 Y76.72;
G1 X69.75 Y76.87;
G1 X69.66 Y76.95;
G1 X69.55 Y77.0;
G1 X69.43 Y76.98;
G1 X69.29 Y76.94;
G1 X69.13 Y76.84;
G1 X68.97 Y76.7;
G1 X68.81 Y76.54;
G1 X68.64 Y76.34;
G1 X68.47 Y76.09;
G1 X68.3 Y75.84;
G1 X68.14 Y75.55;
G1 X67.98 Y75.23;
G1 X67.84 Y74.91;
G1 X67.7 Y74.56;
G1 X67.59 Y74.2;
G1 X67.48 Y73.83;
G1 X67.45 Y73.68;
G1 X67.4 Y73.41;
G1 X67.34 Y73.22;
G1 X67.3 Y73.09;
G1 X67.26 Y73.06;
G1 X67.23 Y73.09;
G1 X67.2 Y73.22;
G1 X67.18 Y73.4;
G1 X67.17 Y73.64;
G1 X67.16 Y73.95;
G1 X67.15 Y74.06;
G1 X67.15 Y74.45;
G1 X67.14 Y74.76;
G1 X67.12 Y75.0;
G1 X67.09 Y75.17;
G1 X67.08 Y75.27;
G1 X67.04 Y75.31;
G1 X66.98 Y75.27;
G1 X66.93 Y75.17;
G1 X66.84 Y75.01;
G1 X66.73 Y74.77;
G1 X66.62 Y74.47;
G1 X66.47 Y74.09;
G1 X66.47 Y74.08;
G1 X66.29 Y73.67;
G1 X66.12 Y73.38;
G1 X65.95 Y73.15;
G1 X65.8 Y73.02;
G1 X65.67 Y72.97;
G1 X65.56 Y72.98;
G1 X65.47 Y73.06;
G1 X65.45 Y73.09;
G1 X65.34 Y73.37;
G1 X65.29 Y73.68;
G1 X65.29 Y74.01;
G1 X65.34 Y74.37;
G1 X65.42 Y74.73;
G1 X65.55 Y75.08;
G1 X65.7 Y75.43;
G1 X65.88 Y75.73;
G1 X66.08 Y76.03;
G1 X66.29 Y76.27;
G1 X66.52 Y76.45;
G1 X66.76 Y76.58;
G1 X66.98 Y76.62;
G1 X67.06 Y76.62;
G1 X67.36 Y76.64;
G1 X67.63 Y76.7;
G1 X67.84 Y76.84;
G1 X67.97 Y77.01;
G1 X68.03 Y77.2;
G1 X68.04 Y77.26;
G1 X68.02 Y77.52;
G1 X67.95 Y77.73;
G1 X67.86 Y77.88;
G1 X67.73 Y77.98;
G1 X67.58 Y78.05;
G1 X67.4 Y78.05;
G1 X67.2 Y78.02;
G1 X66.98 Y77.94;
G1 X66.75 Y77.83;
G1 X66.51 Y77.67;
G1 X66.26 Y77.48;
G1 X66.01 Y77.25;
G1 X65.75 Y76.98;
G1 X65.5 Y76.7;
G1 X65.26 Y76.38;
G1 X65.02 Y76.03;
G1 X64.8 Y75.66;
G1 X64.67 Y75.41;
G1 X64.31 Y74.76;
G1 X64.01 Y74.23;
G1 X63.72 Y73.79;
G1 X63.47 Y73.45;
G1 X63.25 Y73.18;
G1 X63.05 Y72.97;
G1 X62.9 Y72.84;
G1 X62.77 Y72.8;
G1 X62.68 Y72.81;
G1 X62.63 Y72.89;
G1 X62.62 Y73.03;
G1 X62.64 Y73.23;
G1 X62.7 Y73.5;
G1 X62.8 Y73.83;
G1 X62.87 Y74.08;
G1 X62.91 Y74.26;
G1 X62.9 Y74.38;
G1 X62.86 Y74.42;
G1 X62.8 Y74.4;
G1 X62.7 Y74.31;
G1 X62.64 Y74.26;
G1 X62.54 Y74.09;
G1 X62.46 Y73.88;
G1 X62.39 Y73.62;
G1 X62.35 Y73.31;
G1 X62.33 Y72.98;
G1 X62.33 Y72.64;
G1 X62.35 Y72.29;
G1 X62.37 Y72.12;
G1 X62.41 Y71.68;
G1 X62.4 Y71.29;
G1 X62.33 Y70.93;
G1 X62.21 Y70.61;
G1 X62.02 Y70.3;
G1 X61.78 Y70.02;
G1 X61.47 Y69.75;
G1 X61.3 Y69.62;
G1 X60.63 Y69.19;
G1 X59.92 Y68.81;
G1 X59.2 Y68.48;
G1 X58.57 Y68.26;
G1 X58.05 Y68.11;
G1 X57.62 Y68.03;
G1 X57.29 Y67.98;
G1 X57.04 Y68.0;
G1 X56.85 Y68.05;
G1 X56.75 Y68.13;
G1 X56.71 Y68.25;
G1 X56.73 Y68.4;
G1 X56.82 Y68.56;
G1 X56.97 Y68.73;
G1 X57.19 Y68.91;
G1 X57.45 Y69.08;
G1 X57.76 Y69.25;
G1 X58.1 Y69.4;
G1 X58.47 Y69.54;
G1 X58.85 Y69.66;
G1 X58.94 Y69.68;
G1 X59.5 Y69.84;
G1 X60.01 Y70.08;
G1 X60.41 Y70.31;
G1 X60.71 Y70.55;
G1 X60.91 Y70.77;
G1 X61.02 Y70.95;
G1 X61.06 Y71.08;
G1 X61.13 Y71.31;
G1 X61.23 Y71.48;
G1 X61.36 Y71.58;
G1 X61.49 Y71.59;
G1 X61.63 Y71.54;
G1 X61.76 Y71.44;
G1 X61.89 Y71.31;
G1 X61.98 Y71.25;
G1 X62.03 Y71.23;
G1 X62.03 Y71.3;
G1 X62.0 Y71.42;
G1 X61.93 Y71.59;
G1 X61.81 Y71.84;
G1 X61.74 Y72.0;
G1 X61.59 Y72.38;
G1 X61.51 Y72.73;
G1 X61.5 Y73.13;
G1 X61.56 Y73.53;
G1 X61.66 Y73.94;
G1 X61.8 Y74.34;
G1 X61.98 Y74.83;
G1 X62.19 Y75.31;
G1 X62.35 Y75.68;
G1 X62.68 Y76.48;
G1 X62.93 Y77.3;
G1 X63.11 Y78.09;
G1 X63.22 Y78.91;
G1 X63.26 Y79.7;
G1 X63.22 Y80.51;
G1 X63.11 Y81.3;
G1 X62.92 Y82.09;
G1 X62.66 Y82.88;
G1 X62.33 Y83.65;
G1 X61.95 Y84.39;
G1 X61.76 Y84.71;
G1 X61.61 Y84.97;
G1 X61.49 Y85.16;
G1 X61.4 Y85.28;
G1 X61.35 Y85.33;
G1 X61.33 Y85.31;
G1 X61.34 Y85.23;
G1 X61.39 Y85.08;
G1 X61.47 Y84.86;
G1 X61.58 Y84.59;
G1 X61.67 Y84.33;
G1 X61.75 Y84.01;
G1 X61.84 Y83.63;
G1 X61.92 Y83.2;
G1 X61.99 Y82.74;
G1 X62.05 Y82.24;
G1 X62.11 Y81.72;
G1 X62.16 Y81.19;
G1 X62.19 Y80.65;
G1 X62.22 Y80.09;
G1 X62.23 Y79.59;
G1 X62.24 Y78.91;
G1 X62.23 Y78.29;
G1 X62.2 Y77.73;
G1 X62.16 Y77.22;
G1 X62.09 Y76.73;
G1 X62.0 Y76.3;
G1 X61.88 Y75.87;
G1 X61.73 Y75.45;
G1 X61.55 Y75.03;
G1 X61.34 Y74.59;
G1 X61.09 Y74.14;
G1 X60.8 Y73.64;
G1 X60.79 Y73.62;
G1 X60.43 Y73.05;
G1 X60.06 Y72.56;
G1 X59.69 Y72.14;
G1 X59.31 Y71.8;
G1 X58.93 Y71.54;
G1 X58.52 Y71.34;
G1 X58.11 Y71.23;
G1 X57.67 Y71.2;
G1 X57.21 Y71.23;
G1 X56.77 Y71.33;
G1 X56.31 Y71.5;
G1 X55.82 Y71.72;
G1 X55.31 Y72.01;
G1 X54.77 Y72.36;
G1 X54.19 Y72.77;
G1 X53.58 Y73.25;
G1 X53.11 Y73.64;
G1 X52.62 Y74.04;
G1 X52.17 Y74.39;
G1 X51.77 Y74.7;
G1 X51.4 Y74.95;
G1 X51.07 Y75.15;
G1 X50.79 Y75.3;
G1 X50.54 Y75.41;
G1 X50.32 Y75.45;
G1 X50.14 Y75.45;
G1 X50.0 Y75.42;
G1 X49.9 Y75.33;
G1 X49.82 Y75.19;
G1 X49.82 Y75.18;
G1 X49.75 Y74.84;
G1 X49.75 Y74.51;
G1 X49.81 Y74.23;
G1 X49.91 Y74.03;
G1 X50.05 Y73.89;
G1 X50.07 Y73.88;
G1 X50.22 Y73.73;
G1 X50.31 Y73.56;
G1 X50.35 Y73.33;
G1 X50.34 Y73.06;
G1 X50.29 Y72.75;
G1 X50.2 Y72.4;
G1 X50.08 Y71.98;
G1 X49.92 Y71.52;
G1 X49.91 Y71.47;
G1 X49.75 Y71.02;
G1 X49.62 Y70.62;
G1 X49.53 Y70.29;
G1 X49.48 Y69.98;
G1 X49.46 Y69.72;
G1 X49.49 Y69.47;
G1 X49.56 Y69.23;
G1 X49.68 Y68.98;
G1 X49.85 Y68.73;
G1 X50.07 Y68.44;
G1 X50.34 Y68.11;
G1 X50.64 Y67.77;
G1 X50.69 Y67.7;
G1 X51.2 Y67.19;
G1 X51.7 Y66.76;
G1 X52.15 Y66.44;
G1 X52.54 Y66.22;
G1 X52.86 Y66.08;
G1 X53.11 Y66.01;
G1 X53.22 Y66.0;
G1 X53.52 Y65.97;
G1 X53.78 Y65.88;
G1 X53.99 Y65.73;
G1 X54.15 Y65.56;
G1 X54.24 Y65.34;
G1 X54.26 Y65.2;
G1 X54.22 Y64.98;
G1 X54.12 Y64.76;
G1 X53.97 Y64.54;
G1 X53.77 Y64.34;
G1 X53.54 Y64.16;
G1 X53.27 Y64.02;
G1 X53.22 Y64.0;
G1 X53.05 Y63.93;
G1 X52.95 Y63.86;
G1 X52.91 Y63.8;
G1 X52.95 Y63.76;
G1 X53.04 Y63.73;
G1 X53.2 Y63.71;
G1 X53.42 Y63.71;
G1 X53.69 Y63.72;
G1 X53.76 Y63.73;
G1 X54.18 Y63.8;
G1 X54.57 Y63.95;
G1 X54.91 Y64.15;
G1 X55.2 Y64.4;
G1 X55.39 Y64.65;
G1 X55.52 Y64.93;
G1 X55.55 Y65.05;
G1 X55.59 Y65.34;
G1 X55.59 Y65.56;
G1 X55.57 Y65.7;
G1 X55.52 Y65.79;
G1 X55.45 Y65.81;
G1 X55.34 Y65.73;
G1 X55.24 Y65.64;
G1 X55.09 Y65.48;
G1 X54.96 Y65.41;
G1 X54.87 Y65.4;
G1 X54.8 Y65.45;
G1 X54.76 Y65.56;
G1 X54.74 Y65.73;
G1 X54.74 Y65.94;
G1 X54.78 Y66.2;
G1 X54.83 Y66.5;
G1 X54.92 Y66.84;
G1 X55.03 Y67.22;
G1 X55.16 Y67.62;
G1 X55.31 Y68.05;
G1 X55.36 Y68.16;
G1 X55.49 Y68.5;
G1 X55.61 Y68.78;
G1 X55.71 Y68.98;
G1 X55.78 Y69.11;
G1 X55.84 Y69.16;
G1 X55.88 Y69.14;
G1 X55.91 Y69.06;
G1 X55.93 Y68.9;
G1 X55.94 Y68.67;
G1 X55.95 Y68.37;
G1 X55.95 Y67.98;
G1 X55.94 Y67.56;
G1 X55.92 Y67.09;
G1 X55.92 Y67.06;
G1 X55.89 Y66.33;
G1 X55.84 Y65.67;
G1 X55.77 Y65.08;
G1 X55.68 Y64.55;
G1 X55.56 Y64.09;
G1 X55.42 Y63.7;
G1 X55.24 Y63.36;
G1 X55.04 Y63.08;
G1 X54.81 Y62.85;
G1 X54.54 Y62.67;
G1 X54.24 Y62.54;
G1 X53.9 Y62.45;
G1 X53.52 Y62.4;
G1 X53.42 Y62.4;
G1 X53.05 Y62.35;
G1 X52.75 Y62.25;
G1 X52.5 Y62.12;
G1 X52.35 Y61.96;
G1 X52.26 Y61.78;
G1 X52.25 Y61.59;
G1 X52.27 Y61.48;
G1 X52.32 Y61.27;
G1 X52.32 Y61.12;
G1 X52.28 Y61.02;
G1 X52.2 Y60.98;
G1 X52.08 Y60.99;
G1 X51.92 Y61.07;
G1 X51.91 Y61.08;
G1 X51.72 Y61.25;
G1 X51.56 Y61.48;
G1 X51.44 Y61.73;
G1 X51.37 Y62.0;
G1 X51.35 Y62.27;
G1 X51.36 Y62.3;
G1 X51.34 Y62.52;
G1 X51.25 Y62.73;
G1 X51.11 Y62.92;
G1 X50.91 Y63.07;
G1 X50.67 Y63.18;
G1 X50.5 Y63.21;
G1 X50.2 Y63.25;
G1 X50.0 Y63.27;
G1 X49.85 Y63.26;
G1 X49.79 Y63.2;
G1 X49.78 Y63.12;
G1 X49.83 Y62.98;
G1 X49.93 Y62.81;
G1 X50.07 Y62.6;
G1 X50.27 Y62.32;
G1 X50.5 Y62.02;
G1 X50.78 Y61.67;
G1 X51.11 Y61.25;
G1 X51.46 Y60.82;
G1 X51.68 Y60.54;
G1 X52.03 Y60.1;
G1 X52.32 Y59.71;
G1 X52.57 Y59.37;
G1 X52.76 Y59.07;
G1 X52.9 Y58.83;
G1 X53.0 Y58.64;
G1 X53.06 Y58.5;
G1 X53.07 Y58.4;
G1 X53.04 Y58.36;
G1 X52.96 Y58.36;
G1 X52.85 Y58.42;
G1 X52.7 Y58.52;
G1 X52.51 Y58.67;
G1 X52.29 Y58.86;
G1 X52.04 Y59.11;
G1 X51.75 Y59.4;
G1 X51.43 Y59.73;
G1 X51.09 Y60.12;
G1 X50.72 Y60.55;
G1 X50.56 Y60.74;
G1 X49.8 Y61.67;
G1 X49.05 Y62.67;
G1 X48.31 Y63.72;
G1 X47.59 Y64.8;
G1 X46.9 Y65.89;
G1 X46.26 Y66.98;
G1 X45.66 Y68.05;
G1 X45.17 Y68.98;
G1 X44.78 Y69.8;
G1 X44.44 Y70.56;
G1 X44.18 Y71.2;
G1 X43.97 Y71.8;
G1 X43.83 Y72.28;
G1 X43.74 Y72.7;
G1 X43.7 Y73.04;
G1 X43.7 Y73.13;
G1 X43.71 Y74.22;
G1 X43.76 Y75.23;
G1 X43.85 Y76.19;
G1 X43.96 Y77.08;
G1 X44.11 Y77.91;
G1 X44.3 Y78.68;
G1 X44.52 Y79.41;
G1 X44.78 Y80.08;
G1 X45.08 Y80.7;
G1 X45.42 Y81.29;
G1 X45.8 Y81.84;
G1 X46.22 Y82.35;
G1 X46.68 Y82.83;
G1 X46.81 Y82.94;
G1 X49.06 Y84.95;
G1 X51.33 Y86.88;
G1 X53.64 Y88.74;
G1 X55.97 Y90.52;
G1 X58.32 Y92.24;
G1 X60.69 Y93.87;
G1 X63.08 Y95.43;
G1 X65.25 Y96.78;
G1 X67.44 Y98.06;
G1 X69.63 Y99.28;
G1 X71.83 Y100.42;
G1 X74.03 Y101.5;
G1 X76.23 Y102.5;
G1 X78.42 Y103.44;
G1 X80.61 Y104.3;
G1 X82.79 Y105.08;
G1 X84.96 Y105.79;
G1 X87.12 Y106.42;
G1 X89.27 Y106.98;
G1 X91.2 Y107.42;
G1 X93.12 Y107.79;
G1 X95.03 Y108.09;
G1 X96.91 Y108.32;
G1 X97.2 Y108.36;
G1 X97.99 Y108.44;
G1 X98.72 Y108.51;
G1 X99.39 Y108.6;
G1 X100.0 Y108.69;
G1 X100.57 Y108.79;
G1 X101.1 Y108.92;
G1 X101.6 Y109.07;
G1 X102.07 Y109.26;
G1 X102.52 Y109.48;
G1 X102.95 Y109.75;
G1 X103.38 Y110.07;
G1 X103.81 Y110.44;
G1 X104.24 Y110.88;
G1 X104.69 Y111.38;
G1 X105.15 Y111.96;
G1 X105.59 Y112.55;
G1 X106.06 Y113.21;
G1 X106.51 Y113.88;
G1 X106.99 Y114.61;
G1 X107.51 Y115.41;
G1 X108.01 Y116.19;
G1 X108.54 Y117.04;
G1 X109.1 Y117.96;
G1 X109.7 Y118.94;
G1 X110.29 Y119.89;
G1 X110.73 Y120.61;
G1 X111.59 Y122.0;
G1 X112.29 Y123.09;
G1 X112.89 Y124.03;
G1 X113.46 Y124.9;
G1 X113.94 Y125.63;
G1 X114.35 Y126.23;
G1 X114.73 Y126.77;
G1 X115.07 Y127.24;
G1 X115.34 Y127.61;
G1 X115.58 Y127.92;
G1 X115.76 Y128.13;
G1 X115.91 Y128.3;
G1 X116.02 Y128.38;
G1 X116.09 Y128.43;
G1 X116.21 Y128.38;
G1 X116.32 Y128.29;
G1 X116.4 Y128.13;
G1 X116.47 Y127.93;
G1 X116.51 Y127.69;
G1 X116.53 Y127.41;
G1 X116.53 Y127.12;
G1 X116.51 Y126.8;
G1 X116.46 Y126.48;
G1 X116.4 Y126.17;
G1 X116.31 Y125.86;
G1 X116.21 Y125.57;
G1 X116.08 Y125.31;
G1 X116.05 Y125.24;
G1 X115.97 Y125.12;
G1 X115.91 Y125.07;
G1 X115.88 Y125.09;
G1 X115.88 Y125.17;
G1 X115.9 Y125.32;
G1 X115.95 Y125.53;
G1 X116.02 Y125.73;
G1 X116.09 Y126.0;
G1 X116.13 Y126.2;
G1 X116.13 Y126.35;
G1 X116.11 Y126.43;
G1 X116.05 Y126.47;
G1 X115.97 Y126.45;
G1 X115.86 Y126.39;
G1 X115.74 Y126.28;
G1 X115.59 Y126.13;
G1 X115.43 Y125.93;
G1 X115.25 Y125.71;
G1 X115.06 Y125.44;
G1 X114.86 Y125.15;
G1 X114.65 Y124.83;
G1 X114.44 Y124.49;
G1 X114.23 Y124.12;
G1 X114.01 Y123.73;
G1 X113.8 Y123.32;
G1 X113.59 Y122.9;
G1 X113.51 Y122.73;
G1 X112.36 Y120.3;
G1 X113.78 Y122.68;
G1 X114.12 Y123.21;
G1 X114.45 Y123.66;
G1 X114.74 Y124.0;
G1 X115.02 Y124.28;
G1 X115.26 Y124.46;
G1 X115.48 Y124.57;
G1 X115.67 Y124.62;
G1 X115.83 Y124.59;
G1 X115.9 Y124.55;
G1 X117.18 Y124.75;
G1 X118.38 Y124.94;
G1 X119.53 Y125.12;
G1 X120.61 Y125.29;
G1 X121.63 Y125.46;
G1 X122.58 Y125.62;
G1 X123.48 Y125.76;
G1 X124.33 Y125.9;
G1 X125.11 Y126.04;
G1 X125.85 Y126.16;
G1 X126.52 Y126.28;
G1 X127.15 Y126.39;
G1 X127.73 Y126.49;
G1 X128.25 Y126.58;
G1 X128.72 Y126.66;
G1 X129.16 Y126.74;
G1 X129.55 Y126.81;
G1 X129.9 Y126.88;
G1 X130.19 Y126.93;
G1 X130.46 Y126.98;
G1 X130.69 Y127.02;
G1 X130.87 Y127.06;
G1 X131.02 Y127.09;
G1 X131.13 Y127.11;
G1 X131.21 Y127.12;
G1 X131.26 Y127.13;
G1 X131.27 Y127.13;
G1 X131.26 Y127.13;
G1 X131.21 Y127.11;
G1 X131.13 Y127.1;
G1 X131.05 Y127.07;
G1 X130.93 Y127.04;
G1 X130.79 Y127.0;
G1 X130.62 Y126.96;
G1 X130.44 Y126.91;
G1 X130.24 Y126.86;
G1 X130.02 Y126.8;
G1 X129.78 Y126.73;
G1 X129.53 Y126.66;
G1 X129.27 Y126.58;
G1 X128.99 Y126.5;
G1 X128.71 Y126.41;
G1 X128.41 Y126.31;
G1 X128.11 Y126.21;
G1 X127.81 Y126.11;
G1 X127.46 Y125.99;
G1 X127.08 Y125.85;
G1 X126.7 Y125.7;
G1 X126.27 Y125.53;
G1 X125.85 Y125.35;
G1 X125.44 Y125.17;
G1 X125.04 Y124.97;
G1 X124.65 Y124.77;
G1 X124.28 Y124.56;
G1 X123.92 Y124.34;
G1 X123.59 Y124.11;
G1 X123.29 Y123.88;
G1 X123.01 Y123.64;
G1 X122.77 Y123.4;
G1 X122.57 Y123.14;
G1 X122.4 Y122.88;
G1 X122.28 Y122.62;
G1 X122.2 Y122.35;
G1 X122.17 Y122.07;
G1 X122.19 Y121.79;
G1 X122.27 Y121.5;
G1 X122.4 Y121.23;
G1 X122.77 Y120.58;
G1 X123.19 Y119.87;
G1 X123.65 Y119.13;
G1 X124.14 Y118.37;
G1 X124.65 Y117.6;
G1 X125.17 Y116.84;
G1 X125.68 Y116.11;
G1 X126.18 Y115.42;
G1 X126.67 Y114.78;
G1 X127.1 Y114.23;
G1 X127.92 Y113.15;
G1 X128.53 Y112.26;
G1 X128.97 Y111.54;
G1 X129.3 Y110.99;
G1 X129.54 Y110.52;
G1 X129.72 Y110.11;
G1 X129.85 Y109.78;
G1 X129.91 Y109.53;
G1 X129.93 Y109.47;
G1 X130.0 Y109.06;
G1 X130.09 Y108.7;
G1 X130.24 Y108.43;
G1 X130.44 Y108.2;
G1 X130.69 Y108.0;
G1 X130.99 Y107.82;
G1 X131.34 Y107.66;
G1 X131.76 Y107.49;
G1 X132.21 Y107.33;
G1 X132.74 Y107.16;
G1 X133.29 Y106.99;
G1 X133.91 Y106.81;
G1 X134.6 Y106.62;
G1 X135.3 Y106.42;
G1 X136.07 Y106.21;
G1 X136.91 Y105.99;
G1 X137.75 Y105.76;
G1 X137.85 Y105.74;
G1 X138.61 Y105.53;
G1 X139.44 Y105.29;
G1 X140.33 Y105.03;
G1 X141.27 Y104.74;
G1 X142.27 Y104.43;
G1 X143.31 Y104.1;
G1 X144.4 Y103.75;
G1 X145.53 Y103.38;
G1 X146.69 Y102.99;
G1 X147.88 Y102.59;
G1 X149.11 Y102.17;
G1 X150.36 Y101.74;
G1 X151.63 Y101.3;
G1 X152.91 Y100.85;
G1 X154.21 Y100.39;
G1 X155.51 Y99.92;
G1 X156.81 Y99.45;
G1 X158.25 Y98.92;
G1 X159.82 Y98.34;
G1 X161.38 Y97.76;
G1 X162.91 Y97.18;
G1 X164.42 Y96.6;
G1 X165.9 Y96.03;
G1 X167.33 Y95.47;
G1 X168.71 Y94.92;
G1 X170.03 Y94.38;
G1 X171.29 Y93.86;
G1 X172.48 Y93.36;
G1 X173.45 Y92.95;
G1 X174.75 Y92.41;
G1 X176.03 Y91.95;
G1 X177.29 Y91.55;
G1 X178.41 Y91.26;
G1 X179.49 Y91.03;
G1 X180.53 Y90.86;
G1 X181.43 Y90.77;
G1 X182.3 Y90.73;
G1 X182.4 Y90.72;
G1 X183.11 Y90.73;
G1 X183.75 Y90.75;
G1 X184.35 Y90.79;
G1 X184.92 Y90.87;
G1 X185.49 Y90.99;
G1 X186.06 Y91.15;
G1 X186.65 Y91.37;
G1 X187.28 Y91.65;
G1 X187.9 Y91.96;
G1 X188.51 Y92.3;
G1 X189.12 Y92.65;
G1 X189.78 Y93.05;
G1 X190.43 Y93.46;
G1 X191.14 Y93.91;
G1 X191.91 Y94.41;
G1 X192.67 Y94.91;
G1 X193.49 Y95.45;
G1 X193.55 Y95.49;
G1 X194.79 Y96.3;
G1 X196.09 Y97.14;
G1 X197.42 Y97.98;
G1 X198.76 Y98.82;
G1 X200.08 Y99.63;
G1 X201.35 Y100.4;
G1 X202.36 Y101.0;
G1 X203.22 Y101.51;
G1 X203.95 Y101.93;
G1 X204.62 Y102.31;
G1 X205.18 Y102.62;
G1 X205.49 Y102.79;
G1 X206.91 Y103.55;
G1 X208.35 Y104.33;
G1 X209.49 Y104.97;
G1 X210.29 Y105.42;
G1 X210.96 Y105.81;
G1 X211.51 Y106.12;
G1 X211.95 Y106.38;
G1 X212.29 Y106.58;
G1 X212.43 Y106.67;
G1 X212.86 Y106.93;
G1 X213.23 Y107.15;
G1 X213.56 Y107.32;
G1 X213.84 Y107.46;
G1 X214.09 Y107.55;
G1 X214.3 Y107.6;
G1 X214.49 Y107.61;
G1 X214.65 Y107.58;
G1 X214.8 Y107.51;
G1 X214.94 Y107.39;
G1 X215.07 Y107.23;
G1 X215.21 Y107.03;
G1 X215.34 Y106.8;
G1 X215.38 Y106.73;
G1 X215.55 Y106.4;
G1 X215.68 Y106.12;
G1 X215.76 Y105.87;
G1 X215.79 Y105.66;
G1 X215.76 Y105.47;
G1 X215.68 Y105.29;
G1 X215.55 Y105.1;
G1 X215.35 Y104.91;
G1 X215.09 Y104.71;
G1 X214.78 Y104.48;
G1 X214.44 Y104.28;
G1 X214.04 Y104.12;
G1 X213.62 Y104.01;
G1 X213.18 Y103.95;
G1 X212.76 Y103.94;
G1 X212.35 Y103.99;
G1 X212.06 Y104.07;
G1 X211.76 Y104.18;
G1 X211.51 Y104.25;
G1 X211.32 Y104.28;
G1 X211.18 Y104.28;
G1 X211.1 Y104.25;
G1 X211.07 Y104.18;
G1 X211.1 Y104.07;
G1 X211.18 Y103.93;
G1 X211.31 Y103.75;
G1 X211.31 Y103.74;
G1 X211.48 Y103.51;
G1 X211.57 Y103.31;
G1 X211.61 Y103.13;
G1 X211.58 Y102.97;
G1 X211.47 Y102.83;
G1 X211.3 Y102.69;
G1 X211.04 Y102.55;
G1 X210.75 Y102.42;
G1 X210.62 Y102.37;
G1 X210.35 Y102.26;
G1 X210.01 Y102.11;
G1 X209.63 Y101.94;
G1 X209.21 Y101.75;
G1 X208.76 Y101.53;
G1 X208.3 Y101.31;
G1 X207.84 Y101.07;
G1 X207.33 Y100.81;
G1 X206.91 Y100.59;
G1 X206.22 Y100.26;
G1 X205.6 Y100.02;
G1 X205.07 Y99.87;
G1 X204.64 Y99.79;
G1 X204.3 Y99.76;
G1 X204.04 Y99.78;
G1 X203.85 Y99.84;
G1 X203.79 Y99.87;
G1 X203.58 Y99.99;
G1 X203.4 Y100.05;
G1 X203.25 Y100.03;
G1 X203.16 Y99.95;
G1 X203.11 Y99.83;
G1 X203.11 Y99.67;
G1 X203.14 Y99.22;
G1 X203.16 Y98.84;
G1 X203.15 Y98.53;
G1 X203.13 Y98.28;
G1 X203.08 Y98.11;
G1 X203.01 Y98.0;
G1 X202.92 Y97.97;
G1 X202.81 Y98.0;
G1 X202.68 Y98.11;
G1 X202.53 Y98.28;
G1 X202.37 Y98.51;
G1 X202.21 Y98.76;
G1 X202.08 Y98.94;
G1 X201.97 Y99.06;
G1 X201.9 Y99.11;
G1 X201.85 Y99.1;
G1 X201.83 Y99.02;
G1 X201.84 Y98.86;
G1 X201.86 Y98.64;
G1 X201.91 Y98.34;
G1 X201.98 Y97.98;
G1 X202.05 Y97.61;
G1 X202.09 Y97.32;
G1 X202.12 Y97.1;
G1 X202.12 Y96.96;
G1 X202.11 Y96.87;
G1 X202.07 Y96.86;
G1 X202.0 Y96.91;
G1 X201.92 Y97.03;
G1 X201.8 Y97.2;
G1 X201.67 Y97.43;
G1 X201.45 Y97.78;
G1 X201.25 Y98.06;
G1 X201.06 Y98.26;
G1 X200.9 Y98.39;
G1 X200.76 Y98.45;
G1 X200.65 Y98.44;
G1 X200.57 Y98.35;
G1 X200.52 Y98.2;
G1 X200.5 Y97.99;
G1 X200.52 Y97.73;
G1 X200.57 Y97.41;
G1 X200.59 Y97.32;
G1 X200.65 Y97.1;
G1 X200.78 Y96.83;
G1 X200.95 Y96.52;
G1 X201.17 Y96.18;
G1 X201.43 Y95.81;
G1 X201.72 Y95.42;
G1 X202.04 Y95.02;
G1 X202.38 Y94.62;
G1 X202.74 Y94.22;
G1 X203.1 Y93.85;
G1 X203.57 Y93.36;
G1 X203.99 Y92.92;
G1 X204.36 Y92.51;
G1 X204.66 Y92.16;
G1 X204.91 Y91.85;
G1 X205.11 Y91.59;
G1 X205.24 Y91.38;
G1 X205.31 Y91.24;
G1 X205.33 Y91.14;
G1 X205.3 Y91.09;
G1 X205.21 Y91.08;
G1 X205.08 Y91.13;
G1 X204.89 Y91.22;
G1 X204.65 Y91.36;
G1 X204.35 Y91.56;
G1 X204.24 Y91.64;
G1 X203.98 Y91.82;
G1 X203.77 Y91.95;
G1 X203.59 Y92.03;
G1 X203.46 Y92.06;
G1 X203.37 Y92.03;
G1 X203.32 Y91.95;
G1 X203.3 Y91.81;
G1 X203.31 Y91.61;
G1 X203.34 Y91.35;
G1 X203.4 Y91.04;
G1 X203.46 Y90.72;
G1 X203.5 Y90.46;
G1 X203.5 Y90.26;
G1 X203.48 Y90.12;
G1 X203.43 Y90.03;
G1 X203.34 Y90.01;
G1 X203.22 Y90.03;
G1 X203.07 Y90.1;
G1 X202.88 Y90.23;
G1 X202.87 Y90.23;
G1 X202.67 Y90.37;
G1 X202.5 Y90.44;
G1 X202.38 Y90.46;
G1 X202.3 Y90.41;
G1 X202.25 Y90.31;
G1 X202.23 Y90.14;
G1 X202.25 Y89.9;
G1 X202.3 Y89.6;
G1 X202.32 Y89.52;
G1 X202.38 Y89.2;
G1 X202.41 Y88.96;
G1 X202.41 Y88.79;
G1 X202.38 Y88.7;
G1 X202.31 Y88.66;
G1 X202.2 Y88.68;
G1 X202.06 Y88.76;
G1 X201.86 Y88.9;
G1 X201.62 Y89.1;
G1 X201.36 Y89.33;
G1 X201.11 Y89.56;
G1 X199.63 Y90.9;
G1 X200.77 Y89.16;
G1 X201.02 Y88.77;
G1 X201.22 Y88.42;
G1 X201.37 Y88.13;
G1 X201.47 Y87.9;
G1 X201.52 Y87.71;
G1 X201.53 Y87.58;
G1 X201.49 Y87.5;
G1 X201.4 Y87.47;
G1 X201.27 Y87.49;
G1 X201.09 Y87.56;
G1 X200.87 Y87.69;
G1 X200.61 Y87.87;
G1 X200.31 Y88.11;
G1 X199.97 Y88.39;
G1 X199.59 Y88.73;
G1 X199.18 Y89.12;
G1 X199.16 Y89.13;
G1 X198.81 Y89.46;
G1 X198.52 Y89.73;
G1 X198.28 Y89.95;
G1 X198.1 Y90.1;
G1 X197.96 Y90.2;
G1 X197.88 Y90.25;
G1 X197.84 Y90.24;
G1 X197.85 Y90.17;
G1 X197.91 Y90.05;
G1 X198.01 Y89.88;
G1 X198.15 Y89.64;
G1 X198.34 Y89.36;
G1 X198.35 Y89.35;
G1 X198.61 Y88.89;
G1 X198.81 Y88.43;
G1 X198.95 Y87.97;
G1 X199.03 Y87.53;
G1 X199.05 Y87.12;
G1 X199.02 Y86.76;
G1 X198.95 Y86.47;
G1 X198.83 Y86.24;
G1 X198.69 Y86.1;
G1 X198.52 Y86.01;
G1 X198.31 Y85.99;
G1 X198.11 Y86.04;
G1 X197.87 Y86.16;
G1 X197.79 Y86.21;
G1 X197.59 Y86.34;
G1 X197.43 Y86.42;
G1 X197.31 Y86.44;
G1 X197.22 Y86.41;
G1 X197.18 Y86.33;
G1 X197.18 Y86.19;
G1 X197.22 Y86.0;
G1 X197.26 Y85.89;
G1 X197.32 Y85.58;
G1 X197.33 Y85.26;
G1 X197.27 Y84.96;
G1 X197.17 Y84.69;
G1 X197.02 Y84.5;
G1 X196.99 Y84.47;
G1 X196.88 Y84.36;
G1 X196.84 Y84.3;
G1 X196.86 Y84.26;
G1 X196.94 Y84.26;
G1 X197.07 Y84.3;
G1 X197.26 Y84.37;
G1 X197.44 Y84.45;
G1 X197.71 Y84.55;
G1 X197.95 Y84.57;
G1 X198.16 Y84.54;
G1 X198.32 Y84.44;
G1 X198.43 Y84.29;
G1 X198.47 Y84.11;
G1 X198.48 Y84.04;
G1 X198.5 Y83.83;
G1 X198.58 Y83.67;
G1 X198.7 Y83.57;
G1 X198.86 Y83.53;
G1 X199.04 Y83.55;
G1 X199.24 Y83.64;
G1 X199.28 Y83.66;
G1 X199.41 Y83.73;
G1 X199.5 Y83.74;
G1 X199.55 Y83.7;
G1 X199.56 Y83.6;
G1 X199.53 Y83.46;
G1 X199.46 Y83.26;
G1 X199.36 Y83.02;
G1 X199.21 Y82.73;
G1 X199.03 Y82.39;
G1 X198.81 Y82.03;
G1 X198.57 Y81.61;
G1 X198.36 Y81.25;
G1 X198.19 Y80.94;
G1 X198.06 Y80.67;
G1 X197.96 Y80.44;
G1 X197.9 Y80.25;
G1 X197.87 Y80.09;
G1 X197.88 Y79.95;
G1 X197.92 Y79.84;
G1 X197.99 Y79.73;
G1 X198.09 Y79.65;
G1 X198.23 Y79.56;
G1 X198.39 Y79.48;
G1 X198.44 Y79.45;
G1 X198.66 Y79.36;
G1 X198.84 Y79.33;
G1 X198.98 Y79.34;
G1 X199.07 Y79.43;
G1 X199.13 Y79.56;
G1 X199.15 Y79.76;
G1 X199.12 Y80.01;
G1 X199.09 Y80.15;
G1 X199.07 Y80.43;
G1 X199.13 Y80.7;
G1 X199.26 Y81.0;
G1 X199.46 Y81.29;
G1 X199.74 Y81.58;
G1 X200.09 Y81.88;
G1 X200.52 Y82.18;
G1 X201.03 Y82.48;
G1 X201.16 Y82.56;
G1 X202.16 Y83.14;
G1 X202.96 Y83.66;
G1 X203.49 Y84.03;
G1 X203.87 Y84.31;
G1 X204.16 Y84.54;
G1 X204.35 Y84.71;
G1 X204.52 Y84.9;
G1 X204.73 Y85.14;
G1 X204.96 Y85.44;
G1 X205.22 Y85.77;
G1 X205.49 Y86.14;
G1 X205.77 Y86.54;
G1 X206.07 Y86.97;
G1 X206.37 Y87.4;
G1 X206.67 Y87.85;
G1 X207.0 Y88.35;
G1 X207.34 Y88.89;
G1 X207.67 Y89.42;
G1 X207.98 Y89.91;
G1 X208.25 Y90.37;
G1 X208.48 Y90.77;
G1 X208.64 Y91.09;
G1 X208.76 Y91.32;
G1 X208.83 Y91.5;
G1 X208.85 Y91.6;
G1 X208.83 Y91.65;
G1 X208.82 Y91.66;
G1 X208.79 Y91.68;
G1 X208.79 Y91.77;
G1 X208.83 Y91.9;
G1 X208.9 Y92.07;
G1 X209.01 Y92.29;
G1 X209.13 Y92.54;
G1 X209.29 Y92.82;
G1 X209.47 Y93.13;
G1 X209.67 Y93.46;
G1 X209.88 Y93.79;
G1 X210.2 Y94.29;
G1 X210.48 Y94.72;
G1 X210.74 Y95.08;
G1 X210.95 Y95.38;
G1 X211.14 Y95.62;
G1 X211.29 Y95.8;
G1 X211.41 Y95.91;
G1 X211.49 Y95.96;
G1 X211.55 Y95.96;
G1 X211.57 Y95.9;
G1 X211.55 Y95.78;
G1 X211.51 Y95.6;
G1 X211.44 Y95.38;
G1 X211.33 Y95.09;
G1 X211.2 Y94.76;
G1 X211.03 Y94.38;
G1 X210.83 Y93.95;
G1 X210.61 Y93.47;
G1 X210.35 Y92.94;
G1 X210.07 Y92.37;
G1 X209.76 Y91.75;
G1 X209.41 Y91.09;
G1 X209.04 Y90.38;
G1 X208.86 Y90.03;
G1 X208.31 Y88.99;
G1 X207.86 Y88.09;
G1 X207.45 Y87.24;
G1 X207.09 Y86.45;
G1 X206.8 Y85.79;
G1 X206.55 Y85.19;
G1 X206.35 Y84.66;
G1 X206.21 Y84.23;
G1 X206.11 Y83.86;
G1 X206.04 Y83.55;
G1 X206.02 Y83.33;
G1 X206.04 Y83.16;
G1 X206.04 Y83.14;
G1 X206.1 Y82.88;
G1 X206.11 Y82.57;
G1 X206.08 Y82.21;
G1 X206.01 Y81.83;
G1 X205.92 Y81.42;
G1 X205.79 Y81.01;
G1 X205.63 Y80.61;
G1 X205.54 Y80.43;
S0;( end pass 1 of 1 )


( start pass 1 of 1 )
G0 X205.44 Y76.26;
S300;
G1 X206.17 Y73.48 F700;
G1 X206.51 Y72.31;
G1 X206.75 Y71.56;
G1 X206.95 Y71.03;
G1 X207.1 Y70.66;
G1 X207.22 Y70.38;
G1 X207.33 Y70.17;
G1 X207.4 Y70.08;
G1 X207.51 Y69.9;
G1 X207.55 Y69.75;
G1 X207.53 Y69.63;
G1 X207.45 Y69.53;
G1 X207.3 Y69.47;
G1 X207.1 Y69.44;
G1 X207.06 Y69.43;
G1 X206.84 Y69.47;
G1 X206.61 Y69.56;
G1 X206.36 Y69.72;
G1 X206.12 Y69.93;
G1 X205.89 Y70.18;
G1 X205.68 Y70.45;
G1 X205.53 Y70.7;
G1 X205.32 Y71.14;
G1 X205.19 Y71.45;
G1 X205.12 Y71.68;
G1 X205.09 Y71.86;
G1 X205.11 Y71.95;
G1 X205.16 Y71.98;
G1 X205.21 Y72.02;
G1 X205.24 Y72.12;
G1 X205.23 Y72.27;
G1 X205.19 Y72.47;
G1 X205.12 Y72.7;
G1 X205.03 Y72.98;
G1 X204.91 Y73.28;
G1 X204.85 Y73.43;
G1 X204.71 Y73.76;
G1 X204.61 Y74.02;
G1 X204.54 Y74.22;
G1 X204.51 Y74.36;
G1 X204.52 Y74.43;
G1 X204.57 Y74.44;
G1 X204.65 Y74.39;
G1 X204.76 Y74.27;
G1 X204.79 Y74.23;
G1 X204.97 Y74.06;
G1 X205.11 Y73.93;
G1 X205.21 Y73.86;
G1 X205.29 Y73.84;
G1 X205.34 Y73.87;
G1 X205.35 Y73.95;
G1 X205.34 Y74.06;
G1 X205.29 Y74.2;
G1 X205.22 Y74.4;
G1 X205.11 Y74.62;
G1 X204.98 Y74.87;
G1 X204.83 Y75.14;
G1 X204.64 Y75.44;
G1 X204.59 Y75.52;
G1 X204.42 Y75.76;
G1 X204.29 Y75.93;
G1 X204.18 Y76.03;
G1 X204.11 Y76.06;
G1 X204.07 Y76.04;
G1 X204.07 Y75.95;
G1 X204.1 Y75.79;
G1 X204.13 Y75.7;
G1 X204.19 Y75.41;
G1 X204.18 Y75.11;
G1 X204.12 Y74.81;
G1 X204.01 Y74.54;
G1 X203.84 Y74.31;
G1 X203.72 Y74.2;
G1 X203.45 Y74.03;
G1 X203.22 Y73.88;
G1 X203.04 Y73.79;
G1 X202.9 Y73.73;
G1 X202.79 Y73.75;
G1 X202.72 Y73.81;
G1 X202.66 Y73.93;
G1 X202.63 Y74.09;
G1 X202.62 Y74.33;
G1 X202.61 Y74.59;
G1 X202.63 Y74.81;
G1 X202.68 Y74.97;
G1 X202.76 Y75.06;
G1 X202.86 Y75.08;
G1 X202.98 Y75.04;
G1 X203.12 Y74.93;
G1 X203.14 Y74.9;
G1 X203.27 Y74.76;
G1 X203.37 Y74.7;
G1 X203.43 Y74.7;
G1 X203.45 Y74.76;
G1 X203.45 Y74.89;
G1 X203.4 Y75.09;
G1 X203.34 Y75.29;
G1 X203.23 Y75.55;
G1 X203.1 Y75.75;
G1 X202.96 Y75.88;
G1 X202.83 Y75.92;
G1 X202.7 Y75.9;
G1 X202.6 Y75.81;
G1 X202.51 Y75.76;
G1 X202.39 Y75.77;
G1 X202.26 Y75.83;
G1 X202.1 Y75.95;
G1 X201.93 Y76.11;
G1 X201.76 Y76.31;
G1 X201.57 Y76.56;
G1 X201.39 Y76.84;
G1 X201.21 Y77.17;
G1 X201.2 Y77.19;
G1 X200.98 Y77.59;
G1 X200.81 Y77.95;
G1 X200.68 Y78.28;
G1 X200.58 Y78.56;
G1 X200.53 Y78.8;
G1 X200.52 Y79.02;
G1 X200.54 Y79.22;
G1 X200.6 Y79.4;
G1 X200.7 Y79.58;
G1 X200.82 Y79.73;
G1 X201.03 Y80.04;
G1 X201.16 Y80.34;
G1 X201.22 Y80.63;
G1 X201.2 Y80.84;
G1 X201.16 Y80.95;
G1 X201.09 Y81.03;
G1 X200.99 Y81.04;
G1 X200.88 Y80.98;
G1 X200.74 Y80.89;
G1 X200.59 Y80.73;
G1 X200.43 Y80.54;
G1 X200.27 Y80.3;
G1 X200.1 Y80.02;
G1 X200.07 Y79.95;
G1 X199.83 Y79.59;
G1 X199.52 Y79.25;
G1 X199.16 Y78.94;
G1 X198.77 Y78.67;
G1 X198.35 Y78.45;
G1 X197.93 Y78.3;
G1 X197.6 Y78.23;
G1 X197.24 Y78.2;
G1 X196.94 Y78.19;
G1 X196.71 Y78.2;
G1 X196.54 Y78.23;
G1 X196.44 Y78.31;
G1 X196.4 Y78.41;
G1 X196.42 Y78.53;
G1 X196.5 Y78.69;
G1 X196.64 Y78.88;
G1 X196.64 Y78.89;
G1 X196.8 Y79.09;
G1 X196.89 Y79.23;
G1 X196.92 Y79.34;
G1 X196.89 Y79.41;
G1 X196.8 Y79.43;
G1 X196.65 Y79.4;
G1 X196.43 Y79.33;
G1 X196.14 Y79.22;
G1 X196.07 Y79.19;
G1 X195.73 Y79.06;
G1 X195.44 Y78.98;
G1 X195.21 Y78.95;
G1 X195.04 Y78.97;
G1 X194.92 Y79.03;
G1 X194.85 Y79.13;
G1 X194.84 Y79.26;
G1 X194.89 Y79.42;
G1 X194.99 Y79.61;
G1 X195.15 Y79.81;
G1 X195.36 Y80.05;
G1 X195.63 Y80.29;
G1 X195.96 Y80.54;
G1 X196.05 Y80.61;
G1 X196.35 Y80.84;
G1 X196.58 Y81.06;
G1 X196.75 Y81.29;
G1 X196.86 Y81.5;
G1 X196.91 Y81.7;
G1 X196.89 Y81.89;
G1 X196.82 Y82.07;
G1 X196.7 Y82.24;
G1 X196.51 Y82.4;
G1 X196.28 Y82.53;
G1 X195.99 Y82.66;
G1 X195.66 Y82.76;
G1 X195.27 Y82.85;
G1 X194.84 Y82.92;
G1 X194.36 Y82.97;
G1 X193.84 Y82.99;
G1 X193.27 Y83.0;
G1 X192.89 Y82.99;
G1 X192.33 Y82.96;
G1 X191.84 Y82.93;
G1 X191.42 Y82.88;
G1 X191.05 Y82.82;
G1 X190.74 Y82.75;
G1 X190.47 Y82.66;
G1 X190.25 Y82.54;
G1 X190.07 Y82.41;
G1 X189.93 Y82.24;
G1 X189.82 Y82.05;
G1 X189.73 Y81.83;
G1 X189.66 Y81.56;
G1 X189.6 Y81.28;
G1 X189.59 Y81.2;
G1 X189.52 Y80.8;
G1 X189.44 Y80.48;
G1 X189.34 Y80.23;
G1 X189.22 Y80.05;
G1 X189.08 Y79.95;
G1 X188.92 Y79.91;
G1 X188.73 Y79.93;
G1 X188.52 Y80.03;
G1 X188.47 Y80.06;
G1 X188.22 Y80.15;
G1 X187.93 Y80.2;
G1 X187.61 Y80.19;
G1 X187.27 Y80.13;
G1 X186.92 Y80.02;
G1 X186.59 Y79.86;
G1 X186.33 Y79.7;
G1 X186.05 Y79.54;
G1 X185.76 Y79.44;
G1 X185.48 Y79.41;
G1 X185.22 Y79.44;
G1 X184.96 Y79.53;
G1 X184.72 Y79.68;
G1 X184.5 Y79.89;
G1 X184.3 Y80.14;
G1 X184.13 Y80.45;
G1 X183.99 Y80.79;
G1 X183.88 Y81.18;
G1 X183.81 Y81.61;
G1 X183.78 Y82.07;
G1 X183.78 Y82.19;
G1 X183.76 Y82.48;
G1 X183.69 Y82.72;
G1 X183.59 Y82.9;
G1 X183.44 Y83.03;
G1 X183.27 Y83.1;
G1 X183.07 Y83.1;
G1 X182.83 Y83.05;
G1 X182.58 Y82.93;
G1 X182.52 Y82.89;
G1 X182.43 Y82.79;
G1 X182.36 Y82.63;
G1 X182.32 Y82.41;
G1 X182.3 Y82.16;
G1 X182.3 Y81.87;
G1 X182.33 Y81.56;
G1 X182.37 Y81.23;
G1 X182.44 Y80.91;
G1 X182.52 Y80.58;
G1 X182.61 Y80.27;
G1 X182.73 Y79.98;
G1 X182.85 Y79.73;
G1 X182.99 Y79.53;
G1 X183.02 Y79.48;
G1 X183.15 Y79.3;
G1 X183.21 Y79.15;
G1 X183.21 Y79.02;
G1 X183.14 Y78.93;
G1 X183.0 Y78.87;
G1 X182.79 Y78.84;
G1 X182.75 Y78.84;
G1 X182.56 Y78.88;
G1 X182.38 Y78.98;
G1 X182.23 Y79.14;
G1 X182.11 Y79.36;
G1 X182.01 Y79.62;
G1 X181.96 Y79.91;
G1 X181.94 Y80.16;
G1 X181.93 Y80.48;
G1 X181.88 Y80.75;
G1 X181.81 Y80.93;
G1 X181.73 Y81.03;
G1 X181.64 Y81.06;
G1 X181.54 Y81.02;
G1 X181.48 Y80.95;
G1 X181.37 Y80.88;
G1 X181.26 Y80.86;
G1 X181.15 Y80.91;
G1 X181.04 Y81.02;
G1 X180.94 Y81.18;
G1 X180.85 Y81.39;
G1 X180.77 Y81.65;
G1 X180.74 Y81.79;
G1 X180.66 Y82.11;
G1 X180.59 Y82.36;
G1 X180.51 Y82.54;
G1 X180.43 Y82.64;
G1 X180.33 Y82.68;
G1 X180.22 Y82.64;
G1 X180.1 Y82.53;
G1 X179.96 Y82.36;
G1 X179.79 Y82.12;
G1 X179.78 Y82.1;
G1 X179.59 Y81.79;
G1 X179.46 Y81.53;
G1 X179.38 Y81.29;
G1 X179.36 Y81.06;
G1 X179.4 Y80.84;
G1 X179.49 Y80.59;
G1 X179.65 Y80.34;
G1 X179.86 Y80.02;
G1 X179.92 Y79.94;
G1 X180.15 Y79.59;
G1 X180.3 Y79.31;
G1 X180.37 Y79.11;
G1 X180.39 Y78.97;
G1 X180.36 Y78.87;
G1 X180.28 Y78.83;
G1 X180.26 Y78.83;
G1 X180.15 Y78.87;
G1 X180.01 Y78.97;
G1 X179.85 Y79.14;
G1 X179.68 Y79.34;
G1 X179.5 Y79.61;
G1 X179.31 Y79.91;
G1 X179.13 Y80.22;
G1 X178.95 Y80.56;
G1 X178.78 Y80.89;
G1 X178.63 Y81.23;
G1 X178.5 Y81.56;
G1 X178.39 Y81.87;
G1 X178.32 Y82.14;
G1 X178.28 Y82.38;
G1 X178.27 Y82.5;
G1 X178.3 Y82.64;
G1 X178.38 Y82.72;
G1 X178.5 Y82.75;
G1 X178.65 Y82.72;
G1 X178.83 Y82.64;
G1 X178.96 Y82.56;
G1 X179.13 Y82.46;
G1 X179.3 Y82.44;
G1 X179.43 Y82.48;
G1 X179.54 Y82.59;
G1 X179.61 Y82.75;
G1 X179.65 Y82.97;
G1 X179.65 Y83.01;
G1 X179.63 Y83.3;
G1 X179.57 Y83.53;
G1 X179.47 Y83.71;
G1 X179.35 Y83.84;
G1 X179.2 Y83.91;
G1 X179.03 Y83.93;
G1 X178.85 Y83.89;
G1 X178.66 Y83.8;
G1 X178.46 Y83.66;
G1 X178.27 Y83.46;
G1 X178.07 Y83.21;
G1 X177.89 Y82.91;
G1 X177.88 Y82.9;
G1 X177.73 Y82.63;
G1 X177.59 Y82.43;
G1 X177.47 Y82.32;
G1 X177.36 Y82.28;
G1 X177.26 Y82.31;
G1 X177.16 Y82.43;
G1 X177.06 Y82.62;
G1 X176.96 Y82.9;
G1 X176.93 Y82.97;
G1 X176.85 Y83.21;
G1 X176.77 Y83.36;
G1 X176.7 Y83.44;
G1 X176.63 Y83.45;
G1 X176.57 Y83.39;
G1 X176.5 Y83.27;
G1 X176.44 Y83.07;
G1 X176.38 Y82.8;
G1 X176.31 Y82.46;
G1 X176.26 Y82.11;
G1 X176.19 Y81.68;
G1 X176.13 Y81.33;
G1 X176.08 Y81.05;
G1 X176.02 Y80.84;
G1 X175.97 Y80.7;
G1 X175.91 Y80.64;
G1 X175.85 Y80.64;
G1 X175.77 Y80.7;
G1 X175.69 Y80.83;
G1 X175.59 Y81.02;
G1 X175.48 Y81.28;
G1 X175.35 Y81.59;
G1 X175.34 Y81.61;
G1 X175.11 Y82.07;
G1 X174.85 Y82.47;
G1 X174.59 Y82.77;
G1 X174.35 Y82.97;
G1 X174.15 Y83.07;
G1 X174.0 Y83.1;
G1 X173.78 Y83.14;
G1 X173.56 Y83.25;
G1 X173.35 Y83.42;
G1 X173.17 Y83.63;
G1 X173.02 Y83.88;
G1 X172.96 Y84.05;
G1 X172.87 Y84.28;
G1 X172.78 Y84.42;
G1 X172.69 Y84.49;
G1 X172.6 Y84.48;
G1 X172.5 Y84.4;
G1 X172.4 Y84.23;
G1 X172.3 Y83.98;
G1 X172.25 Y83.84;
G1 X172.15 Y83.56;
G1 X172.06 Y83.37;
G1 X171.99 Y83.25;
G1 X171.94 Y83.22;
G1 X171.89 Y83.26;
G1 X171.86 Y83.38;
G1 X171.85 Y83.57;
G1 X171.85 Y83.7;
G1 X171.81 Y83.95;
G1 X171.72 Y84.15;
G1 X171.59 Y84.31;
G1 X171.41 Y84.4;
G1 X171.2 Y84.44;
G1 X170.96 Y84.4;
G1 X170.92 Y84.39;
G1 X170.68 Y84.34;
G1 X170.47 Y84.36;
G1 X170.28 Y84.44;
G1 X170.14 Y84.59;
G1 X170.04 Y84.78;
G1 X170.0 Y85.03;
G1 X169.99 Y85.08;
G1 X169.98 Y85.28;
G1 X169.96 Y85.42;
G1 X169.91 Y85.47;
G1 X169.85 Y85.45;
G1 X169.78 Y85.36;
G1 X169.69 Y85.19;
G1 X169.59 Y84.95;
G1 X169.54 Y84.81;
G1 X169.44 Y84.52;
G1 X169.35 Y84.3;
G1 X169.27 Y84.15;
G1 X169.21 Y84.06;
G1 X169.17 Y84.05;
G1 X169.13 Y84.1;
G1 X169.11 Y84.23;
G1 X169.1 Y84.42;
G1 X169.09 Y84.68;
G1 X169.09 Y84.69;
G1 X169.07 Y84.97;
G1 X169.02 Y85.19;
G1 X168.93 Y85.35;
G1 X168.81 Y85.44;
G1 X168.67 Y85.47;
G1 X168.5 Y85.42;
G1 X168.35 Y85.33;
G1 X167.89 Y85.01;
G1 X167.47 Y84.74;
G1 X167.11 Y84.52;
G1 X166.78 Y84.35;
G1 X166.5 Y84.24;
G1 X166.25 Y84.19;
G1 X166.03 Y84.19;
G1 X165.84 Y84.24;
G1 X165.68 Y84.36;
G1 X165.55 Y84.53;
G1 X165.43 Y84.76;
G1 X165.34 Y85.05;
G1 X165.25 Y85.39;
G1 X165.18 Y85.8;
G1 X165.14 Y86.07;
G1 X164.83 Y88.35;
G1 X164.32 Y86.43;
G1 X164.16 Y85.9;
G1 X164.0 Y85.44;
G1 X163.85 Y85.05;
G1 X163.69 Y84.73;
G1 X163.53 Y84.49;
G1 X163.38 Y84.31;
G1 X163.25 Y84.21;
G1 X163.11 Y84.18;
G1 X163.0 Y84.23;
G1 X162.88 Y84.35;
G1 X162.8 Y84.55;
G1 X162.72 Y84.82;
G1 X162.69 Y85.14;
G1 X162.66 Y85.52;
G1 X162.65 Y85.88;
G1 X162.65 Y86.33;
G1 X162.63 Y86.7;
G1 X162.59 Y87.02;
G1 X162.53 Y87.27;
G1 X162.43 Y87.48;
G1 X162.29 Y87.63;
G1 X162.11 Y87.75;
G1 X161.87 Y87.83;
G1 X161.58 Y87.88;
G1 X161.22 Y87.91;
G1 X160.78 Y87.91;
G1 X160.32 Y87.91;
G1 X160.24 Y87.91;
G1 X159.6 Y87.86;
G1 X158.97 Y87.74;
G1 X158.46 Y87.59;
G1 X157.99 Y87.39;
G1 X157.63 Y87.19;
G1 X157.38 Y86.98;
G1 X157.24 Y86.79;
G1 X157.22 Y86.76;
G1 X157.05 Y86.48;
G1 X156.88 Y86.27;
G1 X156.74 Y86.13;
G1 X156.59 Y86.05;
G1 X156.44 Y86.04;
G1 X156.33 Y86.09;
G1 X156.21 Y86.2;
G1 X156.1 Y86.37;
G1 X156.01 Y86.59;
G1 X155.91 Y86.88;
G1 X155.85 Y87.23;
G1 X155.8 Y87.63;
G1 X155.75 Y88.09;
G1 X155.72 Y88.6;
G1 X155.72 Y88.93;
G1 X155.66 Y91.23;
G1 X155.3 Y89.09;
G1 X155.22 Y88.7;
G1 X155.16 Y88.38;
G1 X155.09 Y88.13;
G1 X155.04 Y87.98;
G1 X154.99 Y87.9;
G1 X154.94 Y87.88;
G1 X154.91 Y87.95;
G1 X154.88 Y88.08;
G1 X154.88 Y88.23;
G1 X154.87 Y88.54;
G1 X154.85 Y88.78;
G1 X154.83 Y88.95;
G1 X154.8 Y89.06;
G1 X154.76 Y89.09;
G1 X154.72 Y89.05;
G1 X154.66 Y88.95;
G1 X154.58 Y88.77;
G1 X154.49 Y88.53;
G1 X154.38 Y88.23;
G1 X154.28 Y87.94;
G1 X154.19 Y87.71;
G1 X154.12 Y87.55;
G1 X154.06 Y87.47;
G1 X154.02 Y87.45;
G1 X153.97 Y87.51;
G1 X153.96 Y87.64;
G1 X153.94 Y87.84;
G1 X153.94 Y88.11;
G1 X153.93 Y88.45;
G1 X153.9 Y88.91;
G1 X153.83 Y89.28;
G1 X153.74 Y89.57;
G1 X153.62 Y89.78;
G1 X153.49 Y89.91;
G1 X153.37 Y89.96;
G1 X153.35 Y89.96;
G1 X153.19 Y89.98;
G1 X153.11 Y90.05;
G1 X153.08 Y90.15;
G1 X153.13 Y90.3;
G1 X153.24 Y90.49;
G1 X153.41 Y90.72;
G1 X153.44 Y90.77;
G1 X153.66 Y91.07;
G1 X153.8 Y91.41;
G1 X153.86 Y91.72;
G1 X153.85 Y92.0;
G1 X153.78 Y92.22;
G1 X153.68 Y92.33;
G1 X153.55 Y92.4;
G1 X153.38 Y92.4;
G1 X153.22 Y92.36;
G1 X153.03 Y92.27;
G1 X152.83 Y92.13;
G1 X152.63 Y91.94;
G1 X152.53 Y91.84;
G1 X152.27 Y91.53;
G1 X152.04 Y91.28;
G1 X151.85 Y91.09;
G1 X151.69 Y90.96;
G1 X151.55 Y90.9;
G1 X151.44 Y90.89;
G1 X151.35 Y90.96;
G1 X151.27 Y91.08;
G1 X151.19 Y91.28;
G1 X151.13 Y91.54;
G1 X151.06 Y91.87;
G1 X151.0 Y92.28;
G1 X150.99 Y92.3;
G1 X150.96 Y92.49;
G1 X150.93 Y92.61;
G1 X150.9 Y92.67;
G1 X150.88 Y92.67;
G1 X150.86 Y92.6;
G1 X150.85 Y92.48;
G1 X150.85 Y92.3;
G1 X150.85 Y92.06;
G1 X150.85 Y91.77;
G1 X150.86 Y91.43;
G1 X150.88 Y91.06;
G1 X150.9 Y90.43;
G1 X150.88 Y89.92;
G1 X150.88 Y89.52;
G1 X150.85 Y89.2;
G1 X150.81 Y88.97;
G1 X150.77 Y88.81;
G1 X150.72 Y88.74;
G1 X150.66 Y88.73;
G1 X150.63 Y88.76;
G1 X150.54 Y88.83;
G1 X150.44 Y88.83;
G1 X150.38 Y88.77;
G1 X150.31 Y88.66;
G1 X150.26 Y88.49;
G1 X150.22 Y88.28;
G1 X150.21 Y88.07;
G1 X150.19 Y87.92;
G1 X150.16 Y87.85;
G1 X150.13 Y87.84;
G1 X150.07 Y87.9;
G1 X150.01 Y88.03;
G1 X149.94 Y88.21;
G1 X149.85 Y88.46;
G1 X149.76 Y88.76;
G1 X149.66 Y89.1;
G1 X149.58 Y89.49;
G1 X149.35 Y90.6;
G1 X149.24 Y91.42;
G1 X149.18 Y92.05;
G1 X149.16 Y92.5;
G1 X149.16 Y92.84;
G1 X149.19 Y93.09;
G1 X149.19 Y93.12;
G1 X149.24 Y93.43;
G1 X149.21 Y93.71;
G1 X149.13 Y93.94;
G1 X149.01 Y94.1;
G1 X148.86 Y94.19;
G1 X148.69 Y94.22;
G1 X148.47 Y94.18;
G1 X148.3 Y94.07;
G1 X148.13 Y93.91;
G1 X148.03 Y93.69;
G1 X147.97 Y93.44;
G1 X147.94 Y93.27;
G1 X147.93 Y93.05;
G1 X147.87 Y92.87;
G1 X147.76 Y92.76;
G1 X147.63 Y92.7;
G1 X147.47 Y92.72;
G1 X147.3 Y92.8;
G1 X147.27 Y92.82;
G1 X147.1 Y92.91;
G1 X146.96 Y92.93;
G1 X146.85 Y92.89;
G1 X146.76 Y92.77;
G1 X146.69 Y92.6;
G1 X146.63 Y92.35;
G1 X146.6 Y92.03;
G1 X146.58 Y91.64;
G1 X146.58 Y91.25;
G1 X146.55 Y90.46;
G1 X146.49 Y89.85;
G1 X146.41 Y89.42;
G1 X146.34 Y89.09;
G1 X146.26 Y88.87;
G1 X146.18 Y88.74;
G1 X146.12 Y88.69;
G1 X146.06 Y88.72;
G1 X146.02 Y88.81;
G1 X145.99 Y88.96;
G1 X145.97 Y89.16;
G1 X145.97 Y89.41;
G1 X145.97 Y89.69;
G1 X145.97 Y90.01;
G1 X146.0 Y90.36;
G1 X146.03 Y90.72;
G1 X146.07 Y91.1;
G1 X146.12 Y91.48;
G1 X146.18 Y91.9;
G1 X146.24 Y92.31;
G1 X146.31 Y92.71;
G1 X146.38 Y93.07;
G1 X146.47 Y93.4;
G1 X146.56 Y93.69;
G1 X146.63 Y93.86;
G1 X146.72 Y94.13;
G1 X146.76 Y94.35;
G1 X146.74 Y94.53;
G1 X146.66 Y94.66;
G1 X146.55 Y94.75;
G1 X146.38 Y94.79;
G1 X146.34 Y94.79;
G1 X146.19 Y94.76;
G1 X146.07 Y94.66;
G1 X145.96 Y94.49;
G1 X145.86 Y94.26;
G1 X145.78 Y93.97;
G1 X145.71 Y93.61;
G1 X145.66 Y93.19;
G1 X145.62 Y92.72;
G1 X145.6 Y92.18;
G1 X145.6 Y92.15;
G1 X145.54 Y89.52;
G1 X145.25 Y92.44;
G1 X145.13 Y93.36;
G1 X145.0 Y94.07;
G1 X144.87 Y94.59;
G1 X144.75 Y95.0;
G1 X144.62 Y95.34;
G1 X144.5 Y95.57;
G1 X144.38 Y95.71;
G1 X144.33 Y95.76;
G1 X144.18 Y95.84;
G1 X144.06 Y95.85;
G1 X143.97 Y95.81;
G1 X143.93 Y95.72;
G1 X143.91 Y95.57;
G1 X143.96 Y95.38;
G1 X144.01 Y95.19;
G1 X144.08 Y94.92;
G1 X144.08 Y94.69;
G1 X144.02 Y94.5;
G1 X143.91 Y94.36;
G1 X143.75 Y94.26;
G1 X143.54 Y94.22;
G1 X143.49 Y94.22;
G1 X143.28 Y94.19;
G1 X143.12 Y94.11;
G1 X143.0 Y93.97;
G1 X142.9 Y93.77;
G1 X142.83 Y93.52;
G1 X142.77 Y93.2;
G1 X142.72 Y92.84;
G1 X142.69 Y92.42;
G1 X142.68 Y91.91;
G1 X142.66 Y91.38;
G1 X142.66 Y90.79;
G1 X142.66 Y90.11;
G1 X142.66 Y90.03;
G1 X142.66 Y89.14;
G1 X142.63 Y88.4;
G1 X142.61 Y87.8;
G1 X142.58 Y87.33;
G1 X142.54 Y86.92;
G1 X142.5 Y86.63;
G1 X142.46 Y86.41;
G1 X142.41 Y86.28;
G1 X142.37 Y86.21;
G1 X142.33 Y86.23;
G1 X142.33 Y86.23;
G1 X142.25 Y86.35;
G1 X142.19 Y86.55;
G1 X142.12 Y86.8;
G1 X142.07 Y87.1;
G1 X142.03 Y87.43;
G1 X142.0 Y87.79;
G1 X141.97 Y88.16;
G1 X141.97 Y88.35;
G1 X141.96 Y88.88;
G1 X141.88 Y89.45;
G1 X141.77 Y90.02;
G1 X141.62 Y90.56;
G1 X141.47 Y90.99;
G1 X141.34 Y91.27;
G1 X141.19 Y91.6;
G1 X141.07 Y91.99;
G1 X140.97 Y92.42;
G1 X140.91 Y92.88;
G1 X140.88 Y93.34;
G1 X140.88 Y93.78;
G1 X140.91 Y94.11;
G1 X140.97 Y94.6;
G1 X140.99 Y95.03;
G1 X140.97 Y95.4;
G1 X140.94 Y95.72;
G1 X140.87 Y95.97;
G1 X140.78 Y96.17;
G1 X140.66 Y96.3;
G1 X140.53 Y96.37;
G1 X140.38 Y96.38;
G1 X140.21 Y96.32;
G1 X140.03 Y96.2;
G1 X139.84 Y96.02;
G1 X139.65 Y95.77;
G1 X139.44 Y95.46;
G1 X139.24 Y95.08;
G1 X139.03 Y94.63;
G1 X139.02 Y94.61;
G1 X138.72 Y93.97;
G1 X138.44 Y93.45;
G1 X138.15 Y93.0;
G1 X137.86 Y92.63;
G1 X137.61 Y92.35;
G1 X137.37 Y92.15;
G1 X137.15 Y92.01;
G1 X136.97 Y91.96;
G1 X136.81 Y91.96;
G1 X136.68 Y92.04;
G1 X136.58 Y92.19;
G1 X136.51 Y92.38;
G1 X136.47 Y92.64;
G1 X136.47 Y92.81;
G1 X136.44 Y93.07;
G1 X136.37 Y93.38;
G1 X136.25 Y93.71;
G1 X136.09 Y94.05;
G1 X135.9 Y94.38;
G1 X135.69 Y94.7;
G1 X135.5 Y94.93;
G1 X135.29 Y95.17;
G1 X135.1 Y95.34;
G1 X134.97 Y95.44;
G1 X134.87 Y95.48;
G1 X134.81 Y95.46;
G1 X134.79 Y95.38;
G1 X134.81 Y95.23;
G1 X134.83 Y95.18;
G1 X134.87 Y94.95;
G1 X134.85 Y94.68;
G1 X134.77 Y94.38;
G1 X134.65 Y94.08;
G1 X134.47 Y93.78;
G1 X134.27 Y93.49;
G1 X134.07 Y93.28;
G1 X133.69 Y92.88;
G1 X133.34 Y92.43;
G1 X133.03 Y91.97;
G1 X132.83 Y91.62;
G1 X132.69 Y91.34;
G1 X132.69 Y91.31;
G1 X132.62 Y91.14;
G1 X132.55 Y91.03;
G1 X132.5 Y91.0;
G1 X132.44 Y91.03;
G1 X132.41 Y91.13;
G1 X132.38 Y91.29;
G1 X132.36 Y91.52;
G1 X132.35 Y91.82;
G1 X132.34 Y91.9;
G1 X132.31 Y92.39;
G1 X132.21 Y92.87;
G1 X132.07 Y93.3;
G1 X131.91 Y93.6;
G1 X131.77 Y93.81;
G1 X131.65 Y93.91;
G1 X131.47 Y94.08;
G1 X131.31 Y94.3;
G1 X131.16 Y94.57;
G1 X131.07 Y94.86;
G1 X130.99 Y95.18;
G1 X130.96 Y95.49;
G1 X130.96 Y95.54;
G1 X130.91 Y96.01;
G1 X130.82 Y96.47;
G1 X130.69 Y96.86;
G1 X130.55 Y97.14;
G1 X130.44 Y97.27;
G1 X130.34 Y97.38;
G1 X130.25 Y97.42;
G1 X130.19 Y97.39;
G1 X130.15 Y97.29;
G1 X130.13 Y97.12;
G1 X130.13 Y96.88;
G1 X130.16 Y96.58;
G1 X130.22 Y96.21;
G1 X130.24 Y96.11;
G1 X130.31 Y95.58;
G1 X130.32 Y95.09;
G1 X130.27 Y94.63;
G1 X130.15 Y94.2;
G1 X129.97 Y93.77;
G1 X129.74 Y93.35;
G1 X129.5 Y93.02;
G1 X129.25 Y92.71;
G1 X129.05 Y92.51;
G1 X128.86 Y92.36;
G1 X128.69 Y92.29;
G1 X128.53 Y92.29;
G1 X128.38 Y92.35;
G1 X128.26 Y92.49;
G1 X128.13 Y92.7;
G1 X128.03 Y92.99;
G1 X127.93 Y93.36;
G1 X127.85 Y93.76;
G1 X127.78 Y94.23;
G1 X127.71 Y94.77;
G1 X127.65 Y95.38;
G1 X127.59 Y96.01;
G1 X127.5 Y96.7;
G1 X127.37 Y97.27;
G1 X127.24 Y97.69;
G1 X127.1 Y98.0;
G1 X126.97 Y98.21;
G1 X126.85 Y98.34;
G1 X126.83 Y98.35;
G1 X126.68 Y98.42;
G1 X126.56 Y98.43;
G1 X126.48 Y98.37;
G1 X126.43 Y98.24;
G1 X126.42 Y98.05;
G1 X126.43 Y97.79;
G1 X126.48 Y97.47;
G1 X126.52 Y97.29;
G1 X126.58 Y96.94;
G1 X126.61 Y96.66;
G1 X126.61 Y96.45;
G1 X126.59 Y96.33;
G1 X126.54 Y96.26;
G1 X126.47 Y96.27;
G1 X126.38 Y96.34;
G1 X126.36 Y96.36;
G1 X126.26 Y96.44;
G1 X126.17 Y96.44;
G1 X126.09 Y96.37;
G1 X126.02 Y96.24;
G1 X125.96 Y96.04;
G1 X125.92 Y95.8;
G1 X125.9 Y95.5;
G1 X125.89 Y95.34;
G1 X125.87 Y94.93;
G1 X125.81 Y94.46;
G1 X125.73 Y93.96;
G1 X125.61 Y93.45;
G1 X125.48 Y92.95;
G1 X125.33 Y92.48;
G1 X125.2 Y92.13;
G1 X125.05 Y91.76;
G1 X124.92 Y91.46;
G1 X124.81 Y91.24;
G1 X124.71 Y91.08;
G1 X124.64 Y90.99;
G1 X124.59 Y90.98;
G1 X124.57 Y91.04;
G1 X124.56 Y91.18;
G1 X124.57 Y91.39;
G1 X124.6 Y91.67;
G1 X124.66 Y92.03;
G1 X124.73 Y92.46;
G1 X124.83 Y92.97;
G1 X124.94 Y93.56;
G1 X125.02 Y93.93;
G1 X125.12 Y94.48;
G1 X125.2 Y94.91;
G1 X125.24 Y95.23;
G1 X125.27 Y95.49;
G1 X125.28 Y95.68;
G1 X125.27 Y95.77;
G1 X125.24 Y95.8;
G1 X125.2 Y95.76;
G1 X125.19 Y95.73;
G1 X125.12 Y95.66;
G1 X125.02 Y95.66;
G1 X124.9 Y95.72;
G1 X124.77 Y95.85;
G1 X124.62 Y96.04;
G1 X124.46 Y96.27;
G1 X124.3 Y96.56;
G1 X124.13 Y96.89;
G1 X123.97 Y97.27;
G1 X123.96 Y97.29;
G1 X123.71 Y97.83;
G1 X123.5 Y98.25;
G1 X123.32 Y98.56;
G1 X123.15 Y98.8;
G1 X123.02 Y98.95;
G1 X122.92 Y99.02;
G1 X122.84 Y99.03;
G1 X122.8 Y98.99;
G1 X122.76 Y98.85;
G1 X122.76 Y98.64;
G1 X122.79 Y98.39;
G1 X122.85 Y98.11;
G1 X122.93 Y97.8;
G1 X123.04 Y97.47;
G1 X123.15 Y97.21;
G1 X123.35 Y96.69;
G1 X123.47 Y96.22;
G1 X123.51 Y95.86;
G1 X123.51 Y95.59;
G1 X123.47 Y95.4;
G1 X123.45 Y95.34;
G1 X123.37 Y95.23;
G1 X123.3 Y95.2;
G1 X123.24 Y95.24;
G1 X123.2 Y95.34;
G1 X123.17 Y95.51;
G1 X123.15 Y95.74;
G1 X123.15 Y95.79;
G1 X123.12 Y96.1;
G1 X123.02 Y96.37;
G1 X122.88 Y96.58;
G1 X122.72 Y96.72;
G1 X122.53 Y96.78;
G1 X122.46 Y96.79;
G1 X122.27 Y96.82;
G1 X122.1 Y96.93;
G1 X121.95 Y97.09;
G1 X121.85 Y97.3;
G1 X121.79 Y97.54;
G1 X121.77 Y97.7;
G1 X121.74 Y97.95;
G1 X121.65 Y98.15;
G1 X121.51 Y98.29;
G1 X121.33 Y98.37;
G1 X121.11 Y98.37;
G1 X120.97 Y98.33;
G1 X120.73 Y98.21;
G1 X120.53 Y98.05;
G1 X120.38 Y97.84;
G1 X120.26 Y97.61;
G1 X120.19 Y97.36;
G1 X120.15 Y97.1;
G1 X120.16 Y96.83;
G1 X120.2 Y96.57;
G1 X120.28 Y96.32;
G1 X120.39 Y96.09;
G1 X120.53 Y95.9;
G1 X120.71 Y95.74;
G1 X120.92 Y95.63;
G1 X121.16 Y95.58;
G1 X121.31 Y95.58;
G1 X121.61 Y95.58;
G1 X121.86 Y95.52;
G1 X122.06 Y95.41;
G1 X122.22 Y95.24;
G1 X122.33 Y95.02;
G1 X122.42 Y94.73;
G1 X122.48 Y94.38;
G1 X122.51 Y93.99;
G1 X122.53 Y93.62;
G1 X122.54 Y93.2;
G1 X122.54 Y92.84;
G1 X122.53 Y92.56;
G1 X122.51 Y92.35;
G1 X122.48 Y92.21;
G1 X122.43 Y92.13;
G1 X122.37 Y92.12;
G1 X122.28 Y92.17;
G1 X122.18 Y92.27;
G1 X122.06 Y92.43;
G1 X121.92 Y92.64;
G1 X121.75 Y92.88;
G1 X121.61 Y93.06;
G1 X121.47 Y93.18;
G1 X121.36 Y93.23;
G1 X121.25 Y93.21;
G1 X121.14 Y93.13;
G1 X121.04 Y92.98;
G1 X120.94 Y92.76;
G1 X120.83 Y92.47;
G1 X120.83 Y92.46;
G1 X120.73 Y92.17;
G1 X120.65 Y91.95;
G1 X120.58 Y91.79;
G1 X120.52 Y91.7;
G1 X120.48 Y91.68;
G1 X120.45 Y91.71;
G1 X120.43 Y91.82;
G1 X120.41 Y91.99;
G1 X120.4 Y92.22;
G1 X120.4 Y92.51;
G1 X120.39 Y92.82;
G1 X120.38 Y93.06;
G1 X120.37 Y93.23;
G1 X120.34 Y93.33;
G1 X120.31 Y93.37;
G1 X120.26 Y93.33;
G1 X120.21 Y93.22;
G1 X120.13 Y93.05;
G1 X120.04 Y92.81;
G1 X119.94 Y92.51;
G1 X119.83 Y92.22;
G1 X119.75 Y92.01;
G1 X119.67 Y91.86;
G1 X119.61 Y91.79;
G1 X119.56 Y91.79;
G1 X119.52 Y91.87;
G1 X119.49 Y92.02;
G1 X119.47 Y92.25;
G1 X119.45 Y92.53;
G1 X119.43 Y92.88;
G1 X119.43 Y92.94;
G1 X119.41 Y94.14;
G1 X119.41 Y94.65;
G1 X119.42 Y95.01;
G1 X119.43 Y95.27;
G1 X119.44 Y95.38;
G1 X119.46 Y95.98;
G1 X119.43 Y96.55;
G1 X119.34 Y97.1;
G1 X119.2 Y97.61;
G1 X119.02 Y98.07;
G1 X118.82 Y98.46;
G1 X118.61 Y98.76;
G1 X118.4 Y98.99;
G1 X118.19 Y99.13;
G1 X117.99 Y99.2;
G1 X117.79 Y99.19;
G1 X117.62 Y99.11;
G1 X117.46 Y98.96;
G1 X117.32 Y98.76;
G1 X117.2 Y98.49;
G1 X117.18 Y98.45;
G1 X117.04 Y98.17;
G1 X116.84 Y97.94;
G1 X116.59 Y97.75;
G1 X116.29 Y97.6;
G1 X115.97 Y97.5;
G1 X115.62 Y97.44;
G1 X115.26 Y97.42;
G1 X114.9 Y97.44;
G1 X114.55 Y97.5;
G1 X114.21 Y97.6;
G1 X113.9 Y97.73;
G1 X113.62 Y97.9;
G1 X113.39 Y98.11;
G1 X113.21 Y98.34;
G1 X113.09 Y98.61;
G1 X113.05 Y98.88;
G1 X113.05 Y98.92;
G1 X113.04 Y99.31;
G1 X113.02 Y99.63;
G1 X112.99 Y99.88;
G1 X112.95 Y100.07;
G1 X112.9 Y100.19;
G1 X112.84 Y100.26;
G1 X112.78 Y100.27;
G1 X112.71 Y100.23;
G1 X112.64 Y100.14;
G1 X112.57 Y100.0;
G1 X112.51 Y99.82;
G1 X112.45 Y99.59;
G1 X112.39 Y99.33;
G1 X112.34 Y99.02;
G1 X112.29 Y98.68;
G1 X112.26 Y98.31;
G1 X112.24 Y97.91;
G1 X112.23 Y97.64;
G1 X112.21 Y96.92;
G1 X112.17 Y96.14;
G1 X112.12 Y95.36;
G1 X112.05 Y94.61;
G1 X111.98 Y93.98;
G1 X111.92 Y93.52;
G1 X111.88 Y93.25;
G1 X111.81 Y92.88;
G1 X111.75 Y92.58;
G1 X111.69 Y92.34;
G1 X111.63 Y92.17;
G1 X111.57 Y92.06;
G1 X111.51 Y92.01;
G1 X111.44 Y92.02;
G1 X111.37 Y92.08;
G1 X111.3 Y92.21;
G1 X111.21 Y92.39;
G1 X111.12 Y92.61;
G1 X111.02 Y92.87;
G1 X110.94 Y93.03;
G1 X110.88 Y93.14;
G1 X110.84 Y93.17;
G1 X110.81 Y93.14;
G1 X110.8 Y93.04;
G1 X110.8 Y92.88;
G1 X110.81 Y92.64;
G1 X110.84 Y92.33;
G1 X110.88 Y92.01;
G1 X110.91 Y91.58;
G1 X110.9 Y91.21;
G1 X110.86 Y90.89;
G1 X110.78 Y90.63;
G1 X110.69 Y90.43;
G1 X110.57 Y90.29;
G1 X110.44 Y90.22;
G1 X110.3 Y90.21;
G1 X110.16 Y90.28;
G1 X110.02 Y90.42;
G1 X109.88 Y90.64;
G1 X109.77 Y90.9;
G1 X109.67 Y91.23;
G1 X109.63 Y91.41;
G1 X109.58 Y91.73;
G1 X109.56 Y91.95;
G1 X109.58 Y92.12;
G1 X109.62 Y92.2;
G1 X109.68 Y92.22;
G1 X109.76 Y92.16;
G1 X109.79 Y92.13;
G1 X109.88 Y92.06;
G1 X109.97 Y92.07;
G1 X110.06 Y92.15;
G1 X110.14 Y92.29;
G1 X110.22 Y92.48;
G1 X110.29 Y92.72;
G1 X110.35 Y93.01;
G1 X110.41 Y93.33;
G1 X110.46 Y93.67;
G1 X110.5 Y94.04;
G1 X110.53 Y94.42;
G1 X110.55 Y94.81;
G1 X110.55 Y95.19;
G1 X110.55 Y95.57;
G1 X110.53 Y95.94;
G1 X110.5 Y96.29;
G1 X110.46 Y96.6;
G1 X110.4 Y96.88;
G1 X110.33 Y97.12;
G1 X110.3 Y97.21;
G1 X110.16 Y97.57;
G1 X110.05 Y97.98;
G1 X109.97 Y98.41;
G1 X109.93 Y98.85;
G1 X109.92 Y99.25;
G1 X109.93 Y99.48;
G1 X109.93 Y99.73;
G1 X109.88 Y99.94;
G1 X109.75 Y100.12;
G1 X109.57 Y100.26;
G1 X109.32 Y100.38;
G1 X109.0 Y100.47;
G1 X108.64 Y100.53;
G1 X108.21 Y100.58;
G1 X107.71 Y100.62;
G1 X107.13 Y100.64;
G1 X106.54 Y100.65;
G1 X106.39 Y100.65;
G1 X105.68 Y100.65;
G1 X105.05 Y100.65;
G1 X104.48 Y100.64;
G1 X103.97 Y100.62;
G1 X103.52 Y100.59;
G1 X103.12 Y100.55;
G1 X102.77 Y100.49;
G1 X102.45 Y100.4;
G1 X102.18 Y100.3;
G1 X101.93 Y100.17;
G1 X101.72 Y100.01;
G1 X101.52 Y99.82;
G1 X101.34 Y99.6;
G1 X101.18 Y99.34;
G1 X101.02 Y99.04;
G1 X100.87 Y98.7;
G1 X100.71 Y98.31;
G1 X100.55 Y97.88;
G1 X100.38 Y97.39;
G1 X100.3 Y97.18;
G1 X100.08 Y96.52;
G1 X99.88 Y95.93;
G1 X99.71 Y95.4;
G1 X99.57 Y94.94;
G1 X99.45 Y94.54;
G1 X99.37 Y94.2;
G1 X99.31 Y93.93;
G1 X99.29 Y93.72;
G1 X99.29 Y93.57;
G1 X99.33 Y93.49;
G1 X99.39 Y93.48;
G1 X99.48 Y93.53;
G1 X99.6 Y93.64;
G1 X99.63 Y93.68;
G1 X99.7 Y93.73;
G1 X99.77 Y93.71;
G1 X99.83 Y93.64;
G1 X99.88 Y93.51;
G1 X99.92 Y93.33;
G1 X99.96 Y93.1;
G1 X99.98 Y92.84;
G1 X99.99 Y92.53;
G1 X99.99 Y92.46;
G1 X99.98 Y92.12;
G1 X99.96 Y91.84;
G1 X99.93 Y91.63;
G1 X99.88 Y91.48;
G1 X99.82 Y91.4;
G1 X99.75 Y91.4;
G1 X99.67 Y91.46;
G1 X99.58 Y91.59;
G1 X99.56 Y91.64;
G1 X99.46 Y91.77;
G1 X99.36 Y91.83;
G1 X99.25 Y91.81;
G1 X99.14 Y91.73;
G1 X99.02 Y91.57;
G1 X98.89 Y91.34;
G1 X98.77 Y91.05;
G1 X98.64 Y90.69;
G1 X98.51 Y90.27;
G1 X98.51 Y90.24;
G1 X98.34 Y89.65;
G1 X98.21 Y89.12;
G1 X98.1 Y88.65;
G1 X98.02 Y88.24;
G1 X97.96 Y87.87;
G1 X97.94 Y87.53;
G1 X97.94 Y87.22;
G1 X97.97 Y86.93;
G1 X98.03 Y86.64;
G1 X98.12 Y86.35;
G1 X98.24 Y86.06;
G1 X98.39 Y85.74;
G1 X98.56 Y85.4;
G1 X98.61 Y85.3;
G1 X98.79 Y84.95;
G1 X98.91 Y84.65;
G1 X98.98 Y84.4;
G1 X98.99 Y84.21;
G1 X98.95 Y84.07;
G1 X98.86 Y84.0;
G1 X98.72 Y83.97;
G1 X98.53 Y84.01;
G1 X98.29 Y84.11;
G1 X98.01 Y84.27;
G1 X97.7 Y84.48;
G1 X97.48 Y84.67;
G1 X97.31 Y84.92;
G1 X97.17 Y85.23;
G1 X97.07 Y85.58;
G1 X97.02 Y85.98;
G1 X97.0 Y86.44;
G1 X97.03 Y86.94;
G1 X97.09 Y87.48;
G1 X97.2 Y88.08;
G1 X97.35 Y88.71;
G1 X97.52 Y89.36;
G1 X97.66 Y89.9;
G1 X97.79 Y90.49;
G1 X97.89 Y91.14;
G1 X97.98 Y91.83;
G1 X98.05 Y92.55;
G1 X98.1 Y93.28;
G1 X98.13 Y94.01;
G1 X98.15 Y94.73;
G1 X98.14 Y95.43;
G1 X98.12 Y96.1;
G1 X98.07 Y96.71;
G1 X98.01 Y97.27;
G1 X97.93 Y97.72;
G1 X97.84 Y98.09;
G1 X97.75 Y98.35;
G1 X97.63 Y98.59;
G1 X97.52 Y98.77;
G1 X97.42 Y98.87;
G1 X97.31 Y98.9;
G1 X97.19 Y98.86;
G1 X97.07 Y98.74;
G1 X96.95 Y98.57;
G1 X96.81 Y98.33;
G1 X96.67 Y98.02;
G1 X96.5 Y97.64;
G1 X96.44 Y97.49;
G1 X96.26 Y97.09;
G1 X96.1 Y96.76;
G1 X95.96 Y96.53;
G1 X95.85 Y96.36;
G1 X95.75 Y96.27;
G1 X95.68 Y96.25;
G1 X95.63 Y96.3;
G1 X95.61 Y96.42;
G1 X95.61 Y96.48;
G1 X95.62 Y96.71;
G1 X95.66 Y96.99;
G1 X95.74 Y97.33;
G1 X95.84 Y97.71;
G1 X95.96 Y98.11;
G1 X96.1 Y98.52;
G1 X96.25 Y98.94;
G1 X96.42 Y99.35;
G1 X96.46 Y99.44;
G1 X96.65 Y99.85;
G1 X96.82 Y100.19;
G1 X96.98 Y100.46;
G1 X97.13 Y100.66;
G1 X97.28 Y100.8;
G1 X97.42 Y100.87;
G1 X97.55 Y100.88;
G1 X97.69 Y100.83;
G1 X97.82 Y100.71;
G1 X97.95 Y100.55;
G1 X98.21 Y100.25;
G1 X98.49 Y100.02;
G1 X98.79 Y99.86;
G1 X99.09 Y99.77;
G1 X99.37 Y99.75;
G1 X99.62 Y99.8;
G1 X99.82 Y99.9;
G1 X99.98 Y100.05;
G1 X100.07 Y100.24;
G1 X100.11 Y100.48;
G1 X100.11 Y100.63;
G1 X100.07 Y100.84;
G1 X99.96 Y101.02;
G1 X99.82 Y101.15;
G1 X99.64 Y101.23;
G1 X99.42 Y101.25;
G1 X99.19 Y101.22;
G1 X99.15 Y101.21;
G1 X98.92 Y101.16;
G1 X98.74 Y101.17;
G1 X98.6 Y101.24;
G1 X98.52 Y101.36;
G1 X98.49 Y101.52;
G1 X98.52 Y101.73;
G1 X98.53 Y101.77;
G1 X98.6 Y101.87;
G1 X98.75 Y101.97;
G1 X98.96 Y102.06;
G1 X99.23 Y102.14;
G1 X99.57 Y102.22;
G1 X99.97 Y102.29;
G1 X100.42 Y102.35;
G1 X100.93 Y102.41;
G1 X101.49 Y102.46;
G1 X102.1 Y102.49;
G1 X102.75 Y102.53;
G1 X103.44 Y102.55;
G1 X104.17 Y102.56;
G1 X104.94 Y102.56;
G1 X105.4 Y102.56;
G1 X106.82 Y102.56;
G1 X107.94 Y102.59;
G1 X108.9 Y102.62;
G1 X109.69 Y102.67;
G1 X110.36 Y102.72;
G1 X110.95 Y102.78;
G1 X111.42 Y102.84;
G1 X111.82 Y102.9;
G1 X112.11 Y102.96;
G1 X112.33 Y103.03;
G1 X112.48 Y103.1;
G1 X112.54 Y103.14;
G1 X112.68 Y103.26;
G1 X112.85 Y103.32;
G1 X113.04 Y103.32;
G1 X113.23 Y103.26;
G1 X113.41 Y103.14;
G1 X113.59 Y102.97;
G1 X113.72 Y102.8;
G1 X113.89 Y102.56;
G1 X114.02 Y102.41;
G1 X114.15 Y102.33;
G1 X114.26 Y102.32;
G1 X114.37 Y102.37;
G1 X114.48 Y102.49;
G1 X114.58 Y102.69;
G1 X114.68 Y102.95;
G1 X114.79 Y103.27;
G1 X114.9 Y103.58;
G1 X115.02 Y103.82;
G1 X115.14 Y104.0;
G1 X115.28 Y104.12;
G1 X115.41 Y104.18;
G1 X115.55 Y104.18;
G1 X115.68 Y104.13;
G1 X115.8 Y104.02;
G1 X115.92 Y103.87;
G1 X116.02 Y103.66;
G1 X116.11 Y103.41;
G1 X116.18 Y103.11;
G1 X116.23 Y102.78;
G1 X116.26 Y102.4;
G1 X116.26 Y102.16;
G1 X116.27 Y101.83;
G1 X116.28 Y101.58;
G1 X116.31 Y101.4;
G1 X116.35 Y101.3;
G1 X116.41 Y101.27;
G1 X116.49 Y101.31;
G1 X116.59 Y101.41;
G1 X116.71 Y101.58;
G1 X116.86 Y101.81;
G1 X117.04 Y102.11;
G1 X117.13 Y102.26;
G1 X117.34 Y102.59;
G1 X117.51 Y102.84;
G1 X117.67 Y103.03;
G1 X117.8 Y103.14;
G1 X117.91 Y103.18;
G1 X118.0 Y103.15;
G1 X118.08 Y103.05;
G1 X118.14 Y102.89;
G1 X118.2 Y102.66;
G1 X118.2 Y102.64;
G1 X118.28 Y102.42;
G1 X118.43 Y102.21;
G1 X118.63 Y102.04;
G1 X118.9 Y101.88;
G1 X119.24 Y101.73;
G1 X119.65 Y101.59;
G1 X120.1 Y101.47;
G1 X120.62 Y101.37;
G1 X121.2 Y101.27;
G1 X121.86 Y101.17;
G1 X122.59 Y101.09;
G1 X123.33 Y101.01;
G1 X124.14 Y100.94;
G1 X125.01 Y100.87;
G1 X125.96 Y100.81;
G1 X126.6 Y100.77;
G1 X127.08 Y100.73;
G1 X127.5 Y100.69;
G1 X127.84 Y100.62;
G1 X128.12 Y100.54;
G1 X128.35 Y100.44;
G1 X128.52 Y100.31;
G1 X128.63 Y100.14;
G1 X128.72 Y99.95;
G1 X128.77 Y99.72;
G1 X128.78 Y99.44;
G1 X128.76 Y99.14;
G1 X128.74 Y98.68;
G1 X128.77 Y98.3;
G1 X128.82 Y98.02;
G1 X128.9 Y97.81;
G1 X128.99 Y97.69;
G1 X129.09 Y97.64;
G1 X129.1 Y97.64;
G1 X129.22 Y97.68;
G1 X129.32 Y97.78;
G1 X129.41 Y97.94;
G1 X129.49 Y98.15;
G1 X129.54 Y98.4;
G1 X129.57 Y98.68;
G1 X129.58 Y98.92;
G1 X129.61 Y99.29;
G1 X129.66 Y99.6;
G1 X129.77 Y99.84;
G1 X129.9 Y100.01;
G1 X130.07 Y100.13;
G1 X130.26 Y100.19;
G1 X130.47 Y100.2;
G1 X130.69 Y100.14;
G1 X130.94 Y100.03;
G1 X131.19 Y99.87;
G1 X131.44 Y99.66;
G1 X131.69 Y99.4;
G1 X131.94 Y99.09;
G1 X132.19 Y98.73;
G1 X132.41 Y98.32;
G1 X132.63 Y97.87;
G1 X132.65 Y97.85;
G1 X133.68 Y95.5;
G1 X133.71 Y97.64;
G1 X133.72 Y98.07;
G1 X133.72 Y98.42;
G1 X133.75 Y98.69;
G1 X133.78 Y98.89;
G1 X133.82 Y99.02;
G1 X133.86 Y99.08;
G1 X133.91 Y99.06;
G1 X133.97 Y98.98;
G1 X134.05 Y98.82;
G1 X134.13 Y98.61;
G1 X134.22 Y98.32;
G1 X134.32 Y98.11;
G1 X134.38 Y97.96;
G1 X134.46 Y97.89;
G1 X134.52 Y97.88;
G1 X134.57 Y97.95;
G1 X134.62 Y98.1;
G1 X134.68 Y98.31;
G1 X134.72 Y98.6;
G1 X134.72 Y98.61;
G1 X134.8 Y98.9;
G1 X134.87 Y99.12;
G1 X134.94 Y99.27;
G1 X135.06 Y99.34;
G1 X135.19 Y99.34;
G1 X135.34 Y99.28;
G1 X135.52 Y99.16;
G1 X135.74 Y98.97;
G1 X136.0 Y98.73;
G1 X136.13 Y98.6;
G1 X136.46 Y98.23;
G1 X136.72 Y97.81;
G1 X136.94 Y97.37;
G1 X137.06 Y96.98;
G1 X137.11 Y96.65;
G1 X137.1 Y96.38;
G1 X137.09 Y96.34;
G1 X137.04 Y95.94;
G1 X137.05 Y95.57;
G1 X137.11 Y95.25;
G1 X137.21 Y94.97;
G1 X137.34 Y94.74;
G1 X137.5 Y94.58;
G1 X137.69 Y94.49;
G1 X137.86 Y94.48;
G1 X138.04 Y94.53;
G1 X138.19 Y94.65;
G1 X138.36 Y94.84;
G1 X138.44 Y94.98;
G1 X138.58 Y95.26;
G1 X138.66 Y95.48;
G1 X138.71 Y95.66;
G1 X138.69 Y95.79;
G1 X138.63 Y95.87;
G1 X138.53 Y95.92;
G1 X138.4 Y95.93;
G1 X138.28 Y95.97;
G1 X138.16 Y96.08;
G1 X138.08 Y96.26;
G1 X137.99 Y96.5;
G1 X137.93 Y96.78;
G1 X137.88 Y97.11;
G1 X137.85 Y97.46;
G1 X137.85 Y97.64;
G1 X137.83 Y98.07;
G1 X137.79 Y98.43;
G1 X137.69 Y98.74;
G1 X137.59 Y98.98;
G1 X137.44 Y99.16;
G1 X137.26 Y99.28;
G1 X137.05 Y99.34;
G1 X136.93 Y99.35;
G1 X136.66 Y99.39;
G1 X136.44 Y99.48;
G1 X136.25 Y99.63;
G1 X136.11 Y99.83;
G1 X136.03 Y100.05;
G1 X136.01 Y100.21;
G1 X136.03 Y100.49;
G1 X136.07 Y100.71;
G1 X136.15 Y100.87;
G1 X136.26 Y100.97;
G1 X136.41 Y101.01;
G1 X136.6 Y100.98;
G1 X136.84 Y100.9;
G1 X137.12 Y100.75;
G1 X137.41 Y100.56;
G1 X137.77 Y100.31;
G1 X138.16 Y100.02;
G1 X138.27 Y99.94;
G1 X138.69 Y99.56;
G1 X139.01 Y99.21;
G1 X139.22 Y98.9;
G1 X139.36 Y98.65;
G1 X139.41 Y98.44;
G1 X139.41 Y98.28;
G1 X139.38 Y98.23;
G1 X139.32 Y98.03;
G1 X139.31 Y97.86;
G1 X139.38 Y97.73;
G1 X139.49 Y97.66;
G1 X139.61 Y97.64;
G1 X139.78 Y97.68;
G1 X139.91 Y97.77;
G1 X140.04 Y97.92;
G1 X140.12 Y98.11;
G1 X140.15 Y98.33;
G1 X140.15 Y98.35;
G1 X140.18 Y98.57;
G1 X140.27 Y98.77;
G1 X140.41 Y98.92;
G1 X140.59 Y99.02;
G1 X140.79 Y99.07;
G1 X140.81 Y99.07;
G1 X141.05 Y99.03;
G1 X141.25 Y98.93;
G1 X141.38 Y98.8;
G1 X141.44 Y98.64;
G1 X141.44 Y98.57;
G1 X141.41 Y97.88;
G1 X141.43 Y97.32;
G1 X141.47 Y96.82;
G1 X141.53 Y96.39;
G1 X141.62 Y96.03;
G1 X141.72 Y95.76;
G1 X141.85 Y95.56;
G1 X141.99 Y95.43;
G1 X142.15 Y95.37;
G1 X142.21 Y95.36;
G1 X142.46 Y95.39;
G1 X142.65 Y95.47;
G1 X142.78 Y95.6;
G1 X142.86 Y95.78;
G1 X142.87 Y96.01;
G1 X142.84 Y96.29;
G1 X142.74 Y96.63;
G1 X142.58 Y97.01;
G1 X142.37 Y97.43;
G1 X142.36 Y97.46;
G1 X142.19 Y97.8;
G1 X142.07 Y98.1;
G1 X142.0 Y98.36;
G1 X141.97 Y98.57;
G1 X142.01 Y98.75;
G1 X142.09 Y98.88;
G1 X142.22 Y98.96;
G1 X142.38 Y99.01;
G1 X142.61 Y99.01;
G1 X142.87 Y98.96;
G1 X143.18 Y98.88;
G1 X143.53 Y98.74;
G1 X143.93 Y98.57;
G1 X144.37 Y98.35;
G1 X144.65 Y98.2;
G1 X145.15 Y97.94;
G1 X145.71 Y97.68;
G1 X146.31 Y97.41;
G1 X146.94 Y97.16;
G1 X147.59 Y96.92;
G1 X148.22 Y96.7;
G1 X148.83 Y96.51;
G1 X149.38 Y96.36;
G1 X149.51 Y96.33;
G1 X150.18 Y96.15;
G1 X150.72 Y95.95;
G1 X151.21 Y95.73;
G1 X151.57 Y95.51;
G1 X151.82 Y95.32;
G1 X151.97 Y95.14;
G1 X152.07 Y94.97;
G1 X152.09 Y94.87;
G1 X152.1 Y94.67;
G1 X152.13 Y94.53;
G1 X152.21 Y94.47;
G1 X152.3 Y94.49;
G1 X152.41 Y94.58;
G1 X152.55 Y94.74;
G1 X152.68 Y94.92;
G1 X152.85 Y95.14;
G1 X153.03 Y95.29;
G1 X153.21 Y95.37;
G1 X153.41 Y95.38;
G1 X153.6 Y95.33;
G1 X153.79 Y95.2;
G1 X153.94 Y95.05;
G1 X154.16 Y94.84;
G1 X154.43 Y94.7;
G1 X154.71 Y94.62;
G1 X154.99 Y94.6;
G1 X155.27 Y94.65;
G1 X155.41 Y94.73;
G1 X155.62 Y94.82;
G1 X155.79 Y94.84;
G1 X155.93 Y94.8;
G1 X156.05 Y94.71;
G1 X156.13 Y94.54;
G1 X156.19 Y94.32;
G1 X156.22 Y94.04;
G1 X156.22 Y93.88;
G1 X156.24 Y93.57;
G1 X156.28 Y93.32;
G1 X156.34 Y93.13;
G1 X156.44 Y93.01;
G1 X156.56 Y92.95;
G1 X156.69 Y92.96;
G1 X156.87 Y93.03;
G1 X156.96 Y93.09;
G1 X157.13 Y93.18;
G1 X157.33 Y93.2;
G1 X157.52 Y93.16;
G1 X157.69 Y93.06;
G1 X157.85 Y92.9;
G1 X157.99 Y92.68;
G1 X158.07 Y92.48;
G1 X158.16 Y92.2;
G1 X158.27 Y91.99;
G1 X158.36 Y91.85;
G1 X158.46 Y91.78;
G1 X158.57 Y91.77;
G1 X158.69 Y91.84;
G1 X158.82 Y91.97;
G1 X158.97 Y92.17;
G1 X159.16 Y92.44;
G1 X159.16 Y92.46;
G1 X159.36 Y92.71;
G1 X159.53 Y92.91;
G1 X159.69 Y93.04;
G1 X159.85 Y93.1;
G1 X160.0 Y93.1;
G1 X160.15 Y93.04;
G1 X160.3 Y92.91;
G1 X160.44 Y92.72;
G1 X160.47 Y92.67;
G1 X160.63 Y92.5;
G1 X160.84 Y92.32;
G1 X161.11 Y92.14;
G1 X161.43 Y91.95;
G1 X161.79 Y91.77;
G1 X162.18 Y91.6;
G1 X162.6 Y91.44;
G1 X163.03 Y91.29;
G1 X163.47 Y91.17;
G1 X163.5 Y91.16;
G1 X164.15 Y90.97;
G1 X164.77 Y90.71;
G1 X165.36 Y90.42;
G1 X165.82 Y90.12;
G1 X166.17 Y89.84;
G1 X166.42 Y89.59;
G1 X166.58 Y89.36;
G1 X166.74 Y89.08;
G1 X166.91 Y88.86;
G1 X167.08 Y88.71;
G1 X167.25 Y88.63;
G1 X167.43 Y88.61;
G1 X167.61 Y88.66;
G1 X167.81 Y88.77;
G1 X168.01 Y88.94;
G1 X168.06 Y88.99;
G1 X168.32 Y89.2;
G1 X168.58 Y89.33;
G1 X168.83 Y89.39;
G1 X169.08 Y89.36;
G1 X169.3 Y89.28;
G1 X169.49 Y89.12;
G1 X169.57 Y89.04;
G1 X169.83 Y88.78;
G1 X170.14 Y88.57;
G1 X170.46 Y88.42;
G1 X170.81 Y88.32;
G1 X171.16 Y88.28;
G1 X171.51 Y88.29;
G1 X171.85 Y88.35;
G1 X172.18 Y88.46;
G1 X172.49 Y88.62;
G1 X172.76 Y88.83;
G1 X172.98 Y89.09;
G1 X173.16 Y89.4;
G1 X173.17 Y89.41;
G1 X173.3 Y89.73;
G1 X173.38 Y90.0;
G1 X173.4 Y90.23;
G1 X173.37 Y90.42;
G1 X173.27 Y90.58;
G1 X173.12 Y90.73;
G1 X172.9 Y90.86;
G1 X172.61 Y90.98;
G1 X172.54 Y91.01;
G1 X172.21 Y91.09;
G1 X171.92 Y91.11;
G1 X171.7 Y91.07;
G1 X171.53 Y90.98;
G1 X171.42 Y90.85;
G1 X171.38 Y90.69;
G1 X171.38 Y90.66;
G1 X171.36 Y90.55;
G1 X171.29 Y90.48;
G1 X171.19 Y90.47;
G1 X171.05 Y90.49;
G1 X170.88 Y90.57;
G1 X170.68 Y90.68;
G1 X170.46 Y90.84;
G1 X170.22 Y91.03;
G1 X169.97 Y91.26;
G1 X169.96 Y91.27;
G1 X169.57 Y91.6;
G1 X169.13 Y91.91;
G1 X168.65 Y92.18;
G1 X168.16 Y92.42;
G1 X167.67 Y92.61;
G1 X167.2 Y92.74;
G1 X166.85 Y92.79;
G1 X166.22 Y92.88;
G1 X165.75 Y92.99;
G1 X165.39 Y93.11;
G1 X165.16 Y93.22;
G1 X165.02 Y93.32;
G1 X164.95 Y93.41;
G1 X164.84 Y93.56;
G1 X164.66 Y93.72;
G1 X164.41 Y93.89;
G1 X164.11 Y94.07;
G1 X163.76 Y94.26;
G1 X163.38 Y94.44;
G1 X162.97 Y94.62;
G1 X162.54 Y94.79;
G1 X162.1 Y94.96;
G1 X161.66 Y95.11;
G1 X161.24 Y95.24;
G1 X160.84 Y95.35;
G1 X160.46 Y95.44;
G1 X160.13 Y95.5;
G1 X159.84 Y95.53;
G1 X159.61 Y95.52;
G1 X159.44 Y95.49;
G1 X159.38 Y95.43;
G1 X159.24 Y95.33;
G1 X159.08 Y95.31;
G1 X158.9 Y95.35;
G1 X158.72 Y95.45;
G1 X158.53 Y95.61;
G1 X158.36 Y95.83;
G1 X158.33 Y95.87;
G1 X158.18 Y96.05;
G1 X157.96 Y96.21;
G1 X157.68 Y96.37;
G1 X157.34 Y96.53;
G1 X156.97 Y96.66;
G1 X156.56 Y96.78;
G1 X156.12 Y96.89;
G1 X155.66 Y96.96;
G1 X155.19 Y97.01;
G1 X155.18 Y97.02;
G1 X154.59 Y97.09;
G1 X154.07 Y97.19;
G1 X153.66 Y97.31;
G1 X153.35 Y97.44;
G1 X153.11 Y97.58;
G1 X152.97 Y97.72;
G1 X152.9 Y97.86;
G1 X152.9 Y98.0;
G1 X152.94 Y98.18;
G1 X152.93 Y98.32;
G1 X152.87 Y98.39;
G1 X152.77 Y98.41;
G1 X152.62 Y98.38;
G1 X152.44 Y98.28;
G1 X152.41 Y98.25;
G1 X152.21 Y98.14;
G1 X152.0 Y98.1;
G1 X151.81 Y98.12;
G1 X151.63 Y98.2;
G1 X151.5 Y98.34;
G1 X151.38 Y98.53;
G1 X151.37 Y98.57;
G1 X151.25 Y98.83;
G1 X151.07 Y99.04;
G1 X150.85 Y99.19;
G1 X150.6 Y99.27;
G1 X150.38 Y99.27;
G1 X150.33 Y99.26;
G1 X150.03 Y99.23;
G1 X149.69 Y99.26;
G1 X149.36 Y99.34;
G1 X149.05 Y99.47;
G1 X148.87 Y99.57;
G1 X148.65 Y99.7;
G1 X148.35 Y99.85;
G1 X148.0 Y100.0;
G1 X147.58 Y100.15;
G1 X147.13 Y100.31;
G1 X146.63 Y100.47;
G1 X146.12 Y100.63;
G1 X145.58 Y100.79;
G1 X145.04 Y100.93;
G1 X144.5 Y101.07;
G1 X143.97 Y101.2;
G1 X143.46 Y101.32;
G1 X142.97 Y101.42;
G1 X142.53 Y101.5;
G1 X142.13 Y101.56;
G1 X141.79 Y101.59;
G1 X141.51 Y101.61;
G1 X141.32 Y101.6;
G1 X141.19 Y101.56;
G1 X141.16 Y101.52;
G1 X141.07 Y101.43;
G1 X140.96 Y101.4;
G1 X140.82 Y101.44;
G1 X140.66 Y101.53;
G1 X140.51 Y101.69;
G1 X140.41 Y101.81;
G1 X140.32 Y101.91;
G1 X140.16 Y102.02;
G1 X139.94 Y102.14;
G1 X139.66 Y102.26;
G1 X139.34 Y102.4;
G1 X138.97 Y102.54;
G1 X138.56 Y102.68;
G1 X138.11 Y102.82;
G1 X137.63 Y102.97;
G1 X137.12 Y103.11;
G1 X136.58 Y103.25;
G1 X136.03 Y103.39;
G1 X135.47 Y103.52;
G1 X135.32 Y103.55;
G1 X133.36 Y103.99;
G1 X132.3 Y104.23;
G1 X131.5 Y104.42;
G1 X130.84 Y104.58;
G1 X130.32 Y104.71;
G1 X129.91 Y104.81;
G1 X129.62 Y104.89;
G1 X129.38 Y104.95;
G1 X129.38 Y104.96;
G1 X129.22 Y104.99;
G1 X129.0 Y105.03;
G1 X128.69 Y105.07;
G1 X128.33 Y105.12;
G1 X127.89 Y105.16;
G1 X127.39 Y105.21;
G1 X126.84 Y105.26;
G1 X126.22 Y105.31;
G1 X125.56 Y105.36;
G1 X124.85 Y105.42;
G1 X124.1 Y105.47;
G1 X123.31 Y105.53;
G1 X122.48 Y105.58;
G1 X121.62 Y105.63;
G1 X120.73 Y105.69;
G1 X119.81 Y105.74;
G1 X118.88 Y105.79;
G1 X117.93 Y105.84;
G1 X116.96 Y105.89;
G1 X116.57 Y105.91;
G1 X115.48 Y105.96;
G1 X114.47 Y106.01;
G1 X113.52 Y106.05;
G1 X112.64 Y106.09;
G1 X111.82 Y106.12;
G1 X111.07 Y106.15;
G1 X110.37 Y106.18;
G1 X109.73 Y106.19;
G1 X109.14 Y106.2;
G1 X108.61 Y106.21;
G1 X108.13 Y106.21;
G1 X107.69 Y106.2;
G1 X107.3 Y106.19;
G1 X106.96 Y106.17;
G1 X106.65 Y106.14;
G1 X106.38 Y106.11;
G1 X106.15 Y106.07;
G1 X105.96 Y106.02;
G1 X105.79 Y105.96;
G1 X105.66 Y105.9;
G1 X105.55 Y105.83;
G1 X105.47 Y105.75;
G1 X105.41 Y105.66;
G1 X105.37 Y105.56;
G1 X105.35 Y105.46;
G1 X105.34 Y105.35;
G1 X105.35 Y105.22;
G1 X105.37 Y105.09;
G1 X105.38 Y105.04;
G1 X105.45 Y104.71;
G1 X105.49 Y104.44;
G1 X105.51 Y104.24;
G1 X105.5 Y104.11;
G1 X105.45 Y104.04;
G1 X105.36 Y104.04;
G1 X105.24 Y104.1;
G1 X105.08 Y104.22;
G1 X104.88 Y104.39;
G1 X104.64 Y104.61;
G1 X104.35 Y104.89;
G1 X104.23 Y104.99;
G1 X103.85 Y105.33;
G1 X103.48 Y105.58;
G1 X103.11 Y105.75;
G1 X102.72 Y105.87;
G1 X102.31 Y105.94;
G1 X101.84 Y105.98;
G1 X101.34 Y105.99;
G1 X100.82 Y105.98;
G1 X100.23 Y105.95;
G1 X99.63 Y105.91;
G1 X98.96 Y105.85;
G1 X98.22 Y105.77;
G1 X97.48 Y105.68;
G1 X96.67 Y105.59;
G1 X95.79 Y105.48;
G1 X94.95 Y105.37;
G1 X93.46 Y105.16;
G1 X91.93 Y104.91;
G1 X90.4 Y104.62;
G1 X88.89 Y104.32;
G1 X87.45 Y104.0;
G1 X86.32 Y103.73;
G1 X85.37 Y103.49;
G1 X84.57 Y103.27;
G1 X83.92 Y103.08;
G1 X83.34 Y102.9;
G1 X82.88 Y102.74;
G1 X82.49 Y102.59;
G1 X82.21 Y102.47;
G1 X82.0 Y102.36;
G1 X81.86 Y102.25;
G1 X81.8 Y102.17;
G1 X81.81 Y102.1;
G1 X81.9 Y102.05;
G1 X82.06 Y102.0;
G1 X82.16 Y101.99;
G1 X82.32 Y101.93;
G1 X82.47 Y101.81;
G1 X82.59 Y101.64;
G1 X82.68 Y101.42;
G1 X82.73 Y101.17;
G1 X82.74 Y101.01;
G1 X82.72 Y100.75;
G1 X82.67 Y100.58;
G1 X82.61 Y100.47;
G1 X82.52 Y100.43;
G1 X82.43 Y100.47;
G1 X82.37 Y100.53;
G1 X82.25 Y100.61;
G1 X82.1 Y100.62;
G1 X81.93 Y100.58;
G1 X81.75 Y100.48;
G1 X81.55 Y100.32;
G1 X81.37 Y100.12;
G1 X81.34 Y100.08;
G1 X81.23 Y99.91;
G1 X81.19 Y99.78;
G1 X81.2 Y99.67;
G1 X81.3 Y99.59;
G1 X81.47 Y99.54;
G1 X81.7 Y99.52;
G1 X82.01 Y99.53;
G1 X82.39 Y99.57;
G1 X82.8 Y99.63;
G1 X83.27 Y99.71;
G1 X83.35 Y99.73;
G1 X83.86 Y99.82;
G1 X84.29 Y99.9;
G1 X84.66 Y99.95;
G1 X84.96 Y99.98;
G1 X85.21 Y99.99;
G1 X85.39 Y99.97;
G1 X85.52 Y99.92;
G1 X85.6 Y99.85;
G1 X85.63 Y99.74;
G1 X85.63 Y99.61;
G1 X85.58 Y99.44;
G1 X85.49 Y99.24;
G1 X85.37 Y99.01;
G1 X85.34 Y98.94;
G1 X85.13 Y98.63;
G1 X84.86 Y98.34;
G1 X84.54 Y98.09;
G1 X84.18 Y97.87;
G1 X83.8 Y97.7;
G1 X83.41 Y97.58;
G1 X83.11 Y97.54;
G1 X82.61 Y97.48;
G1 X82.07 Y97.38;
G1 X81.52 Y97.24;
G1 X80.98 Y97.07;
G1 X80.48 Y96.89;
G1 X80.05 Y96.7;
G1 X79.72 Y96.53;
G1 X79.52 Y96.4;
G1 X79.39 Y96.29;
G1 X79.34 Y96.19;
G1 X79.36 Y96.12;
G1 X79.45 Y96.06;
G1 X79.59 Y96.03;
G1 X79.8 Y95.97;
G1 X80.0 Y95.84;
G1 X80.19 Y95.67;
G1 X80.36 Y95.44;
G1 X80.5 Y95.19;
G1 X80.59 Y94.91;
G1 X80.59 Y94.86;
G1 X80.67 Y94.62;
G1 X80.73 Y94.46;
G1 X80.81 Y94.39;
G1 X80.88 Y94.38;
G1 X80.95 Y94.43;
G1 X81.05 Y94.56;
G1 X81.15 Y94.75;
G1 X81.25 Y95.01;
G1 X81.34 Y95.29;
G1 X81.55 Y95.75;
G1 X81.77 Y96.11;
G1 X81.99 Y96.38;
G1 X82.22 Y96.58;
G1 X82.43 Y96.69;
G1 X82.61 Y96.72;
G1 X82.64 Y96.72;
G1 X82.84 Y96.69;
G1 X82.98 Y96.63;
G1 X83.05 Y96.56;
G1 X83.06 Y96.47;
G1 X83.01 Y96.36;
G1 X82.88 Y96.24;
G1 X82.85 Y96.22;
G1 X82.72 Y96.08;
G1 X82.61 Y95.88;
G1 X82.51 Y95.61;
G1 X82.43 Y95.3;
G1 X82.37 Y94.95;
G1 X82.33 Y94.55;
G1 X82.31 Y94.13;
G1 X82.3 Y93.69;
G1 X82.31 Y93.24;
G1 X82.34 Y92.78;
G1 X82.39 Y92.32;
G1 X82.46 Y91.88;
G1 X82.55 Y91.44;
G1 X82.65 Y91.04;
G1 X82.72 Y90.81;
G1 X82.83 Y90.37;
G1 X82.87 Y89.92;
G1 X82.84 Y89.48;
G1 X82.74 Y89.02;
G1 X82.58 Y88.52;
G1 X82.38 Y88.03;
G1 X82.19 Y87.63;
G1 X81.93 Y87.16;
G1 X81.69 Y86.79;
G1 X81.45 Y86.49;
G1 X81.26 Y86.29;
G1 X81.11 Y86.17;
G1 X80.97 Y86.12;
G1 X80.87 Y86.14;
G1 X80.83 Y86.17;
G1 X80.72 Y86.28;
G1 X80.62 Y86.33;
G1 X80.55 Y86.31;
G1 X80.5 Y86.24;
G1 X80.45 Y86.13;
G1 X80.45 Y85.97;
G1 X80.45 Y85.79;
G1 X80.48 Y85.57;
G1 X80.52 Y85.34;
G1 X80.59 Y85.09;
G1 X80.67 Y84.84;
G1 X80.77 Y84.58;
G1 X80.88 Y84.33;
G1 X80.92 Y84.27;
G1 X81.03 Y83.99;
G1 X81.11 Y83.64;
G1 X81.15 Y83.25;
G1 X81.16 Y82.8;
G1 X81.12 Y82.3;
G1 X81.05 Y81.76;
G1 X80.97 Y81.29;
G1 X80.84 Y80.8;
G1 X80.69 Y80.37;
G1 X80.5 Y79.98;
G1 X80.29 Y79.67;
G1 X80.06 Y79.42;
G1 X79.8 Y79.23;
G1 X79.53 Y79.09;
G1 X79.23 Y79.04;
G1 X78.93 Y79.04;
G1 X78.62 Y79.11;
G1 X78.3 Y79.25;
G1 X77.97 Y79.45;
G1 X77.64 Y79.73;
G1 X77.55 Y79.81;
G1 X77.31 Y80.04;
G1 X77.15 Y80.18;
G1 X77.02 Y80.25;
G1 X76.93 Y80.26;
G1 X76.86 Y80.2;
G1 X76.81 Y80.09;
G1 X76.8 Y79.89;
G1 X76.8 Y79.64;
G1 X76.81 Y79.31;
G1 X76.84 Y78.93;
G1 X76.89 Y78.51;
G1 X76.94 Y78.02;
G1 X76.95 Y77.84;
G1 X77.0 Y77.45;
G1 X77.04 Y76.98;
G1 X77.08 Y76.47;
G1 X77.13 Y75.9;
G1 X77.17 Y75.28;
G1 X77.22 Y74.62;
G1 X77.27 Y73.93;
G1 X77.31 Y73.22;
G1 X77.34 Y72.48;
G1 X77.39 Y71.76;
G1 X77.44 Y70.95;
G1 X77.48 Y70.08;
G1 X77.51 Y69.42;
G1 X77.54 Y68.62;
G1 X77.56 Y67.88;
G1 X77.58 Y67.2;
G1 X77.59 Y66.58;
G1 X77.59 Y65.98;
G1 X77.58 Y65.44;
G1 X77.56 Y64.91;
G1 X77.53 Y64.41;
G1 X77.48 Y63.92;
G1 X77.42 Y63.44;
G1 X77.34 Y62.95;
G1 X77.26 Y62.46;
G1 X77.16 Y61.95;
G1 X77.04 Y61.41;
G1 X76.9 Y60.85;
G1 X76.75 Y60.25;
G1 X76.56 Y59.6;
G1 X76.45 Y59.16;
G1 X76.23 Y58.48;
G1 X75.94 Y57.81;
G1 X75.59 Y57.17;
G1 X75.23 Y56.57;
G1 X74.84 Y55.99;
G1 X74.45 Y55.45;
G1 X74.06 Y54.94;
G1 X73.69 Y54.48;
G1 X73.36 Y54.07;
G1 X73.08 Y53.71;
G1 X72.88 Y53.42;
G1 X72.75 Y53.2;
G1 X72.68 Y53.03;
G1 X72.67 Y52.9;
G1 X72.73 Y52.81;
G1 X72.84 Y52.77;
G1 X73.0 Y52.75;
G1 X73.2 Y52.77;
G1 X188.93 Y67.51;
S0;( end pass 1 of 1 )


( start pass 1 of 1 )
G0 X49.9 Y65.15;
S300;
G1 X49.74 Y65.48 F700;
G1 X49.56 Y65.75;
G1 X49.38 Y65.91;
G1 X49.22 Y65.98;
G1 X49.15 Y66.0;
G1 X49.03 Y65.97;
G1 X48.95 Y65.87;
G1 X48.91 Y65.72;
G1 X48.9 Y65.52;
G1 X48.93 Y65.3;
G1 X48.98 Y65.15;
G1 X49.13 Y64.8;
G1 X49.31 Y64.54;
G1 X49.49 Y64.38;
G1 X49.65 Y64.3;
G1 X49.72 Y64.29;
G1 X49.84 Y64.33;
G1 X49.92 Y64.42;
G1 X49.97 Y64.56;
G1 X49.97 Y64.77;
G1 X49.94 Y64.98;
G1 X49.9 Y65.15;
G1 X49.9 Y65.15;
S0;( end pass 1 of 1 )


( start pass 1 of 1 )
G0 X76.61 Y68.78;
S300;
G1 X76.56 Y68.94 F700;
G1 X76.53 Y69.02;
G1 X76.48 Y69.03;
G1 X76.45 Y68.97;
G1 X76.43 Y68.84;
G1 X76.41 Y68.65;
G1 X76.39 Y68.4;
G1 X76.38 Y68.09;
G1 X76.38 Y67.73;
G1 X76.38 Y67.7;
G1 X76.38 Y67.28;
G1 X76.4 Y66.95;
G1 X76.42 Y66.7;
G1 X76.45 Y66.52;
G1 X76.48 Y66.42;
G1 X76.51 Y66.39;
G1 X76.55 Y66.43;
G1 X76.59 Y66.55;
G1 X76.61 Y66.64;
G1 X76.67 Y67.02;
G1 X76.7 Y67.45;
G1 X76.7 Y67.91;
G1 X76.67 Y68.34;
G1 X76.62 Y68.73;
G1 X76.61 Y68.78;
G1 X76.61 Y68.78;
S0;( end pass 1 of 1 )


( start pass 1 of 1 )
G0 X46.97 Y68.86;
S300;
G1 X46.78 Y69.36 F700;
G1 X46.68 Y69.79;
G1 X46.65 Y70.11;
G1 X46.66 Y70.31;
G1 X46.7 Y70.45;
G1 X46.73 Y70.58;
G1 X46.71 Y70.77;
G1 X46.66 Y71.01;
G1 X46.56 Y71.27;
G1 X46.43 Y71.55;
G1 X46.27 Y71.84;
G1 X46.12 Y72.08;
G1 X45.93 Y72.34;
G1 X45.78 Y72.56;
G1 X45.67 Y72.7;
G1 X45.59 Y72.81;
G1 X45.54 Y72.84;
G1 X45.53 Y72.81;
G1 X45.55 Y72.73;
G1 X45.6 Y72.59;
G1 X45.68 Y72.38;
G1 X45.8 Y72.09;
G1 X45.93 Y71.77;
G1 X46.11 Y71.31;
G1 X46.23 Y70.94;
G1 X46.29 Y70.66;
G1 X46.31 Y70.45;
G1 X46.29 Y70.34;
G1 X46.25 Y70.28;
G1 X46.22 Y70.28;
G1 X46.16 Y70.23;
G1 X46.13 Y70.14;
G1 X46.14 Y69.98;
G1 X46.18 Y69.77;
G1 X46.25 Y69.52;
G1 X46.35 Y69.23;
G1 X46.45 Y68.98;
G1 X46.7 Y68.48;
G1 X46.88 Y68.15;
G1 X47.03 Y67.92;
G1 X47.15 Y67.78;
G1 X47.23 Y67.72;
G1 X47.25 Y67.7;
G1 X47.29 Y67.73;
G1 X47.3 Y67.84;
G1 X47.28 Y67.98;
G1 X47.23 Y68.17;
G1 X47.16 Y68.39;
G1 X47.06 Y68.64;
G1 X46.97 Y68.86;
G1 X46.97 Y68.86;
S0;( end pass 1 of 1 )


( start pass 1 of 1 )
G0 X47.15 Y75.08;
S300;
G1 X46.89 Y75.91 F700;
G1 X46.74 Y76.56;
G1 X46.66 Y77.06;
G1 X46.63 Y77.45;
G1 X46.63 Y77.73;
G1 X46.67 Y77.93;
G1 X46.67 Y77.94;
G1 X46.73 Y78.26;
G1 X46.73 Y78.59;
G1 X46.66 Y78.91;
G1 X46.54 Y79.14;
G1 X46.49 Y79.2;
G1 X46.36 Y79.34;
G1 X46.23 Y79.39;
G1 X46.12 Y79.39;
G1 X46.02 Y79.33;
G1 X45.93 Y79.22;
G1 X45.85 Y79.06;
G1 X45.79 Y78.86;
G1 X45.75 Y78.62;
G1 X45.72 Y78.34;
G1 X45.72 Y78.06;
G1 X45.73 Y77.73;
G1 X45.76 Y77.41;
G1 X45.81 Y77.06;
G1 X45.89 Y76.7;
G1 X45.94 Y76.51;
G1 X46.07 Y76.06;
G1 X46.19 Y75.56;
G1 X46.32 Y75.02;
G1 X46.44 Y74.48;
G1 X46.54 Y73.97;
G1 X46.63 Y73.51;
G1 X46.64 Y73.43;
G1 X46.73 Y73.05;
G1 X46.83 Y72.73;
G1 X46.95 Y72.53;
G1 X47.07 Y72.4;
G1 X47.18 Y72.34;
G1 X47.3 Y72.36;
G1 X47.39 Y72.44;
G1 X47.5 Y72.62;
G1 X47.57 Y72.84;
G1 X47.59 Y73.13;
G1 X47.56 Y73.47;
G1 X47.5 Y73.87;
G1 X47.39 Y74.31;
G1 X47.24 Y74.81;
G1 X47.15 Y75.08;
G1 X47.15 Y75.08;
S0;( end pass 1 of 1 )


( start pass 1 of 1 )
G0 X58.73 Y73.36;
S300;
G1 X58.61 Y73.5 F700;
G1 X58.46 Y73.56;
G1 X58.27 Y73.59;
G1 X58.07 Y73.55;
G1 X57.87 Y73.44;
G1 X57.85 Y73.43;
G1 X57.71 Y73.3;
G1 X57.64 Y73.19;
G1 X57.64 Y73.09;
G1 X57.72 Y73.01;
G1 X57.87 Y72.95;
G1 X58.08 Y72.91;
G1 X58.12 Y72.91;
G1 X58.38 Y72.91;
G1 X58.58 Y72.97;
G1 X58.71 Y73.05;
G1 X58.77 Y73.16;
G1 X58.76 Y73.3;
G1 X58.73 Y73.36;
G1 X58.73 Y73.36;
S0;( end pass 1 of 1 )


( start pass 1 of 1 )
G0 X55.98 Y74.8;
S300;
G1 X56.14 Y74.83 F700;
G1 X56.23 Y74.91;
G1 X56.27 Y75.04;
G1 X56.26 Y75.22;
G1 X56.21 Y75.45;
G1 X56.1 Y75.75;
G1 X55.96 Y76.06;
G1 X55.87 Y76.26;
G1 X55.67 Y76.73;
G1 X55.51 Y77.25;
G1 X55.38 Y77.81;
G1 X55.28 Y78.42;
G1 X55.21 Y79.05;
G1 X55.18 Y79.68;
G1 X55.17 Y80.31;
G1 X55.2 Y80.94;
G1 X55.26 Y81.54;
G1 X55.35 Y82.11;
G1 X55.47 Y82.63;
G1 X55.61 Y83.1;
G1 X55.79 Y83.51;
G1 X55.98 Y83.81;
G1 X56.13 Y83.99;
G1 X56.39 Y84.22;
G1 X56.63 Y84.38;
G1 X56.86 Y84.46;
G1 X57.09 Y84.46;
G1 X57.3 Y84.39;
G1 X57.52 Y84.26;
G1 X57.76 Y84.06;
G1 X58.01 Y83.79;
G1 X58.19 Y83.57;
G1 X58.53 Y83.1;
G1 X58.81 Y82.59;
G1 X59.02 Y82.04;
G1 X59.17 Y81.47;
G1 X59.25 Y80.88;
G1 X59.27 Y80.26;
G1 X59.22 Y79.64;
G1 X59.11 Y79.0;
G1 X58.93 Y78.36;
G1 X58.69 Y77.72;
G1 X58.39 Y77.12;
G1 X58.15 Y76.67;
G1 X57.95 Y76.27;
G1 X57.79 Y75.92;
G1 X57.67 Y75.62;
G1 X57.58 Y75.37;
G1 X57.54 Y75.15;
G1 X57.53 Y74.98;
G1 X57.56 Y74.84;
G1 X57.63 Y74.73;
G1 X57.73 Y74.65;
G1 X57.88 Y74.59;
G1 X58.06 Y74.56;
G1 X58.28 Y74.55;
G1 X58.34 Y74.55;
G1 X58.58 Y74.59;
G1 X58.81 Y74.69;
G1 X59.04 Y74.84;
G1 X59.25 Y75.05;
G1 X59.45 Y75.29;
G1 X59.63 Y75.56;
G1 X59.77 Y75.84;
G1 X59.89 Y76.14;
G1 X59.97 Y76.44;
G1 X60.01 Y76.73;
G1 X60.01 Y77.0;
G1 X59.96 Y77.25;
G1 X59.85 Y77.45;
G1 X59.81 Y77.5;
G1 X59.69 Y77.69;
G1 X59.62 Y77.95;
G1 X59.59 Y78.27;
G1 X59.6 Y78.65;
G1 X59.65 Y79.11;
G1 X59.74 Y79.62;
G1 X59.85 Y80.09;
G1 X60.0 Y80.8;
G1 X60.11 Y81.45;
G1 X60.16 Y82.06;
G1 X60.15 Y82.61;
G1 X60.1 Y83.11;
G1 X59.98 Y83.56;
G1 X59.81 Y83.96;
G1 X59.59 Y84.31;
G1 X59.31 Y84.62;
G1 X58.97 Y84.89;
G1 X58.58 Y85.12;
G1 X58.12 Y85.31;
G1 X58.1 Y85.32;
G1 X57.7 Y85.45;
G1 X57.35 Y85.54;
G1 X57.06 Y85.57;
G1 X56.79 Y85.54;
G1 X56.55 Y85.44;
G1 X56.35 Y85.29;
G1 X56.15 Y85.07;
G1 X55.94 Y84.77;
G1 X55.75 Y84.43;
G1 X55.54 Y84.02;
G1 X55.33 Y83.58;
G1 X55.1 Y83.07;
G1 X55.08 Y83.02;
G1 X54.76 Y82.27;
G1 X54.52 Y81.62;
G1 X54.35 Y81.09;
G1 X54.25 Y80.68;
G1 X54.19 Y80.36;
G1 X54.17 Y80.12;
G1 X54.18 Y79.95;
G1 X54.22 Y79.84;
G1 X54.25 Y79.83;
G1 X54.36 Y79.72;
G1 X54.46 Y79.55;
G1 X54.55 Y79.31;
G1 X54.62 Y79.04;
G1 X54.67 Y78.72;
G1 X54.7 Y78.39;
G1 X54.71 Y78.12;
G1 X54.71 Y77.78;
G1 X54.69 Y77.52;
G1 X54.67 Y77.34;
G1 X54.64 Y77.23;
G1 X54.6 Y77.2;
G1 X54.55 Y77.26;
G1 X54.49 Y77.38;
G1 X54.41 Y77.58;
G1 X54.31 Y77.84;
G1 X54.3 Y77.87;
G1 X54.23 Y78.06;
G1 X54.16 Y78.2;
G1 X54.1 Y78.23;
G1 X54.05 Y78.2;
G1 X54.02 Y78.11;
G1 X53.99 Y77.95;
G1 X53.97 Y77.72;
G1 X53.96 Y77.42;
G1 X53.95 Y77.06;
G1 X53.96 Y76.63;
G1 X53.96 Y76.36;
G1 X53.98 Y75.84;
G1 X54.0 Y75.39;
G1 X54.03 Y75.01;
G1 X54.08 Y74.7;
G1 X54.13 Y74.45;
G1 X54.19 Y74.28;
G1 X54.27 Y74.16;
G1 X54.36 Y74.09;
G1 X54.46 Y74.09;
G1 X54.58 Y74.13;
G1 X54.71 Y74.2;
G1 X55.08 Y74.45;
G1 X55.47 Y74.65;
G1 X55.78 Y74.76;
G1 X55.98 Y74.8;
G1 X55.98 Y74.8;
S0;( end pass 1 of 1 )


( start pass 1 of 1 )
G0 X54.54 Y76.42;
S300;
G1 X54.64 Y76.62 F700;
G1 X54.76 Y76.75;
G1 X54.9 Y76.8;
G1 X55.04 Y76.78;
G1 X55.17 Y76.7;
G1 X55.21 Y76.65;
G1 X55.4 Y76.42;
G1 X55.53 Y76.22;
G1 X55.6 Y76.06;
G1 X55.61 Y75.93;
G1 X55.56 Y75.83;
G1 X55.44 Y75.76;
G1 X55.27 Y75.7;
G1 X55.03 Y75.69;
G1 X54.97 Y75.69;
G1 X54.79 Y75.72;
G1 X54.65 Y75.81;
G1 X54.55 Y75.93;
G1 X54.5 Y76.09;
G1 X54.51 Y76.29;
G1 X54.54 Y76.42;
G1 X54.54 Y76.42;
S0;( end pass 1 of 1 )


( start pass 1 of 1 )
G0 X53.04 Y78.44;
S300;
G1 X52.95 Y78.79 F700;
G1 X52.86 Y79.08;
G1 X52.77 Y79.27;
G1 X52.69 Y79.38;
G1 X52.62 Y79.41;
G1 X52.56 Y79.37;
G1 X52.55 Y79.34;
G1 X52.5 Y79.2;
G1 X52.48 Y78.98;
G1 X52.49 Y78.73;
G1 X52.52 Y78.48;
G1 X52.58 Y78.2;
G1 X52.63 Y78.03;
G1 X52.74 Y77.72;
G1 X52.84 Y77.48;
G1 X52.93 Y77.31;
G1 X53.01 Y77.2;
G1 X53.07 Y77.15;
G1 X53.12 Y77.16;
G1 X53.16 Y77.23;
G1 X53.17 Y77.34;
G1 X53.17 Y77.54;
G1 X53.15 Y77.78;
G1 X53.11 Y78.06;
G1 X53.04 Y78.42;
G1 X53.04 Y78.44;
G1 X53.04 Y78.44;
S0;( end pass 1 of 1 )


( start pass 1 of 1 )
G0 X203.52 Y80.42;
S300;
G1 X204.59 Y83.3 F700;
G1 X203.48 Y82.23;
G1 X203.06 Y81.81;
G1 X202.69 Y81.43;
G1 X202.38 Y81.08;
G1 X202.11 Y80.76;
G1 X201.9 Y80.45;
G1 X201.73 Y80.18;
G1 X201.61 Y79.92;
G1 X201.53 Y79.66;
G1 X201.49 Y79.4;
G1 X201.5 Y79.15;
G1 X201.54 Y78.89;
G1 X201.61 Y78.62;
G1 X201.72 Y78.34;
G1 X201.75 Y78.27;
G1 X201.94 Y77.88;
G1 X202.09 Y77.59;
G1 X202.21 Y77.41;
G1 X202.29 Y77.31;
G1 X202.35 Y77.29;
G1 X202.37 Y77.31;
G1 X202.39 Y77.39;
G1 X202.45 Y77.53;
G1 X202.53 Y77.73;
G1 X202.62 Y78.01;
G1 X202.74 Y78.33;
G1 X202.88 Y78.69;
G1 X203.02 Y79.09;
G1 X203.18 Y79.52;
G1 X203.35 Y79.97;
G1 X203.52 Y80.42;
G1 X203.52 Y80.42;
S0;( end pass 1 of 1 )


( start pass 1 of 1 )
G0 X206.63 Y77.75;
S300;
G1 X206.39 Y77.7 F700;
G1 X206.22 Y77.68;
G1 X206.11 Y77.65;
G1 X206.07 Y77.62;
G1 X206.08 Y77.59;
G1 X206.16 Y77.56;
G1 X206.29 Y77.53;
G1 X206.49 Y77.51;
G1 X206.73 Y77.48;
G1 X207.03 Y77.47;
G1 X207.38 Y77.45;
G1 X207.79 Y77.45;
G1 X208.24 Y77.44;
G1 X208.73 Y77.43;
G1 X209.04 Y77.43;
G1 X209.57 Y77.44;
G1 X210.04 Y77.45;
G1 X210.43 Y77.47;
G1 X210.77 Y77.48;
G1 X211.05 Y77.5;
G1 X211.28 Y77.52;
G1 X211.45 Y77.54;
G1 X211.57 Y77.56;
G1 X211.64 Y77.59;
G1 X211.66 Y77.61;
G1 X211.65 Y77.64;
G1 X211.59 Y77.66;
G1 X211.5 Y77.69;
G1 X211.38 Y77.7;
G1 X211.22 Y77.73;
G1 X211.04 Y77.76;
G1 X210.82 Y77.78;
G1 X210.59 Y77.79;
G1 X210.34 Y77.81;
G1 X210.06 Y77.83;
G1 X209.78 Y77.84;
G1 X209.48 Y77.84;
G1 X209.17 Y77.84;
G1 X208.86 Y77.86;
G1 X208.51 Y77.86;
G1 X208.12 Y77.84;
G1 X207.7 Y77.83;
G1 X207.29 Y77.81;
G1 X206.9 Y77.78;
G1 X206.63 Y77.75;
G1 X206.63 Y77.75;
S0;( end pass 1 of 1 )


( start pass 1 of 1 )
G0 X51.47 Y82.01;
S300;
G1 X51.46 Y82.28 F700;
G1 X51.4 Y82.48;
G1 X51.31 Y82.61;
G1 X51.19 Y82.69;
G1 X51.05 Y82.69;
G1 X50.9 Y82.62;
G1 X50.88 Y82.61;
G1 X50.74 Y82.46;
G1 X50.62 Y82.23;
G1 X50.53 Y81.94;
G1 X50.47 Y81.59;
G1 X50.44 Y81.17;
G1 X50.44 Y80.69;
G1 X50.47 Y80.15;
G1 X50.5 Y79.88;
G1 X50.54 Y79.45;
G1 X50.58 Y79.08;
G1 X50.62 Y78.78;
G1 X50.66 Y78.55;
G1 X50.69 Y78.38;
G1 X50.73 Y78.27;
G1 X50.76 Y78.23;
G1 X50.8 Y78.23;
G1 X50.84 Y78.31;
G1 X50.89 Y78.45;
G1 X50.94 Y78.64;
G1 X51.0 Y78.89;
G1 X51.07 Y79.19;
G1 X51.08 Y79.28;
G1 X51.23 Y80.05;
G1 X51.35 Y80.84;
G1 X51.42 Y81.39;
G1 X51.46 Y81.77;
G1 X51.47 Y82.01;
G1 X51.47 Y82.01;
S0;( end pass 1 of 1 )


( start pass 1 of 1 )
G0 X74.47 Y79.31;
S300;
G1 X74.45 Y79.66 F700;
G1 X74.41 Y79.92;
G1 X74.34 Y80.11;
G1 X74.27 Y80.2;
G1 X74.18 Y80.23;
G1 X74.09 Y80.19;
G1 X74.05 Y80.15;
G1 X73.94 Y80.08;
G1 X73.81 Y80.06;
G1 X73.66 Y80.12;
G1 X73.5 Y80.22;
G1 X73.34 Y80.38;
G1 X73.17 Y80.58;
G1 X73.01 Y80.83;
G1 X72.93 Y80.95;
G1 X72.68 Y81.34;
G1 X72.41 Y81.67;
G1 X72.11 Y81.92;
G1 X71.81 Y82.09;
G1 X71.5 Y82.19;
G1 X71.2 Y82.21;
G1 X70.95 Y82.16;
G1 X70.72 Y82.05;
G1 X70.53 Y81.88;
G1 X70.36 Y81.64;
G1 X70.26 Y81.37;
G1 X70.2 Y81.18;
G1 X70.16 Y80.95;
G1 X70.09 Y80.79;
G1 X70.01 Y80.7;
G1 X69.91 Y80.67;
G1 X69.79 Y80.72;
G1 X69.66 Y80.83;
G1 X69.5 Y81.01;
G1 X69.31 Y81.26;
G1 X69.11 Y81.59;
G1 X69.09 Y81.61;
G1 X68.75 Y82.16;
G1 X68.45 Y82.55;
G1 X68.25 Y82.81;
G1 X68.09 Y82.98;
G1 X67.97 Y83.07;
G1 X67.89 Y83.1;
G1 X67.81 Y83.07;
G1 X67.76 Y82.97;
G1 X67.7 Y82.81;
G1 X67.66 Y82.61;
G1 X67.62 Y82.36;
G1 X67.59 Y82.07;
G1 X67.59 Y81.76;
G1 X67.59 Y81.61;
G1 X67.59 Y81.28;
G1 X67.59 Y81.03;
G1 X67.62 Y80.84;
G1 X67.65 Y80.73;
G1 X67.69 Y80.68;
G1 X67.73 Y80.7;
G1 X67.8 Y80.8;
G1 X67.88 Y80.95;
G1 X67.95 Y81.19;
G1 X67.95 Y81.2;
G1 X68.06 Y81.44;
G1 X68.16 Y81.59;
G1 X68.26 Y81.69;
G1 X68.38 Y81.7;
G1 X68.48 Y81.64;
G1 X68.62 Y81.52;
G1 X68.76 Y81.31;
G1 X68.92 Y81.06;
G1 X69.09 Y80.73;
G1 X69.2 Y80.51;
G1 X69.41 Y80.11;
G1 X69.63 Y79.78;
G1 X69.84 Y79.51;
G1 X70.08 Y79.31;
G1 X70.31 Y79.18;
G1 X70.54 Y79.11;
G1 X70.78 Y79.11;
G1 X71.02 Y79.18;
G1 X71.08 Y79.2;
G1 X71.34 Y79.29;
G1 X71.65 Y79.33;
G1 X71.98 Y79.31;
G1 X72.31 Y79.27;
G1 X72.64 Y79.17;
G1 X72.95 Y79.02;
G1 X73.17 Y78.88;
G1 X73.65 Y78.52;
G1 X73.95 Y78.3;
G1 X74.16 Y78.16;
G1 X74.29 Y78.06;
G1 X74.34 Y78.03;
G1 X74.34 Y78.03;
G1 X74.38 Y78.05;
G1 X74.41 Y78.15;
G1 X74.43 Y78.3;
G1 X74.44 Y78.51;
G1 X74.45 Y78.77;
G1 X74.47 Y79.05;
G1 X74.47 Y79.31;
G1 X74.47 Y79.31;
S0;( end pass 1 of 1 )


( start pass 1 of 1 )
G0 X66.86 Y80.62;
S300;
G1 X67.02 Y80.93 F700;
G1 X67.11 Y81.2;
G1 X67.14 Y81.44;
G1 X67.11 Y81.63;
G1 X67.02 Y81.78;
G1 X66.88 Y81.87;
G1 X66.69 Y81.92;
G1 X66.45 Y81.9;
G1 X66.17 Y81.83;
G1 X65.87 Y81.7;
G1 X65.61 Y81.54;
G1 X65.34 Y81.31;
G1 X65.12 Y81.02;
G1 X64.92 Y80.7;
G1 X64.75 Y80.37;
G1 X64.64 Y80.03;
G1 X64.63 Y79.97;
G1 X64.56 Y79.66;
G1 X64.55 Y79.41;
G1 X64.56 Y79.23;
G1 X64.63 Y79.11;
G1 X64.73 Y79.06;
G1 X64.89 Y79.06;
G1 X65.09 Y79.14;
G1 X65.34 Y79.26;
G1 X65.4 Y79.3;
G1 X65.81 Y79.56;
G1 X66.2 Y79.89;
G1 X66.56 Y80.23;
G1 X66.78 Y80.5;
G1 X66.86 Y80.62;
G1 X66.86 Y80.62;
S0;( end pass 1 of 1 )


( start pass 1 of 1 )
G0 X79.23 Y82.68;
S300;
G1 X79.3 Y83.2 F700;
G1 X79.33 Y83.76;
G1 X79.31 Y84.33;
G1 X79.27 Y84.89;
G1 X79.18 Y85.4;
G1 X79.08 Y85.81;
G1 X78.95 Y86.12;
G1 X78.84 Y86.33;
G1 X78.73 Y86.46;
G1 X78.59 Y86.52;
G1 X78.56 Y86.52;
G1 X78.48 Y86.56;
G1 X78.43 Y86.65;
G1 X78.39 Y86.8;
G1 X78.37 Y87.0;
G1 X78.37 Y87.23;
G1 X78.39 Y87.5;
G1 X78.44 Y87.8;
G1 X78.45 Y87.95;
G1 X78.53 Y88.28;
G1 X78.56 Y88.54;
G1 X78.56 Y88.74;
G1 X78.54 Y88.88;
G1 X78.48 Y88.94;
G1 X78.42 Y88.94;
G1 X78.31 Y88.86;
G1 X78.26 Y88.8;
G1 X78.14 Y88.69;
G1 X78.01 Y88.65;
G1 X77.89 Y88.68;
G1 X77.77 Y88.77;
G1 X77.67 Y88.91;
G1 X77.58 Y89.11;
G1 X77.53 Y89.3;
G1 X77.48 Y89.46;
G1 X77.45 Y89.55;
G1 X77.41 Y89.58;
G1 X77.37 Y89.55;
G1 X77.34 Y89.45;
G1 X77.31 Y89.3;
G1 X77.29 Y89.09;
G1 X77.27 Y88.83;
G1 X77.26 Y88.52;
G1 X77.26 Y88.5;
G1 X77.28 Y87.77;
G1 X77.36 Y87.14;
G1 X77.45 Y86.69;
G1 X77.55 Y86.38;
G1 X77.64 Y86.16;
G1 X77.7 Y86.06;
G1 X77.83 Y85.87;
G1 X77.92 Y85.62;
G1 X77.98 Y85.32;
G1 X78.01 Y84.98;
G1 X78.0 Y84.63;
G1 X77.95 Y84.29;
G1 X77.94 Y84.22;
G1 X77.84 Y83.61;
G1 X77.84 Y83.02;
G1 X77.88 Y82.53;
G1 X77.97 Y82.13;
G1 X78.08 Y81.83;
G1 X78.2 Y81.59;
G1 X78.36 Y81.45;
G1 X78.51 Y81.4;
G1 X78.58 Y81.39;
G1 X78.68 Y81.43;
G1 X78.78 Y81.53;
G1 X78.89 Y81.69;
G1 X78.98 Y81.9;
G1 X79.09 Y82.15;
G1 X79.17 Y82.43;
G1 X79.23 Y82.68;
G1 X79.23 Y82.68;
S0;( end pass 1 of 1 )


( start pass 1 of 1 )
G0 X185.57 Y84.33;
S300;
G1 X185.52 Y84.37 F700;
G1 X185.44 Y84.34;
G1 X185.35 Y84.24;
G1 X185.25 Y84.08;
G1 X185.14 Y83.87;
G1 X185.02 Y83.6;
G1 X184.9 Y83.29;
G1 X184.77 Y82.94;
G1 X184.75 Y82.85;
G1 X184.61 Y82.44;
G1 X184.51 Y82.1;
G1 X184.42 Y81.83;
G1 X184.37 Y81.63;
G1 X184.34 Y81.5;
G1 X184.34 Y81.44;
G1 X184.37 Y81.45;
G1 X184.43 Y81.52;
G1 X184.51 Y81.65;
G1 X184.63 Y81.84;
G1 X184.78 Y82.11;
G1 X184.96 Y82.43;
G1 X184.96 Y82.44;
G1 X185.26 Y83.02;
G1 X185.44 Y83.46;
G1 X185.54 Y83.79;
G1 X185.59 Y84.04;
G1 X185.6 Y84.23;
G1 X185.57 Y84.33;
G1 X185.57 Y84.33;
S0;( end pass 1 of 1 )


( start pass 1 of 1 )
G0 X66.16 Y84.26;
S300;
G1 X66.01 Y84.44 F700;
G1 X65.8 Y84.61;
G1 X65.54 Y84.75;
G1 X65.23 Y84.88;
G1 X64.92 Y84.99;
G1 X64.59 Y85.07;
G1 X64.26 Y85.13;
G1 X63.94 Y85.16;
G1 X63.65 Y85.16;
G1 X63.4 Y85.13;
G1 X63.19 Y85.07;
G1 X63.05 Y84.97;
G1 X62.99 Y84.85;
G1 X62.99 Y84.79;
G1 X63.03 Y84.61;
G1 X63.14 Y84.45;
G1 X63.31 Y84.3;
G1 X63.55 Y84.17;
G1 X63.83 Y84.07;
G1 X64.14 Y84.0;
G1 X64.48 Y83.96;
G1 X64.67 Y83.96;
G1 X65.18 Y83.97;
G1 X65.56 Y84.01;
G1 X65.86 Y84.06;
G1 X66.04 Y84.12;
G1 X66.15 Y84.18;
G1 X66.17 Y84.24;
G1 X66.16 Y84.26;
G1 X66.16 Y84.26;
S0;( end pass 1 of 1 )


( start pass 1 of 1 )
G0 X69.31 Y84.95;
S300;
G1 X69.05 Y85.21 F700;
G1 X68.75 Y85.41;
G1 X68.44 Y85.54;
G1 X68.13 Y85.62;
G1 X67.81 Y85.63;
G1 X67.54 Y85.58;
G1 X67.29 Y85.46;
G1 X67.11 Y85.3;
G1 X66.98 Y85.09;
G1 X66.95 Y85.03;
G1 X66.95 Y84.89;
G1 X67.02 Y84.76;
G1 X67.14 Y84.64;
G1 X67.33 Y84.53;
G1 X67.56 Y84.44;
G1 X67.84 Y84.37;
G1 X68.16 Y84.33;
G1 X68.33 Y84.32;
G1 X68.68 Y84.32;
G1 X68.97 Y84.35;
G1 X69.2 Y84.4;
G1 X69.34 Y84.48;
G1 X69.43 Y84.59;
G1 X69.44 Y84.72;
G1 X69.38 Y84.85;
G1 X69.31 Y84.95;
G1 X69.31 Y84.95;
S0;( end pass 1 of 1 )


( start pass 1 of 1 )
G0 X72.97 Y84.48;
S300;
G1 X72.84 Y84.61 F700;
G1 X72.69 Y84.69;
G1 X72.51 Y84.71;
G1 X72.31 Y84.67;
G1 X72.11 Y84.56;
G1 X72.09 Y84.54;
G1 X71.94 Y84.42;
G1 X71.88 Y84.3;
G1 X71.88 Y84.21;
G1 X71.95 Y84.13;
G1 X72.09 Y84.07;
G1 X72.31 Y84.03;
G1 X72.36 Y84.03;
G1 X72.62 Y84.03;
G1 X72.81 Y84.08;
G1 X72.94 Y84.17;
G1 X73.0 Y84.28;
G1 X72.98 Y84.41;
G1 X72.97 Y84.48;
G1 X72.97 Y84.48;
S0;( end pass 1 of 1 )


( start pass 1 of 1 )
G0 X188.6 Y84.81;
S300;
G1 X188.65 Y85.06 F700;
G1 X188.64 Y85.27;
G1 X188.57 Y85.45;
G1 X188.44 Y85.58;
G1 X188.27 Y85.66;
G1 X188.14 Y85.67;
G1 X187.95 Y85.63;
G1 X187.79 Y85.54;
G1 X187.69 Y85.39;
G1 X187.64 Y85.19;
G1 X187.65 Y84.97;
G1 X187.68 Y84.81;
G1 X187.83 Y84.44;
G1 X187.95 Y84.19;
G1 X188.05 Y84.03;
G1 X188.12 Y83.96;
G1 X188.14 Y83.96;
G1 X188.2 Y83.99;
G1 X188.28 Y84.09;
G1 X188.37 Y84.24;
G1 X188.46 Y84.44;
G1 X188.55 Y84.66;
G1 X188.6 Y84.81;
G1 X188.6 Y84.81;
S0;( end pass 1 of 1 )


( start pass 1 of 1 )
G0 X54.03 Y85.66;
S300;
G1 X54.08 Y85.87 F700;
G1 X54.08 Y86.02;
G1 X54.03 Y86.11;
G1 X53.94 Y86.15;
G1 X53.8 Y86.12;
G1 X53.63 Y86.02;
G1 X53.59 Y86.0;
G1 X53.31 Y85.77;
G1 X53.1 Y85.54;
G1 X52.96 Y85.33;
G1 X52.9 Y85.16;
G1 X52.91 Y85.02;
G1 X52.98 Y84.91;
G1 X53.1 Y84.84;
G1 X53.29 Y84.81;
G1 X53.31 Y84.81;
G1 X53.45 Y84.85;
G1 X53.59 Y84.95;
G1 X53.73 Y85.09;
G1 X53.86 Y85.29;
G1 X53.97 Y85.51;
G1 X54.03 Y85.66;
G1 X54.03 Y85.66;
S0;( end pass 1 of 1 )


( start pass 1 of 1 )
G0 X77.06 Y86.89;
S300;
G1 X76.92 Y87.46 F700;
G1 X76.78 Y87.91;
G1 X76.66 Y88.24;
G1 X76.56 Y88.47;
G1 X76.48 Y88.61;
G1 X76.43 Y88.68;
G1 X76.39 Y88.68;
G1 X76.38 Y88.66;
G1 X76.34 Y88.52;
G1 X76.31 Y88.3;
G1 X76.31 Y88.04;
G1 X76.34 Y87.72;
G1 X76.39 Y87.38;
G1 X76.45 Y87.02;
G1 X76.52 Y86.65;
G1 X76.59 Y86.28;
G1 X76.69 Y85.93;
G1 X76.78 Y85.61;
G1 X76.88 Y85.32;
G1 X76.98 Y85.09;
G1 X77.06 Y84.92;
G1 X77.15 Y84.83;
G1 X77.2 Y84.81;
G1 X77.27 Y84.85;
G1 X77.31 Y84.94;
G1 X77.33 Y85.1;
G1 X77.34 Y85.3;
G1 X77.31 Y85.55;
G1 X77.28 Y85.83;
G1 X77.23 Y86.15;
G1 X77.16 Y86.5;
G1 X77.08 Y86.87;
G1 X77.06 Y86.89;
G1 X77.06 Y86.89;
S0;( end pass 1 of 1 )


( start pass 1 of 1 )
G0 X182.33 Y86.63;
S300;
G1 X182.18 Y86.82 F700;
G1 X182.09 Y86.98;
G1 X182.06 Y87.11;
G1 X182.1 Y87.21;
G1 X182.19 Y87.29;
G1 X182.35 Y87.34;
G1 X182.58 Y87.36;
G1 X182.71 Y87.37;
G1 X182.97 Y87.33;
G1 X183.23 Y87.23;
G1 X183.46 Y87.08;
G1 X183.66 Y86.87;
G1 X183.82 Y86.63;
G1 X183.92 Y86.36;
G1 X183.94 Y86.31;
G1 X184.0 Y86.06;
G1 X184.06 Y85.87;
G1 X184.13 Y85.75;
G1 X184.19 Y85.7;
G1 X184.27 Y85.72;
G1 X184.35 Y85.8;
G1 X184.43 Y85.94;
G1 X184.53 Y86.15;
G1 X184.55 Y86.21;
G1 X184.71 Y86.53;
G1 X184.94 Y86.85;
G1 X185.21 Y87.15;
G1 X185.51 Y87.41;
G1 X185.81 Y87.59;
G1 X185.85 Y87.61;
G1 X185.93 Y87.66;
G1 X185.94 Y87.72;
G1 X185.89 Y87.77;
G1 X185.78 Y87.82;
G1 X185.61 Y87.87;
G1 X185.38 Y87.92;
G1 X185.11 Y87.96;
G1 X184.78 Y88.0;
G1 X184.41 Y88.04;
G1 X184.0 Y88.07;
G1 X183.55 Y88.1;
G1 X183.06 Y88.13;
G1 X182.54 Y88.14;
G1 X182.4 Y88.15;
G1 X180.87 Y88.2;
G1 X179.89 Y88.25;
G1 X179.14 Y88.3;
G1 X178.54 Y88.35;
G1 X178.05 Y88.4;
G1 X177.68 Y88.45;
G1 X177.39 Y88.49;
G1 X177.19 Y88.53;
G1 X177.12 Y88.55;
G1 X176.89 Y88.62;
G1 X176.73 Y88.65;
G1 X176.64 Y88.65;
G1 X176.61 Y88.62;
G1 X176.65 Y88.57;
G1 X176.76 Y88.48;
G1 X176.78 Y88.48;
G1 X176.97 Y88.31;
G1 X177.14 Y88.08;
G1 X177.26 Y87.8;
G1 X177.34 Y87.52;
G1 X177.35 Y87.34;
G1 X177.38 Y87.18;
G1 X177.47 Y87.06;
G1 X177.61 Y86.98;
G1 X177.79 Y86.93;
G1 X178.01 Y86.92;
G1 X178.26 Y86.94;
G1 X178.53 Y87.01;
G1 X178.67 Y87.06;
G1 X179.03 Y87.16;
G1 X179.37 Y87.19;
G1 X179.69 Y87.14;
G1 X179.97 Y87.02;
G1 X180.23 Y86.83;
G1 X180.45 Y86.57;
G1 X180.61 Y86.31;
G1 X180.8 Y86.01;
G1 X181.02 Y85.76;
G1 X181.27 Y85.57;
G1 X181.54 Y85.46;
G1 X181.77 Y85.42;
G1 X182.0 Y85.46;
G1 X182.08 Y85.49;
G1 X182.34 Y85.63;
G1 X182.51 Y85.77;
G1 X182.61 Y85.91;
G1 X182.64 Y86.07;
G1 X182.59 Y86.24;
G1 X182.47 Y86.44;
G1 X182.33 Y86.63;
G1 X182.33 Y86.63;
S0;( end pass 1 of 1 )


( start pass 1 of 1 )
G0 X195.26 Y86.19;
S300;
G1 X195.28 Y86.52 F700;
G1 X195.32 Y86.79;
G1 X195.38 Y86.99;
G1 X195.48 Y87.11;
G1 X195.6 Y87.17;
G1 X195.75 Y87.16;
G1 X195.92 Y87.09;
G1 X196.02 Y87.02;
G1 X196.22 Y86.89;
G1 X196.36 Y86.81;
G1 X196.46 Y86.79;
G1 X196.51 Y86.82;
G1 X196.52 Y86.91;
G1 X196.49 Y87.06;
G1 X196.42 Y87.26;
G1 X196.31 Y87.52;
G1 X196.22 Y87.73;
G1 X196.05 Y88.04;
G1 X195.84 Y88.28;
G1 X195.6 Y88.46;
G1 X195.33 Y88.57;
G1 X195.01 Y88.62;
G1 X194.64 Y88.6;
G1 X194.23 Y88.53;
G1 X194.01 Y88.47;
G1 X193.65 Y88.37;
G1 X193.34 Y88.3;
G1 X193.09 Y88.27;
G1 X192.9 Y88.29;
G1 X192.76 Y88.34;
G1 X192.67 Y88.43;
G1 X192.63 Y88.57;
G1 X192.64 Y88.74;
G1 X192.69 Y88.96;
G1 X192.7 Y88.97;
G1 X192.81 Y89.23;
G1 X192.94 Y89.43;
G1 X193.09 Y89.55;
G1 X193.22 Y89.59;
G1 X193.35 Y89.57;
G1 X193.46 Y89.48;
G1 X193.57 Y89.38;
G1 X193.67 Y89.36;
G1 X193.75 Y89.39;
G1 X193.82 Y89.49;
G1 X193.87 Y89.64;
G1 X193.88 Y89.85;
G1 X193.89 Y89.89;
G1 X193.85 Y90.17;
G1 X193.76 Y90.42;
G1 X193.61 Y90.61;
G1 X193.43 Y90.75;
G1 X193.24 Y90.8;
G1 X193.2 Y90.8;
G1 X193.0 Y90.76;
G1 X192.83 Y90.66;
G1 X192.69 Y90.5;
G1 X192.58 Y90.3;
G1 X192.52 Y90.06;
G1 X192.51 Y89.89;
G1 X192.49 Y89.68;
G1 X192.43 Y89.53;
G1 X192.35 Y89.45;
G1 X192.24 Y89.43;
G1 X192.11 Y89.48;
G1 X191.96 Y89.6;
G1 X191.93 Y89.63;
G1 X191.83 Y89.73;
G1 X191.76 Y89.77;
G1 X191.72 Y89.74;
G1 X191.71 Y89.65;
G1 X191.74 Y89.51;
G1 X191.8 Y89.3;
G1 X191.89 Y89.05;
G1 X192.02 Y88.74;
G1 X192.05 Y88.67;
G1 X192.2 Y88.3;
G1 X192.32 Y88.01;
G1 X192.41 Y87.77;
G1 X192.47 Y87.58;
G1 X192.5 Y87.45;
G1 X192.5 Y87.37;
G1 X192.46 Y87.33;
G1 X192.4 Y87.34;
G1 X192.3 Y87.38;
G1 X192.17 Y87.46;
G1 X192.01 Y87.57;
G1 X191.82 Y87.67;
G1 X191.66 Y87.69;
G1 X191.53 Y87.65;
G1 X191.42 Y87.54;
G1 X191.34 Y87.36;
G1 X191.29 Y87.11;
G1 X191.28 Y86.87;
G1 X191.29 Y86.51;
G1 X191.3 Y86.22;
G1 X191.32 Y86.0;
G1 X191.36 Y85.84;
G1 X191.42 Y85.76;
G1 X191.51 Y85.75;
G1 X191.63 Y85.8;
G1 X191.78 Y85.92;
G1 X191.96 Y86.11;
G1 X192.19 Y86.36;
G1 X192.45 Y86.66;
G1 X192.7 Y86.9;
G1 X192.97 Y87.06;
G1 X193.25 Y87.16;
G1 X193.52 Y87.19;
G1 X193.79 Y87.17;
G1 X194.03 Y87.09;
G1 X194.25 Y86.96;
G1 X194.43 Y86.78;
G1 X194.56 Y86.56;
G1 X194.64 Y86.3;
G1 X194.65 Y86.01;
G1 X194.59 Y85.72;
G1 X194.58 Y85.68;
G1 X194.51 Y85.38;
G1 X194.5 Y85.16;
G1 X194.55 Y84.98;
G1 X194.63 Y84.87;
G1 X194.75 Y84.82;
G1 X194.78 Y84.81;
G1 X194.89 Y84.85;
G1 X195.0 Y84.96;
G1 X195.09 Y85.13;
G1 X195.16 Y85.36;
G1 X195.22 Y85.63;
G1 X195.25 Y85.93;
G1 X195.26 Y86.19;
G1 X195.26 Y86.19;
S0;( end pass 1 of 1 )


( start pass 1 of 1 )
G0 X70.19 Y86.91;
S300;
G1 X70.92 Y86.94 F700;
G1 X71.52 Y86.98;
G1 X72.04 Y87.04;
G1 X72.51 Y87.12;
G1 X72.9 Y87.2;
G1 X73.22 Y87.3;
G1 X73.48 Y87.41;
G1 X73.66 Y87.53;
G1 X73.77 Y87.66;
G1 X73.81 Y87.79;
G1 X73.77 Y87.93;
G1 X73.65 Y88.08;
G1 X73.45 Y88.24;
G1 X73.19 Y88.39;
G1 X72.87 Y88.54;
G1 X72.48 Y88.69;
G1 X72.44 Y88.71;
G1 X72.08 Y88.8;
G1 X71.68 Y88.85;
G1 X71.23 Y88.85;
G1 X70.76 Y88.82;
G1 X70.26 Y88.75;
G1 X69.75 Y88.63;
G1 X69.22 Y88.48;
G1 X68.69 Y88.29;
G1 X68.17 Y88.07;
G1 X68.14 Y88.06;
G1 X67.42 Y87.76;
G1 X66.7 Y87.53;
G1 X66.06 Y87.38;
G1 X65.53 Y87.3;
G1 X65.09 Y87.27;
G1 X64.75 Y87.29;
G1 X64.5 Y87.34;
G1 X64.36 Y87.4;
G1 X63.34 Y87.87;
G1 X62.52 Y88.21;
G1 X61.81 Y88.46;
G1 X61.29 Y88.62;
G1 X60.86 Y88.73;
G1 X60.5 Y88.81;
G1 X60.23 Y88.84;
G1 X60.02 Y88.84;
G1 X59.9 Y88.8;
G1 X59.85 Y88.73;
G1 X59.87 Y88.63;
G1 X59.88 Y88.61;
G1 X60.04 Y88.38;
G1 X60.27 Y88.14;
G1 X60.56 Y87.89;
G1 X60.91 Y87.65;
G1 X61.3 Y87.42;
G1 X61.72 Y87.2;
G1 X62.16 Y86.98;
G1 X62.62 Y86.79;
G1 X63.09 Y86.62;
G1 X63.55 Y86.47;
G1 X64.0 Y86.34;
G1 X64.43 Y86.25;
G1 X64.83 Y86.2;
G1 X65.18 Y86.18;
G1 X65.48 Y86.2;
G1 X65.73 Y86.28;
G1 X65.73 Y86.28;
G1 X65.97 Y86.37;
G1 X66.28 Y86.45;
G1 X66.64 Y86.54;
G1 X67.06 Y86.61;
G1 X67.53 Y86.68;
G1 X68.04 Y86.75;
G1 X68.56 Y86.8;
G1 X69.11 Y86.85;
G1 X69.67 Y86.89;
G1 X70.19 Y86.91;
G1 X70.19 Y86.91;
S0;( end pass 1 of 1 )


( start pass 1 of 1 )
G0 X175.85 Y88.23;
S300;
G1 X175.44 Y88.81 F700;
G1 X175.12 Y89.23;
G1 X174.88 Y89.52;
G1 X174.7 Y89.72;
G1 X174.55 Y89.86;
G1 X174.45 Y89.93;
G1 X174.41 Y89.94;
G1 X174.35 Y89.91;
G1 X174.3 Y89.79;
G1 X174.25 Y89.61;
G1 X174.21 Y89.38;
G1 X174.17 Y89.09;
G1 X174.15 Y88.77;
G1 X174.14 Y88.41;
G1 X174.14 Y88.23;
G1 X174.15 Y87.82;
G1 X174.19 Y87.48;
G1 X174.26 Y87.2;
G1 X174.36 Y86.97;
G1 X174.5 Y86.8;
G1 X174.69 Y86.67;
G1 X174.93 Y86.59;
G1 X175.21 Y86.54;
G1 X175.56 Y86.52;
G1 X175.58 Y86.52;
G1 X177.02 Y86.52;
G1 X175.85 Y88.23;
S0;( end pass 1 of 1 )


( start pass 1 of 1 )
G0 X190.25 Y87.61;
S300;
G1 X190.24 Y87.82 F700;
G1 X190.23 Y88.09;
G1 X190.22 Y88.41;
G1 X190.22 Y88.77;
G1 X190.21 Y89.14;
G1 X190.21 Y89.54;
G1 X190.21 Y89.57;
G1 X190.2 Y89.89;
G1 X190.15 Y90.15;
G1 X190.08 Y90.34;
G1 X190.0 Y90.44;
G1 X189.91 Y90.47;
G1 X189.81 Y90.43;
G1 X189.74 Y90.36;
G1 X189.6 Y90.14;
G1 X189.5 Y89.88;
G1 X189.45 Y89.59;
G1 X189.46 Y89.32;
G1 X189.5 Y89.15;
G1 X189.52 Y89.01;
G1 X189.47 Y88.89;
G1 X189.35 Y88.81;
G1 X189.18 Y88.76;
G1 X188.97 Y88.76;
G1 X188.71 Y88.79;
G1 X188.48 Y88.85;
G1 X187.23 Y89.22;
G1 X188.37 Y87.96;
G1 X188.72 Y87.6;
G1 X189.03 Y87.32;
G1 X189.31 Y87.11;
G1 X189.57 Y86.96;
G1 X189.76 Y86.9;
G1 X189.93 Y86.89;
G1 X190.06 Y86.94;
G1 X190.16 Y87.05;
G1 X190.22 Y87.23;
G1 X190.25 Y87.46;
G1 X190.25 Y87.61;
G1 X190.25 Y87.61;
S0;( end pass 1 of 1 )


( start pass 1 of 1 )
G0 X58.5 Y87.95;
S300;
G1 X58.34 Y88.12 F700;
G1 X58.22 Y88.34;
G1 X58.15 Y88.6;
G1 X58.13 Y88.86;
G1 X58.18 Y89.13;
G1 X58.18 Y89.15;
G1 X58.22 Y89.33;
G1 X58.21 Y89.46;
G1 X58.15 Y89.54;
G1 X58.05 Y89.55;
G1 X57.9 Y89.51;
G1 X57.73 Y89.41;
G1 X57.69 Y89.39;
G1 X57.46 Y89.21;
G1 X57.31 Y89.04;
G1 X57.22 Y88.88;
G1 X57.21 Y88.71;
G1 X57.27 Y88.53;
G1 X57.4 Y88.32;
G1 X57.55 Y88.13;
G1 X57.87 Y87.82;
G1 X58.17 Y87.6;
G1 X58.41 Y87.49;
G1 X58.59 Y87.46;
G1 X58.62 Y87.46;
G1 X58.74 Y87.5;
G1 X58.78 Y87.57;
G1 X58.76 Y87.67;
G1 X58.67 Y87.8;
G1 X58.52 Y87.93;
G1 X58.5 Y87.95;
G1 X58.5 Y87.95;
S0;( end pass 1 of 1 )


( start pass 1 of 1 )
G0 X75.64 Y89.03;
S300;
G1 X75.5 Y89.31 F700;
G1 X75.31 Y89.56;
G1 X75.09 Y89.75;
G1 X74.84 Y89.87;
G1 X74.61 Y89.92;
G1 X74.56 Y89.92;
G1 X74.31 Y89.9;
G1 X74.17 Y89.86;
G1 X74.08 Y89.79;
G1 X74.06 Y89.68;
G1 X74.09 Y89.55;
G1 X74.19 Y89.36;
G1 X74.33 Y89.13;
G1 X74.51 Y88.86;
G1 X74.66 Y88.64;
G1 X74.91 Y88.32;
G1 X75.14 Y88.07;
G1 X75.33 Y87.89;
G1 X75.5 Y87.79;
G1 X75.64 Y87.76;
G1 X75.73 Y87.81;
G1 X75.8 Y87.92;
G1 X75.83 Y88.08;
G1 X75.81 Y88.3;
G1 X75.77 Y88.58;
G1 X75.68 Y88.91;
G1 X75.64 Y89.03;
G1 X75.64 Y89.03;
S0;( end pass 1 of 1 )


( start pass 1 of 1 )
G0 X81.81 Y88.02;
S300;
G1 X81.8 Y88.22 F700;
G1 X81.76 Y88.48;
G1 X81.7 Y88.78;
G1 X81.62 Y89.1;
G1 X81.53 Y89.43;
G1 X81.43 Y89.75;
G1 X81.41 Y89.8;
G1 X81.31 Y90.08;
G1 X81.23 Y90.28;
G1 X81.15 Y90.41;
G1 X81.08 Y90.47;
G1 X81.02 Y90.46;
G1 X80.95 Y90.38;
G1 X80.9 Y90.22;
G1 X80.84 Y89.99;
G1 X80.77 Y89.69;
G1 X80.76 Y89.67;
G1 X80.68 Y89.06;
G1 X80.66 Y88.58;
G1 X80.68 Y88.24;
G1 X80.73 Y88.01;
G1 X80.78 Y87.89;
G1 X80.93 Y87.66;
G1 X81.09 Y87.51;
G1 X81.26 Y87.42;
G1 X81.42 Y87.4;
G1 X81.56 Y87.44;
G1 X81.69 Y87.55;
G1 X81.77 Y87.72;
G1 X81.81 Y87.93;
G1 X81.81 Y88.02;
G1 X81.81 Y88.02;
S0;( end pass 1 of 1 )


( start pass 1 of 1 )
G0 X157.13 Y89.09;
S300;
G1 X157.12 Y89.62 F700;
G1 X157.06 Y90.04;
G1 X156.99 Y90.36;
G1 X156.9 Y90.59;
G1 X156.82 Y90.73;
G1 X156.72 Y90.79;
G1 X156.68 Y90.8;
G1 X156.58 Y90.76;
G1 X156.49 Y90.65;
G1 X156.41 Y90.47;
G1 X156.34 Y90.23;
G1 X156.29 Y89.95;
G1 X156.25 Y89.62;
G1 X156.22 Y89.27;
G1 X156.22 Y89.09;
G1 X156.25 Y88.56;
G1 X156.3 Y88.14;
G1 X156.38 Y87.82;
G1 X156.46 Y87.59;
G1 X156.55 Y87.45;
G1 X156.63 Y87.39;
G1 X156.68 Y87.38;
G1 X156.78 Y87.42;
G1 X156.87 Y87.53;
G1 X156.94 Y87.71;
G1 X157.02 Y87.95;
G1 X157.08 Y88.23;
G1 X157.12 Y88.56;
G1 X157.13 Y88.91;
G1 X157.13 Y89.09;
G1 X157.13 Y89.09;
S0;( end pass 1 of 1 )


( start pass 1 of 1 )
G0 X63.41 Y90.19;
S300;
G1 X63.34 Y90.28 F700;
G1 X63.22 Y90.43;
G1 X63.08 Y90.63;
G1 X62.9 Y90.88;
G1 X62.71 Y91.15;
G1 X62.5 Y91.44;
G1 X62.32 Y91.68;
G1 X62.14 Y91.93;
G1 X61.98 Y92.11;
G1 X61.86 Y92.23;
G1 X61.77 Y92.28;
G1 X61.71 Y92.27;
G1 X61.7 Y92.19;
G1 X61.72 Y92.06;
G1 X61.75 Y91.94;
G1 X61.83 Y91.58;
G1 X61.83 Y91.22;
G1 X61.76 Y90.92;
G1 X61.66 Y90.7;
G1 X61.51 Y90.53;
G1 X61.5 Y90.51;
G1 X61.4 Y90.42;
G1 X61.38 Y90.33;
G1 X61.42 Y90.24;
G1 X61.51 Y90.17;
G1 X61.67 Y90.11;
G1 X61.87 Y90.06;
G1 X62.12 Y90.02;
G1 X62.26 Y90.01;
G1 X62.7 Y90.0;
G1 X63.0 Y90.02;
G1 X63.21 Y90.05;
G1 X63.36 Y90.09;
G1 X63.42 Y90.14;
G1 X63.41 Y90.19;
G1 X63.41 Y90.19;
S0;( end pass 1 of 1 )


( start pass 1 of 1 )
G0 X67.45 Y90.46;
S300;
G1 X67.34 Y90.6 F700;
G1 X67.18 Y90.68;
G1 X67.0 Y90.69;
G1 X66.8 Y90.65;
G1 X66.59 Y90.54;
G1 X66.56 Y90.53;
G1 X66.43 Y90.4;
G1 X66.37 Y90.29;
G1 X66.37 Y90.19;
G1 X66.45 Y90.11;
G1 X66.59 Y90.05;
G1 X66.81 Y90.02;
G1 X66.84 Y90.01;
G1 X67.11 Y90.02;
G1 X67.31 Y90.07;
G1 X67.43 Y90.15;
G1 X67.48 Y90.26;
G1 X67.48 Y90.4;
G1 X67.45 Y90.46;
G1 X67.45 Y90.46;
S0;( end pass 1 of 1 )


( start pass 1 of 1 )
G0 X195.49 Y90.8;
S300;
G1 X195.34 Y91.14 F700;
G1 X195.16 Y91.4;
G1 X194.98 Y91.57;
G1 X194.82 Y91.65;
G1 X194.75 Y91.66;
G1 X194.63 Y91.62;
G1 X194.55 Y91.52;
G1 X194.5 Y91.37;
G1 X194.5 Y91.18;
G1 X194.53 Y90.95;
G1 X194.57 Y90.8;
G1 X194.73 Y90.46;
G1 X194.91 Y90.2;
G1 X195.09 Y90.03;
G1 X195.25 Y89.95;
G1 X195.32 Y89.94;
G1 X195.44 Y89.98;
G1 X195.52 Y90.08;
G1 X195.56 Y90.23;
G1 X195.57 Y90.42;
G1 X195.54 Y90.65;
G1 X195.49 Y90.8;
G1 X195.49 Y90.8;
S0;( end pass 1 of 1 )


( start pass 1 of 1 )
G0 X76.31 Y91.66;
S300;
G1 X76.27 Y91.9 F700;
G1 X76.18 Y92.11;
G1 X76.04 Y92.29;
G1 X75.86 Y92.41;
G1 X75.64 Y92.49;
G1 X75.5 Y92.5;
G1 X75.26 Y92.49;
G1 X75.09 Y92.46;
G1 X74.98 Y92.4;
G1 X74.95 Y92.31;
G1 X75.0 Y92.18;
G1 X75.09 Y92.03;
G1 X75.23 Y91.83;
G1 X75.39 Y91.66;
G1 X75.62 Y91.37;
G1 X75.81 Y91.15;
G1 X75.97 Y91.0;
G1 X76.09 Y90.9;
G1 X76.17 Y90.87;
G1 X76.23 Y90.91;
G1 X76.27 Y91.0;
G1 X76.29 Y91.16;
G1 X76.3 Y91.38;
G1 X76.31 Y91.66;
G1 X76.31 Y91.66;
S0;( end pass 1 of 1 )


( start pass 1 of 1 )
G0 X80.26 Y93.13;
S300;
G1 X80.15 Y93.29 F700;
G1 X80.05 Y93.39;
G1 X79.95 Y93.42;
G1 X79.88 Y93.39;
G1 X79.8 Y93.31;
G1 X79.73 Y93.19;
G1 X79.69 Y93.03;
G1 X79.65 Y92.84;
G1 X79.63 Y92.62;
G1 X79.63 Y92.38;
G1 X79.66 Y92.13;
G1 X79.7 Y91.87;
G1 X79.77 Y91.61;
G1 X79.79 Y91.54;
G1 X79.89 Y91.26;
G1 X79.97 Y91.06;
G1 X80.04 Y90.93;
G1 X80.11 Y90.89;
G1 X80.17 Y90.92;
G1 X80.22 Y91.02;
G1 X80.27 Y91.21;
G1 X80.33 Y91.47;
G1 X80.34 Y91.54;
G1 X80.4 Y92.07;
G1 X80.39 Y92.53;
G1 X80.34 Y92.87;
G1 X80.28 Y93.08;
G1 X80.26 Y93.13;
G1 X80.26 Y93.13;
S0;( end pass 1 of 1 )


